; generated by PrusaSlicer 2.3.3+win64 on 2021-11-23 at 13:56:05 UTC

; 

; external perimeters extrusion width = 0.45mm
; perimeters extrusion width = 0.45mm
; infill extrusion width = 0.45mm
; solid infill extrusion width = 0.45mm
; top infill extrusion width = 0.40mm
; first layer extrusion width = 0.42mm

M73 P0 R139
M73 Q0 S139
M201 X1000 Y1000 Z200 E5000 ; sets maximum accelerations, mm/sec^2
M203 X200 Y200 Z12 E120 ; sets maximum feedrates, mm/sec
M204 P1250 R1250 T1250 ; sets acceleration (P, T) and retract acceleration (R), mm/sec^2
M205 X8.00 Y8.00 Z0.40 E4.50 ; sets the jerk limits, mm/sec
M205 S0 T0 ; sets the minimum extruding and travel feed rate, mm/sec
M107
;TYPE:Custom
M862.3 P "MK3S" ; printer model check
M862.1 P0.4 ; nozzle diameter check
M115 U3.10.0 ; tell printer latest fw version
G90 ; use absolute coordinates
M83 ; extruder relative mode
M104 S215 ; set extruder temp
M140 S60 ; set bed temp
M190 S60 ; wait for bed temp
M109 S215 ; wait for extruder temp
G28 W ; home all without mesh bed level
G80 ; mesh bed leveling
G1 Y-3.0 F1000.0 ; go outside print area
G92 E0.0
G1 X60.0 E9.0 F1000.0 ; intro line
G1 X100.0 E12.5 F1000.0 ; intro line
G92 E0.0
M221 S95

; Don't change E values below. Excessive value can damage the printer.
M907 E430 ; set extruder motor current
G21 ; set units to millimeters
G90 ; use absolute coordinates
M83 ; use relative distances for extrusion
M900 K0.05 ; Filament gcode LA 1.5
M900 K30 ; Filament gcode LA 1.0
;LAYER_CHANGE
;Z:0.2
;HEIGHT:0.2
;BEFORE_LAYER_CHANGE
G92 E0.0
;0.2


G1 E-0.80000 F2100.000
G1 Z0.400 F10800.000
;AFTER_LAYER_CHANGE
;0.2
G1 X75.989 Y62.519
G1 Z0.200
G1 E0.80000 F2100.000
M204 S1000
;TYPE:Skirt
;WIDTH:0.42
G1 F1200.000
G1 X76.158 Y62.314 E0.00833
G1 X78.798 Y59.469 E0.12171
G1 X81.601 Y56.789 E0.12159
G1 X84.509 Y54.322 E0.11956
G1 X87.728 Y51.909 E0.12616
G1 X90.910 Y49.810 E0.11952
G1 X94.272 Y47.869 E0.12171
G1 X97.740 Y46.134 E0.12159
G1 X101.246 Y44.635 E0.11956
G1 X105.034 Y43.277 E0.12616
G1 X108.693 Y42.209 E0.11952
G1 X112.474 Y41.346 E0.12159
G1 X116.303 Y40.710 E0.12171
G1 X120.095 Y40.311 E0.11956
G1 X124.083 Y40.130 E0.12517
G1 X127.926 Y40.188 E0.12051
G1 X131.728 Y40.472 E0.11956
G1 X135.712 Y41.012 E0.12604
G1 X139.452 Y41.750 E0.11952
G1 X143.208 Y42.726 E0.12171
G1 X146.897 Y43.925 E0.12159
G1 X150.450 Y45.318 E0.11968
G1 X154.097 Y47.008 E0.12604
G1 X157.454 Y48.815 E0.11952
G1 X160.756 Y50.856 E0.12171
G1 X163.927 Y53.088 E0.12159
G1 X166.909 Y55.465 E0.11956
G1 X169.899 Y58.157 E0.12616
G1 X172.573 Y60.873 E0.11952
G1 X175.127 Y63.796 E0.12171
G1 X177.499 Y66.864 E0.12159
G1 X179.648 Y70.014 E0.11956
G1 X181.712 Y73.468 E0.12616
G1 X183.467 Y76.852 E0.11952
G1 X185.046 Y80.398 E0.12171
G1 X186.408 Y84.029 E0.12159
G1 X187.533 Y87.672 E0.11956
G1 X188.487 Y91.581 E0.12616
G1 X189.167 Y95.332 E0.11952
G1 X189.630 Y99.186 E0.12171
G1 X189.862 Y103.057 E0.12159
G1 X189.863 Y106.870 E0.11956
G1 X189.622 Y110.886 E0.12616
G1 X189.166 Y114.671 E0.11952
G1 X188.473 Y118.490 E0.12171
G1 X187.554 Y122.257 E0.12159
G1 X186.431 Y125.901 E0.11956
G1 X185.017 Y129.668 E0.12616
G1 X183.466 Y133.150 E0.11952
G1 X181.678 Y136.596 E0.12171
G1 X179.689 Y139.924 E0.12159
G1 X177.542 Y143.076 E0.11956
G1 X175.080 Y146.259 E0.12616
G1 X172.571 Y149.129 E0.11952
G1 X169.850 Y151.891 E0.12159
G1 X166.965 Y154.488 E0.12171
G1 X163.985 Y156.867 E0.11956
G1 X160.754 Y159.145 E0.12398
G1 X157.451 Y161.186 E0.12171
G1 X154.097 Y162.992 E0.11944
G1 X150.447 Y164.683 E0.12616
G1 X146.898 Y166.075 E0.11952
G1 X143.206 Y167.274 E0.12171
G1 X139.453 Y168.250 E0.12159
G1 X135.712 Y168.988 E0.11956
G1 X131.725 Y169.528 E0.12616
G1 X127.923 Y169.812 E0.11952
G1 X124.080 Y169.870 E0.12051
G1 X120.095 Y169.689 E0.12509
G1 X116.304 Y169.290 E0.11952
G1 X112.475 Y168.654 E0.12171
G1 X108.694 Y167.791 E0.12159
G1 X105.034 Y166.723 E0.11956
G1 X101.246 Y165.365 E0.12616
G1 X97.741 Y163.866 E0.11952
G1 X94.270 Y162.130 E0.12170
G1 X90.911 Y160.191 E0.12159
G1 X87.728 Y158.091 E0.11956
G1 X84.509 Y155.678 E0.12616
G1 X81.602 Y153.212 E0.11952
G1 X78.799 Y150.532 E0.12159
G1 X76.111 Y147.631 E0.12401
G1 X73.691 Y144.686 E0.11952
G1 X71.409 Y141.546 E0.12171
G1 X69.322 Y138.278 E0.12159
G1 X67.464 Y134.948 E0.11956
G1 X65.718 Y131.322 E0.12616
G1 X64.273 Y127.795 E0.11952
G1 X63.019 Y124.122 E0.12171
G1 X61.987 Y120.384 E0.12159
G1 X61.193 Y116.654 E0.11956
G1 X60.594 Y112.675 E0.12616
G1 X60.253 Y108.879 E0.11952
G1 X60.137 Y104.999 E0.12170
G1 X60.253 Y101.123 E0.12159
G1 X60.594 Y97.325 E0.11956
G1 X61.193 Y93.346 E0.12616
G1 X61.987 Y89.618 E0.11952
G1 X63.020 Y85.876 E0.12171
G1 X64.273 Y82.206 E0.12159
G1 X65.718 Y78.678 E0.11956
G1 X67.464 Y75.052 E0.12616
G1 X69.321 Y71.724 E0.11952
G1 X71.409 Y68.456 E0.12159
G1 X73.736 Y65.257 E0.12402
G1 X75.951 Y62.565 E0.10931
; printing object Body7.stl id:0 copy 0
;WIPE_START
G1 F8640.000
G1 X76.158 Y62.314 E-0.07517
G1 X78.175 Y60.140 E-0.68483
;WIPE_END
G1 E-0.04000 F2100.000
G1 Z0.600 F10800.000
G1 X78.394 Y64.574
G1 Z0.200
G1 E0.80000 F2100.000
;TYPE:Perimeter
G1 F1200.000
G1 X78.540 Y64.397 E0.00720
G1 X81.051 Y61.690 E0.11577
G1 X83.720 Y59.139 E0.11577
G1 X86.537 Y56.751 E0.11577
G1 X89.491 Y54.536 E0.11577
G1 X92.573 Y52.502 E0.11577
G1 X95.770 Y50.656 E0.11577
G1 X99.073 Y49.005 E0.11577
G1 X102.468 Y47.553 E0.11577
G1 X105.944 Y46.308 E0.11577
G1 X109.488 Y45.272 E0.11577
G1 X113.088 Y44.451 E0.11577
G1 X116.730 Y43.846 E0.11577
G1 X120.402 Y43.460 E0.11576
G1 X124.159 Y43.295 E0.11792
G1 X127.783 Y43.350 E0.11362
G1 X131.465 Y43.626 E0.11577
G1 X135.124 Y44.121 E0.11577
G1 X138.746 Y44.835 E0.11577
G1 X142.320 Y45.764 E0.11577
G1 X145.831 Y46.905 E0.11577
G1 X149.269 Y48.254 E0.11577
G1 X152.619 Y49.806 E0.11577
G1 X155.870 Y51.555 E0.11577
G1 X159.011 Y53.496 E0.11577
G1 X162.031 Y55.622 E0.11577
G1 X164.917 Y57.924 E0.11577
G1 X167.661 Y60.394 E0.11577
G1 X170.252 Y63.025 E0.11577
G1 X172.682 Y65.805 E0.11577
G1 X174.940 Y68.726 E0.11577
G1 X177.020 Y71.777 E0.11577
G1 X178.914 Y74.947 E0.11577
G1 X180.615 Y78.224 E0.11577
G1 X182.117 Y81.597 E0.11577
G1 X183.414 Y85.054 E0.11577
G1 X184.503 Y88.582 E0.11577
G1 X185.378 Y92.169 E0.11577
G1 X186.037 Y95.802 E0.11576
G1 X186.482 Y99.536 E0.11792
G1 X186.699 Y103.154 E0.11362
G1 X186.699 Y106.846 E0.11576
G1 X186.470 Y110.600 E0.11793
G1 X186.037 Y114.198 E0.11362
G1 X185.378 Y117.831 E0.11577
G1 X184.503 Y121.418 E0.11577
G1 X183.414 Y124.946 E0.11577
G1 X182.117 Y128.403 E0.11577
G1 X180.615 Y131.776 E0.11577
G1 X178.914 Y135.053 E0.11577
G1 X177.020 Y138.223 E0.11577
G1 X174.940 Y141.274 E0.11577
G1 X172.682 Y144.195 E0.11577
G1 X170.252 Y146.975 E0.11577
G1 X167.661 Y149.606 E0.11577
G1 X164.917 Y152.076 E0.11577
G1 X162.031 Y154.378 E0.11577
G1 X159.011 Y156.504 E0.11577
G1 X155.870 Y158.445 E0.11577
G1 X152.619 Y160.194 E0.11577
G1 X149.269 Y161.746 E0.11577
G1 X145.831 Y163.095 E0.11577
G1 X142.320 Y164.236 E0.11577
G1 X138.746 Y165.165 E0.11577
G1 X135.124 Y165.879 E0.11577
G1 X131.465 Y166.374 E0.11577
G1 X127.783 Y166.650 E0.11577
G1 X124.091 Y166.706 E0.11577
G1 X120.402 Y166.540 E0.11577
G1 X116.730 Y166.154 E0.11577
G1 X113.088 Y165.549 E0.11577
G1 X109.488 Y164.728 E0.11577
G1 X105.944 Y163.692 E0.11577
G1 X102.468 Y162.447 E0.11577
G1 X99.073 Y160.995 E0.11577
G1 X95.770 Y159.344 E0.11577
G1 X92.573 Y157.498 E0.11577
M73 P0 R138
G1 X89.491 Y155.464 E0.11577
G1 X86.537 Y153.249 E0.11577
G1 X83.720 Y150.861 E0.11577
G1 X81.051 Y148.310 E0.11577
G1 X78.540 Y145.603 E0.11577
G1 X76.195 Y142.751 E0.11577
G1 X74.025 Y139.764 E0.11577
G1 X72.037 Y136.652 E0.11577
G1 X70.239 Y133.427 E0.11577
G1 X68.637 Y130.101 E0.11577
G1 X67.237 Y126.684 E0.11577
G1 X66.043 Y123.190 E0.11577
G1 X65.061 Y119.631 E0.11577
G1 X64.293 Y116.019 E0.11577
G1 X63.743 Y112.368 E0.11577
G1 X63.412 Y108.691 E0.11577
G1 X63.301 Y105.000 E0.11577
G1 X63.412 Y101.309 E0.11577
G1 X63.743 Y97.632 E0.11577
G1 X64.293 Y93.981 E0.11577
G1 X65.061 Y90.369 E0.11577
G1 X66.043 Y86.810 E0.11577
G1 X67.237 Y83.316 E0.11577
G1 X68.637 Y79.899 E0.11577
G1 X70.239 Y76.573 E0.11577
G1 X72.037 Y73.348 E0.11577
G1 X74.025 Y70.236 E0.11577
G1 X76.195 Y67.249 E0.11577
G1 X78.356 Y64.621 E0.10669
G1 X78.065 Y64.381 F10800.000
;TYPE:External perimeter
G1 F1200.000
G1 X78.256 Y64.149 E0.00944
G1 X80.783 Y61.426 E0.11648
G1 X83.468 Y58.858 E0.11648
G1 X86.302 Y56.456 E0.11648
G1 X89.274 Y54.228 E0.11648
G1 X92.374 Y52.181 E0.11648
G1 X95.592 Y50.324 E0.11648
G1 X98.914 Y48.662 E0.11648
G1 X102.330 Y47.202 E0.11648
G1 X105.827 Y45.949 E0.11648
G1 X109.393 Y44.907 E0.11648
G1 X113.015 Y44.081 E0.11648
G1 X116.679 Y43.472 E0.11648
G1 X120.374 Y43.084 E0.11647
G1 X124.154 Y42.918 E0.11863
G1 X127.800 Y42.973 E0.11432
G1 X131.504 Y43.250 E0.11648
G1 X135.185 Y43.749 E0.11648
G1 X138.830 Y44.467 E0.11648
G1 X142.426 Y45.402 E0.11648
G1 X145.959 Y46.549 E0.11648
G1 X149.417 Y47.907 E0.11648
G1 X152.788 Y49.468 E0.11648
G1 X156.059 Y51.229 E0.11648
G1 X159.219 Y53.182 E0.11648
G1 X162.257 Y55.320 E0.11648
M73 Q0 S138
G1 X165.161 Y57.636 E0.11648
G1 X167.922 Y60.122 E0.11648
G1 X170.529 Y62.768 E0.11648
G1 X172.973 Y65.566 E0.11648
G1 X175.246 Y68.505 E0.11648
G1 X177.338 Y71.574 E0.11648
G1 X179.244 Y74.763 E0.11648
G1 X180.955 Y78.060 E0.11648
G1 X182.466 Y81.454 E0.11648
G1 X183.771 Y84.932 E0.11648
G1 X184.866 Y88.482 E0.11648
G1 X185.747 Y92.091 E0.11648
G1 X186.410 Y95.746 E0.11648
G1 X186.858 Y99.503 E0.11863
G1 X187.076 Y103.143 E0.11433
G1 X187.076 Y106.857 E0.11647
G1 X186.846 Y110.634 E0.11863
G1 X186.410 Y114.254 E0.11432
G1 X185.747 Y117.909 E0.11648
G1 X184.866 Y121.518 E0.11648
G1 X183.771 Y125.068 E0.11648
G1 X182.466 Y128.546 E0.11648
G1 X180.955 Y131.940 E0.11648
G1 X179.244 Y135.237 E0.11648
G1 X177.338 Y138.426 E0.11648
G1 X175.246 Y141.495 E0.11648
G1 X172.973 Y144.434 E0.11648
G1 X170.529 Y147.232 E0.11648
G1 X167.922 Y149.878 E0.11648
G1 X165.161 Y152.364 E0.11648
G1 X162.257 Y154.680 E0.11648
G1 X159.219 Y156.818 E0.11648
G1 X156.059 Y158.771 E0.11648
G1 X152.788 Y160.532 E0.11648
G1 X149.417 Y162.093 E0.11648
G1 X145.959 Y163.451 E0.11648
G1 X142.426 Y164.598 E0.11648
G1 X138.830 Y165.533 E0.11648
G1 X135.185 Y166.251 E0.11648
G1 X131.504 Y166.750 E0.11648
G1 X127.800 Y167.027 E0.11648
G1 X124.085 Y167.083 E0.11648
G1 X120.374 Y166.916 E0.11648
G1 X116.679 Y166.528 E0.11648
G1 X113.015 Y165.919 E0.11648
G1 X109.393 Y165.093 E0.11648
G1 X105.827 Y164.051 E0.11648
G1 X102.330 Y162.798 E0.11648
G1 X98.914 Y161.338 E0.11648
G1 X95.592 Y159.676 E0.11648
G1 X92.374 Y157.819 E0.11648
G1 X89.274 Y155.772 E0.11648
G1 X86.302 Y153.544 E0.11648
G1 X83.468 Y151.142 E0.11648
G1 X80.783 Y148.574 E0.11648
G1 X78.256 Y145.851 E0.11648
G1 X75.897 Y142.982 E0.11648
G1 X73.713 Y139.976 E0.11648
G1 X71.713 Y136.846 E0.11648
G1 X69.904 Y133.601 E0.11648
G1 X68.292 Y130.254 E0.11648
G1 X66.883 Y126.817 E0.11648
G1 X65.683 Y123.301 E0.11648
G1 X64.694 Y119.720 E0.11648
G1 X63.922 Y116.087 E0.11648
G1 X63.368 Y112.413 E0.11648
G1 X63.035 Y108.713 E0.11648
G1 X62.924 Y105.000 E0.11648
G1 X63.035 Y101.287 E0.11648
G1 X63.368 Y97.587 E0.11648
G1 X63.922 Y93.913 E0.11648
G1 X64.694 Y90.280 E0.11648
G1 X65.683 Y86.699 E0.11648
G1 X66.883 Y83.183 E0.11648
G1 X68.292 Y79.746 E0.11648
G1 X69.904 Y76.399 E0.11648
G1 X71.713 Y73.154 E0.11648
G1 X73.713 Y70.024 E0.11648
G1 X75.897 Y67.018 E0.11648
G1 X78.027 Y64.428 E0.10516
G1 X78.362 Y64.427 F10800.000
;WIPE_START
G1 F8640.000
G1 X78.256 Y64.149 E-0.08334
G1 X80.249 Y62.001 E-0.67666
;WIPE_END
G1 E-0.04000 F2100.000
G1 Z0.600 F10800.000
G1 X171.565 Y64.698
G1 Z0.200
G1 E0.80000 F2100.000
;TYPE:Solid infill
;WIDTH:0.420893
G1 F1200.000
G1 X167.459 Y60.593 E0.18247
G1 X164.734 Y58.140 E0.11524
G1 X163.435 Y57.103 E0.05223
G1 X172.964 Y66.632 E0.42351
G1 X174.759 Y68.962 E0.09243
G1 X161.132 Y55.335 E0.60566
G1 X159.327 Y54.064 E0.06939
G1 X175.904 Y70.642 E0.73680
G1 X176.782 Y71.929 E0.04899
G1 X176.967 Y72.239 E0.01135
G1 X157.822 Y53.094 E0.85096
G1 X156.422 Y52.229 E0.05169
G1 X177.761 Y73.567 E0.94841
G1 X178.554 Y74.895 E0.04862
G1 X155.145 Y51.486 E1.04045
G1 X153.988 Y50.864 E0.04130
G1 X179.162 Y76.037 E1.11889
G1 X179.738 Y77.149 E0.03935
G1 X152.831 Y50.241 E1.19596
G1 X152.492 Y50.059 E0.01208
G1 X151.788 Y49.732 E0.02441
G1 X180.315 Y78.260 E1.26796
G1 X180.756 Y79.235 E0.03363
G1 X150.792 Y49.271 E1.33180
M73 P1 R138
M73 Q1 S138
G1 X149.796 Y48.809 E0.03450
G1 X181.185 Y80.198 E1.39514
G1 X181.614 Y81.162 E0.03315
G1 X148.841 Y48.390 E1.45662
G1 X147.962 Y48.044 E0.02971
G1 X181.995 Y82.078 E1.51270
G1 X182.317 Y82.934 E0.02872
G1 X147.082 Y47.699 E1.56608
G1 X146.202 Y47.354 E0.02971
G1 X182.638 Y83.790 E1.61946
G1 X182.959 Y84.645 E0.02872
G1 X145.363 Y47.050 E1.67100
G1 X144.572 Y46.793 E0.02617
G1 X183.246 Y85.467 E1.71893
M73 P1 R137
G1 X183.484 Y86.240 E0.02542
G1 X143.780 Y46.535 E1.76472
G1 X142.988 Y46.278 E0.02617
G1 X183.722 Y87.013 E1.81051
G1 X183.961 Y87.786 E0.02542
G1 X142.200 Y46.025 E1.85613
G1 X141.478 Y45.837 E0.02346
G1 X184.199 Y88.558 E1.89883
M73 Q1 S137
G1 X184.380 Y89.274 E0.02320
G1 X140.756 Y45.649 E1.93898
G1 X140.033 Y45.461 E0.02346
G1 X184.553 Y89.981 E1.97875
G1 X184.725 Y90.688 E0.02287
G1 X139.311 Y45.274 E2.01853
G1 X138.596 Y45.093 E0.02317
G1 X184.898 Y91.395 E2.05797
G1 X185.071 Y92.102 E0.02287
G1 X137.930 Y44.962 E2.09523
G1 X137.265 Y44.831 E0.02132
G1 X185.199 Y92.765 E2.13051
G1 X185.317 Y93.418 E0.02086
G1 X136.599 Y44.700 E2.16536
G1 X135.933 Y44.569 E0.02132
G1 X185.436 Y94.071 E2.20021
G1 X185.554 Y94.724 E0.02086
G1 X135.268 Y44.438 E2.23506
G1 X134.636 Y44.340 E0.02009
G1 X185.673 Y95.377 E2.26842
G1 X185.778 Y96.017 E0.02038
G1 X134.018 Y44.257 E2.30058
G1 X133.399 Y44.173 E0.01961
G1 X185.850 Y96.624 E2.33127
G1 X185.923 Y97.231 E0.01921
G1 X132.781 Y44.089 E2.36197
G1 X132.163 Y44.005 E0.01961
G1 X185.995 Y97.838 E2.39266
M73 P1 R136
G1 X186.067 Y98.444 E0.01921
G1 X131.545 Y43.922 E2.42336
M73 Q2 S137
G1 X130.960 Y43.871 E0.01845
G1 X186.140 Y99.051 E2.45257
M73 P2 R136
G1 X186.206 Y99.652 E0.01900
G1 X130.382 Y43.828 E2.48120
M73 Q2 S136
G1 X129.804 Y43.785 E0.01821
G1 X186.240 Y100.221 E2.50840
G1 X186.274 Y100.789 E0.01790
G1 X129.226 Y43.741 E2.53559
G1 X128.648 Y43.698 E0.01821
G1 X186.308 Y101.358 E2.56279
G1 X186.342 Y101.926 E0.01790
G1 X128.070 Y43.655 E2.58999
G1 X127.509 Y43.628 E0.01765
G1 X186.376 Y102.495 E2.61643
G1 X186.410 Y103.064 E0.01790
G1 X126.967 Y43.620 E2.64207
G1 X126.424 Y43.612 E0.01706
G1 X186.416 Y103.604 E2.66645
G1 X186.416 Y104.139 E0.01680
G1 X125.881 Y43.604 E2.69057
G1 X125.339 Y43.596 E0.01706
G1 X186.416 Y104.673 E2.71469
G1 X186.416 Y105.208 E0.01680
G1 X124.796 Y43.588 E2.73881
G1 X124.254 Y43.580 E0.01706
G1 X186.416 Y105.742 E2.76293
G1 X186.416 Y106.277 E0.01680
G1 X123.736 Y43.597 E2.78591
M73 P2 R135
G1 X123.224 Y43.619 E0.01611
G1 X186.416 Y106.811 E2.80867
G1 X186.387 Y107.317 E0.01591
G1 X122.712 Y43.642 E2.83013
M73 Q2 S135
G1 X122.200 Y43.664 E0.01611
G1 X186.356 Y107.820 E2.85153
G1 X186.325 Y108.324 E0.01586
G1 X121.688 Y43.687 E2.87293
G1 X121.176 Y43.709 E0.01611
G1 X186.295 Y108.828 E2.89432
G1 X186.264 Y109.332 E0.01586
G1 X120.664 Y43.732 E2.91572
M73 P3 R135
M73 Q3 S135
G1 X120.167 Y43.769 E0.01567
G1 X186.233 Y109.836 E2.93644
G1 X186.203 Y110.339 E0.01586
G1 X119.683 Y43.820 E2.95658
G1 X119.199 Y43.871 E0.01529
G1 X186.158 Y110.829 E2.97608
G1 X186.100 Y111.306 E0.01510
G1 X118.716 Y43.922 E2.99502
G1 X118.232 Y43.972 E0.01529
G1 X186.043 Y111.783 E3.01397
G1 X185.985 Y112.260 E0.01510
G1 X117.748 Y44.023 E3.03292
M73 P3 R134
G1 X117.265 Y44.074 E0.01529
G1 X185.928 Y112.738 E3.05187
G1 X185.871 Y113.215 E0.01510
G1 X116.781 Y44.125 E3.07082
M73 Q3 S134
G1 X116.322 Y44.200 E0.01462
G1 X185.813 Y113.692 E3.08867
G1 X185.755 Y114.168 E0.01509
G1 X115.863 Y44.277 E3.10646
G1 X115.405 Y44.353 E0.01460
G1 X185.673 Y114.621 E3.12319
G1 X185.591 Y115.073 E0.01445
G1 X114.947 Y44.429 E3.13992
G1 X114.488 Y44.505 E0.01460
G1 X185.509 Y115.526 E3.15664
G1 X185.427 Y115.978 E0.01445
G1 X114.030 Y44.581 E3.17337
