; generated by PrusaSlicer 2.4.0+win64 on 2022-01-09 at 16:05:38 UTC

; 

; external perimeters extrusion width = 0.45mm
; perimeters extrusion width = 0.45mm
; infill extrusion width = 0.45mm
; solid infill extrusion width = 0.45mm
; top infill extrusion width = 0.40mm
; support material extrusion width = 0.35mm
; first layer extrusion width = 0.42mm

M73 P0 R132
M73 Q0 S138
M201 X1000 Y1000 Z200 E5000 ; sets maximum accelerations, mm/sec^2
M203 X200 Y200 Z12 E120 ; sets maximum feedrates, mm/sec
M204 P1250 R1250 T1250 ; sets acceleration (P, T) and retract acceleration (R), mm/sec^2
M205 X8.00 Y8.00 Z0.40 E4.50 ; sets the jerk limits, mm/sec
M205 S0 T0 ; sets the minimum extruding and travel feed rate, mm/sec
M107
;TYPE:Custom
M862.3 P "MK3S" ; printer model check
M862.1 P0.4 ; nozzle diameter check
M115 U3.10.0 ; tell printer latest fw version
G90 ; use absolute coordinates
M83 ; extruder relative mode
M104 S215 ; set extruder temp
M140 S60 ; set bed temp
M190 S60 ; wait for bed temp
M109 S215 ; wait for extruder temp
G28 W ; home all without mesh bed level
G80 ; mesh bed leveling
G1 Z0.2 F720
G1 Y-3 F1000 ; go outside print area
G92 E0
G1 X60 E9 F1000 ; intro line
G1 X100 E12.5 F1000 ; intro line
G92 E0
M221 S95

; Don't change E values below. Excessive value can damage the printer.

M907 E538 ; set extruder motor current
G21 ; set units to millimeters
G90 ; use absolute coordinates
M83 ; use relative distances for extrusion
M900 K0.05 ; Filament gcode LA 1.5
M900 K30 ; Filament gcode LA 1.0
M107
;LAYER_CHANGE
;Z:0.2
;HEIGHT:0.2
;BEFORE_LAYER_CHANGE
G92 E0.0
;0.2


G1 E-.8 F2100
G1 Z.4 F720
;AFTER_LAYER_CHANGE
;0.2
G1 X75.94 Y62.583 F10800
G1 Z.2 F720
G1 E.8 F2100
M204 S800
;TYPE:Skirt/Brim
;WIDTH:0.42
G1 F1200
G1 X76.204 Y62.262 E.01302
G1 X78.848 Y59.419 E.1217
G1 X81.656 Y56.74 E.1217
G1 X84.509 Y54.322 E.11725
G1 X87.728 Y51.909 E.12616
G1 X90.97 Y49.774 E.1217
G1 X94.334 Y47.837 E.12171
G1 X97.807 Y46.104 E.1217
G1 X101.246 Y44.635 E.11725
G1 X104.899 Y43.321 E.12171
G1 X108.623 Y42.229 E.1217
G1 X112.546 Y41.333 E.12616
G1 X116.376 Y40.702 E.1217
G1 X120.095 Y40.311 E.11725
G1 X124.189 Y40.131 E.1285
G1 X127.996 Y40.192 E.11936
G1 X131.866 Y40.487 E.1217
G1 X135.572 Y40.989 E.11725
G1 X139.381 Y41.735 E.1217
G1 X143.139 Y42.707 E.12171
G1 X146.832 Y43.903 E.1217
G1 X150.577 Y45.373 E.12616
G1 X154.097 Y47.008 E.12171
G1 X157.514 Y48.851 E.1217
G1 X160.695 Y50.817 E.11725
G1 X163.871 Y53.048 E.1217
G1 X167.017 Y55.557 E.12616
G1 X169.899 Y58.157 E.1217
G1 X172.523 Y60.821 E.11725
G1 X175.17 Y63.851 E.12616
G1 X177.542 Y66.924 E.1217
G1 X179.725 Y70.134 E.1217
G1 X181.712 Y73.468 E.1217
G1 X183.434 Y76.787 E.11725
G1 X185.071 Y80.463 E.12616
G1 X186.431 Y84.099 E.1217
G1 X187.571 Y87.809 E.1217
G1 X188.458 Y91.442 E.11725
G1 X189.155 Y95.26 E.12171
G1 X189.635 Y99.255 E.12616
G1 X189.859 Y102.988 E.11725
G1 X189.863 Y106.87 E.1217
G1 X189.622 Y110.886 E.12616
G1 X189.155 Y114.74 E.1217
G1 X188.487 Y118.419 E.11725
G1 X187.533 Y122.328 E.12616
G1 X186.385 Y126.036 E.1217
G1 X185.017 Y129.668 E.12171
G1 X183.434 Y133.213 E.1217
G1 X181.712 Y136.532 E.11725
G1 X179.606 Y140.048 E.1285
G1 X177.458 Y143.191 E.11936
G1 X175.08 Y146.259 E.12171
G1 X172.62 Y149.075 E.11725
G1 X169.899 Y151.843 E.1217
G1 X166.909 Y154.535 E.12616
G1 X163.985 Y156.867 E.11725
G1 X160.813 Y159.105 E.12171
G1 X157.39 Y161.22 E.12616
G1 X153.97 Y163.055 E.1217
G1 X150.447 Y164.683 E.1217
G1 X146.966 Y166.049 E.11725
G1 X143.275 Y167.253 E.1217
G1 X139.381 Y168.265 E.12616
G1 X135.572 Y169.011 E.1217
G1 X131.725 Y169.528 E.1217
G1 X127.854 Y169.814 E.12171
G1 X124.115 Y169.87 E.11725
G1 X120.095 Y169.689 E.12616
G1 X116.235 Y169.279 E.12171
G1 X112.546 Y168.667 E.11725
G1 X108.623 Y167.771 E.12616
G1 X104.899 Y166.679 E.1217
G1 X101.246 Y165.365 E.12171
G1 X97.678 Y163.836 E.1217
G1 X94.334 Y162.163 E.11725
G1 X90.97 Y160.226 E.12171
G1 X87.728 Y158.091 E.1217
G1 X84.62 Y155.766 E.12171
G1 X81.656 Y153.26 E.1217
G1 X78.748 Y150.479 E.12616
G1 X76.204 Y147.738 E.11725
G1 X73.736 Y144.743 E.1217
G1 X71.371 Y141.487 E.12616
G1 X69.358 Y138.336 E.11725
G1 X67.464 Y134.948 E.1217
G1 X65.776 Y131.452 E.12171
G1 X64.3 Y127.862 E.1217
G1 X62.945 Y123.856 E.1326
G1 X61.971 Y120.312 E.11526
G1 X61.168 Y116.514 E.1217
M73 Q0 S137
G1 X60.611 Y112.816 E.11725
G1 X60.258 Y108.951 E.12171
G1 X60.138 Y104.929 E.12616
G1 X60.258 Y101.049 E.1217
G1 X60.611 Y97.184 E.12171
G1 X61.168 Y93.486 E.11725
G1 X61.971 Y89.688 E.1217
G1 X63.041 Y85.81 E.12616
G1 X64.25 Y82.271 E.11725
G1 X65.718 Y78.678 E.1217
G1 X67.464 Y75.052 E.12616
G1 X69.358 Y71.664 E.1217
G1 X71.371 Y68.513 E.11725
G1 X73.736 Y65.257 E.12616
G1 X75.902 Y62.629 E.1068
M204 S1000
; printing object base.stl id:0 copy 0
;WIPE_START
G1 F8640
G1 X76.204 Y62.262 E-.10976
G1 X78.122 Y60.2 E-.65024
;WIPE_END
G1 E-.04 F2100
G1 Z.6 F720
G1 X112.504 Y89.99 F10800
G1 Z.2 F720
G1 E.8 F2100
M204 S800
;TYPE:Perimeter
G1 F1200
G1 X139.303 Y89.99 E.84028
G1 X139.303 Y105.915 E.49932
G1 X111.727 Y105.915 E.86464
G1 X111.727 Y89.99 E.49932
G1 X112.444 Y89.99 E.02248
M204 S1000
G1 X112.104 Y90.367 F10800
M204 S800
;TYPE:External perimeter
G1 F1200
G1 X138.926 Y90.367 E.841
G1 X138.926 Y105.538 E.47567
G1 X112.104 Y105.538 E.841
G1 X112.104 Y90.427 E.47379
M204 S1000
G1 X111.966 Y89.991 F10800
;WIPE_START
G1 F8640
G1 X115.395 Y90.419 E-.76
;WIPE_END
G1 E-.04 F2100
G1 Z.6 F720
G1 X85.139 Y57.936 F10800
G1 Z.2 F720
G1 E.8 F2100
M204 S800
;TYPE:Perimeter
G1 F1200
G1 X86.537 Y56.751 E.05745
G1 X89.491 Y54.536 E.11577
G1 X92.573 Y52.502 E.11577
M73 P0 R131
G1 X95.77 Y50.656 E.11577
G1 X99.073 Y49.005 E.11577
G1 X102.468 Y47.553 E.11577
G1 X105.944 Y46.308 E.11577
G1 X109.488 Y45.272 E.11577
G1 X113.088 Y44.451 E.11577
G1 X116.73 Y43.846 E.11577
G1 X120.402 Y43.46 E.11576
G1 X124.159 Y43.295 E.11793
G1 X127.783 Y43.35 E.11362
G1 X131.465 Y43.626 E.11577
G1 X135.124 Y44.121 E.11577
G1 X138.746 Y44.835 E.11577
G1 X142.32 Y45.764 E.11577
G1 X145.831 Y46.905 E.11577
G1 X149.269 Y48.254 E.11577
G1 X152.619 Y49.806 E.11577
G1 X155.87 Y51.555 E.11577
G1 X159.011 Y53.496 E.11577
G1 X162.031 Y55.622 E.11577
G1 X164.917 Y57.924 E.11577
G1 X167.661 Y60.394 E.11577
G1 X170.252 Y63.025 E.11577
G1 X172.682 Y65.805 E.11577
G1 X174.94 Y68.726 E.11577
G1 X177.02 Y71.777 E.11576
G1 X178.946 Y75.007 E.11792
G1 X180.615 Y78.224 E.11362
G1 X182.117 Y81.597 E.11577
G1 X183.414 Y85.054 E.11577
G1 X184.503 Y88.582 E.11577
G1 X185.378 Y92.169 E.11577
G1 X186.037 Y95.802 E.11577
G1 X186.478 Y99.468 E.11577
G1 X186.699 Y103.154 E.11577
G1 X186.699 Y106.846 E.11577
G1 X186.478 Y110.532 E.11577
G1 X186.037 Y114.198 E.11577
G1 X185.378 Y117.831 E.11577
G1 X184.503 Y121.418 E.11577
G1 X183.414 Y124.946 E.11577
G1 X182.117 Y128.403 E.11577
G1 X180.615 Y131.776 E.11577
G1 X178.914 Y135.053 E.11576
G1 X176.982 Y138.28 E.11792
G1 X174.94 Y141.274 E.11362
G1 X172.682 Y144.195 E.11577
G1 X170.252 Y146.975 E.11577
G1 X167.661 Y149.606 E.11577
G1 X164.917 Y152.076 E.11577
G1 X162.031 Y154.378 E.11577
G1 X159.011 Y156.504 E.11577
G1 X155.87 Y158.445 E.11577
G1 X152.619 Y160.194 E.11577
G1 X149.269 Y161.746 E.11577
G1 X145.831 Y163.095 E.11577
G1 X142.32 Y164.236 E.11577
G1 X138.746 Y165.165 E.11577
G1 X135.124 Y165.879 E.11577
G1 X131.465 Y166.374 E.11577
G1 X127.783 Y166.65 E.11577
G1 X124.091 Y166.706 E.11576
G1 X120.334 Y166.533 E.11793
G1 X116.73 Y166.154 E.11362
G1 X113.088 Y165.549 E.11577
G1 X109.488 Y164.728 E.11577
G1 X105.944 Y163.692 E.11577
G1 X102.468 Y162.447 E.11577
G1 X99.073 Y160.995 E.11577
G1 X95.77 Y159.344 E.11577
G1 X92.573 Y157.498 E.11577
G1 X89.491 Y155.464 E.11577
G1 X86.537 Y153.249 E.11577
G1 X83.72 Y150.861 E.11577
G1 X81.051 Y148.31 E.11577
G1 X78.54 Y145.603 E.11577
G1 X76.195 Y142.751 E.11577
G1 X74.025 Y139.764 E.11577
G1 X72.037 Y136.652 E.11577
G1 X70.239 Y133.427 E.11577
G1 X68.637 Y130.101 E.11577
G1 X67.236 Y126.684 E.11577
G1 X66.043 Y123.19 E.11577
G1 X65.061 Y119.631 E.11577
G1 X64.293 Y116.019 E.11577
G1 X63.743 Y112.368 E.11577
G1 X63.412 Y108.691 E.11577
G1 X63.301 Y105 E.11576
G1 X63.418 Y101.241 E.11792
G1 X63.743 Y97.632 E.11362
G1 X64.293 Y93.981 E.11577
G1 X65.061 Y90.369 E.11577
G1 X66.043 Y86.81 E.11577
G1 X67.236 Y83.316 E.11577
G1 X68.637 Y79.899 E.11577
G1 X70.239 Y76.573 E.11577
G1 X72.037 Y73.348 E.11577
G1 X74.025 Y70.236 E.11577
G1 X76.195 Y67.249 E.11577
G1 X78.54 Y64.397 E.11577
G1 X81.051 Y61.69 E.11577
G1 X83.72 Y59.139 E.11577
G1 X85.093 Y57.975 E.05644
M204 S1000
G1 X84.59 Y57.907 F10800
M204 S800
;TYPE:External perimeter
G1 F1200
G1 X86.302 Y56.456 E.07035
G1 X89.274 Y54.228 E.11648
G1 X92.374 Y52.181 E.11648
G1 X95.592 Y50.324 E.11648
G1 X98.914 Y48.662 E.11648
G1 X102.33 Y47.202 E.11648
G1 X105.827 Y45.949 E.11648
G1 X109.393 Y44.907 E.11648
G1 X113.015 Y44.081 E.11648
G1 X116.679 Y43.472 E.11648
G1 X120.374 Y43.084 E.11647
G1 X124.154 Y42.918 E.11863
G1 X127.8 Y42.973 E.11432
G1 X131.504 Y43.25 E.11648
G1 X135.185 Y43.749 E.11648
G1 X138.83 Y44.467 E.11648
G1 X142.426 Y45.402 E.11648
G1 X145.959 Y46.549 E.11648
G1 X149.417 Y47.907 E.11648
G1 X152.788 Y49.468 E.11648
G1 X156.059 Y51.229 E.11648
G1 X159.219 Y53.182 E.11648
G1 X162.257 Y55.32 E.11648
G1 X165.161 Y57.636 E.11648
G1 X167.922 Y60.122 E.11648
G1 X170.529 Y62.768 E.11648
G1 X172.973 Y65.566 E.11648
G1 X175.246 Y68.505 E.11648
G1 X177.338 Y71.574 E.11647
G1 X179.275 Y74.824 E.11863
G1 X180.955 Y78.06 E.11432
G1 X182.466 Y81.454 E.11648
G1 X183.771 Y84.932 E.11648
G1 X184.866 Y88.482 E.11648
G1 X185.747 Y92.091 E.11648
G1 X186.41 Y95.746 E.11648
G1 X186.854 Y99.434 E.11648
G1 X187.076 Y103.143 E.11648
G1 X187.076 Y106.857 E.11648
G1 X186.854 Y110.566 E.11648
G1 X186.41 Y114.254 E.11648
G1 X185.747 Y117.909 E.11648
G1 X184.866 Y121.518 E.11648
G1 X183.771 Y125.068 E.11648
G1 X182.466 Y128.546 E.11648
G1 X180.955 Y131.94 E.11648
G1 X179.244 Y135.237 E.11648
G1 X177.3 Y138.483 E.11863
G1 X175.246 Y141.495 E.11432
G1 X172.973 Y144.434 E.11648
G1 X170.529 Y147.232 E.11648
G1 X167.922 Y149.878 E.11648
G1 X165.161 Y152.364 E.11648
G1 X162.257 Y154.68 E.11648
G1 X159.219 Y156.818 E.11648
G1 X156.059 Y158.771 E.11648
G1 X152.788 Y160.532 E.11648
G1 X149.417 Y162.093 E.11648
G1 X145.959 Y163.451 E.11648
G1 X142.426 Y164.598 E.11648
G1 X138.83 Y165.533 E.11648
G1 X135.185 Y166.251 E.11648
G1 X131.504 Y166.75 E.11648
G1 X127.8 Y167.027 E.11648
G1 X124.085 Y167.083 E.11647
G1 X120.306 Y166.909 E.11863
G1 X116.679 Y166.528 E.11432
G1 X113.015 Y165.919 E.11648
G1 X109.393 Y165.093 E.11648
G1 X105.827 Y164.051 E.11648
G1 X102.33 Y162.798 E.11648
G1 X98.914 Y161.338 E.11648
G1 X95.592 Y159.676 E.11648
G1 X92.374 Y157.819 E.11648
G1 X89.274 Y155.772 E.11648
G1 X86.302 Y153.544 E.11648
G1 X83.468 Y151.142 E.11648
G1 X80.783 Y148.575 E.11648
G1 X78.256 Y145.851 E.11648
G1 X75.897 Y142.982 E.11648
G1 X73.713 Y139.976 E.11648
G1 X71.713 Y136.846 E.11648
G1 X69.904 Y133.601 E.11648
G1 X68.292 Y130.254 E.11648
G1 X66.883 Y126.817 E.11648
G1 X65.683 Y123.301 E.11648
G1 X64.694 Y119.72 E.11648
G1 X63.922 Y116.087 E.11648
G1 X63.368 Y112.413 E.11648
G1 X63.035 Y108.713 E.11648
G1 X62.924 Y105 E.11647
G1 X63.041 Y101.218 E.11863
G1 X63.368 Y97.587 E.11433
G1 X63.922 Y93.913 E.11648
G1 X64.694 Y90.28 E.11648
G1 X65.683 Y86.699 E.11648
G1 X66.883 Y83.183 E.11648
G1 X68.292 Y79.746 E.11648
G1 X69.904 Y76.399 E.11648
G1 X71.713 Y73.154 E.11648
G1 X73.713 Y70.024 E.11648
G1 X75.897 Y67.018 E.11648
G1 X78.256 Y64.149 E.11648
G1 X80.783 Y61.425 E.11648
G1 X83.468 Y58.858 E.11648
G1 X84.544 Y57.946 E.04425
M204 S1000
G1 X84.968 Y58.037 F10800
;WIPE_START
G1 F8640
G1 X86.302 Y56.456 E-.53193
G1 X87.092 Y55.864 E-.22807
;WIPE_END
G1 E-.04 F2100
G1 Z.6 F720
G1 X171.565 Y64.698 F10800
G1 Z.2 F720
G1 E.8 F2100
M204 S800
;TYPE:Solid infill
;WIDTH:0.420893
G1 F1200
G1 X167.459 Y60.593 E.18247
G1 X164.734 Y58.14 E.11523
G1 X163.435 Y57.103 E.05223
G1 X172.964 Y66.632 E.42351
G1 X174.759 Y68.962 E.09243
G1 X161.132 Y55.335 E.60566
G1 X159.327 Y54.064 E.06939
M73 P1 R131
G1 X175.904 Y70.642 E.73681
G1 X176.782 Y71.929 E.04897
G1 X176.966 Y72.238 E.01131
G1 X157.822 Y53.094 E.85091
G1 X156.422 Y52.229 E.05169
G1 X177.755 Y73.561 E.94815
M73 Q1 S137
G1 X178.543 Y74.884 E.04841
M73 Q1 S136
G1 X155.145 Y51.486 E1.03996
G1 X153.988 Y50.864 E.0413
G1 X179.162 Y76.037 E1.11889
G1 X179.738 Y77.149 E.03935
G1 X152.831 Y50.241 E1.19596
G1 X152.492 Y50.059 E.01207
G1 X151.788 Y49.732 E.02441
G1 X180.315 Y78.26 E1.26796
G1 X180.756 Y79.235 E.03363
G1 X150.792 Y49.271 E1.3318
G1 X149.796 Y48.809 E.0345
G1 X181.185 Y80.198 E1.39514
G1 X181.614 Y81.162 E.03315
G1 X148.841 Y48.39 E1.45662
G1 X147.962 Y48.044 E.02971
M73 P1 R130
G1 X181.995 Y82.078 E1.5127
G1 X182.317 Y82.934 E.02872
G1 X147.082 Y47.699 E1.56608
G1 X146.202 Y47.354 E.02971
G1 X182.638 Y83.79 E1.61946
G1 X182.959 Y84.645 E.02872
G1 X145.363 Y47.05 E1.671
G1 X144.572 Y46.793 E.02617
G1 X183.246 Y85.467 E1.71893
G1 X183.484 Y86.24 E.02542
G1 X143.78 Y46.535 E1.76472
G1 X142.988 Y46.278 E.02617
G1 X183.722 Y87.013 E1.81051
G1 X183.961 Y87.786 E.02542
G1 X142.2 Y46.025 E1.85613
G1 X141.478 Y45.837 E.02346
G1 X184.199 Y88.558 E1.89883
G1 X184.38 Y89.274 E.0232
G1 X140.756 Y45.649 E1.93898
G1 X140.033 Y45.461 E.02346
G1 X184.553 Y89.981 E1.97875
G1 X184.725 Y90.688 E.02288
G1 X139.311 Y45.274 E2.01853
G1 X138.596 Y45.093 E.02317
G1 X184.898 Y91.395 E2.05797
G1 X185.071 Y92.102 E.02287
G1 X137.93 Y44.962 E2.09522
G1 X137.265 Y44.831 E.02132
G1 X185.199 Y92.765 E2.13051
G1 X185.317 Y93.418 E.02086
G1 X136.599 Y44.7 E2.16536
G1 X135.933 Y44.569 E.02132
M73 Q1 S135
G1 X185.436 Y94.071 E2.20021
G1 X185.554 Y94.724 E.02086
G1 X135.268 Y44.438 E2.23507
G1 X134.636 Y44.34 E.02009
G1 X185.673 Y95.377 E2.26842
G1 X185.778 Y96.017 E.02039
G1 X134.018 Y44.257 E2.30059
G1 X133.399 Y44.173 E.01961
M73 P2 R129
G1 X185.851 Y96.625 E2.33132
G1 X185.924 Y97.233 E.01923
G1 X132.781 Y44.089 E2.36205
G1 X132.163 Y44.005 E.01961
M73 Q2 S135
G1 X185.998 Y97.84 E2.39277
G1 X186.071 Y98.448 E.01923
G1 X131.545 Y43.922 E2.4235
G1 X130.96 Y43.871 E.01845
G1 X186.144 Y99.055 E2.45275
G1 X186.206 Y99.652 E.01886
G1 X130.382 Y43.828 E2.4812
G1 X129.804 Y43.785 E.01821
G1 X186.24 Y100.221 E2.5084
G1 X186.274 Y100.789 E.0179
G1 X129.226 Y43.741 E2.53559
G1 X128.648 Y43.698 E.01821
G1 X186.308 Y101.358 E2.56279
G1 X186.342 Y101.926 E.0179
G1 X128.07 Y43.655 E2.58999
G1 X127.509 Y43.628 E.01765
G1 X186.376 Y102.495 E2.61644
G1 X186.41 Y103.064 E.0179
M73 Q2 S134
G1 X126.967 Y43.62 E2.64207
G1 X126.424 Y43.612 E.01706
G1 X186.416 Y103.604 E2.66645
G1 X186.416 Y104.139 E.0168
G1 X125.881 Y43.604 E2.69057
G1 X125.339 Y43.596 E.01706
M73 P2 R128
G1 X186.416 Y104.673 E2.71469
G1 X186.416 Y105.208 E.0168
G1 X124.796 Y43.588 E2.73881
G1 X124.254 Y43.58 E.01706
G1 X186.416 Y105.742 E2.76293
G1 X186.416 Y106.277 E.0168
G1 X123.736 Y43.597 E2.78591
G1 X123.224 Y43.619 E.01611
G1 X186.416 Y106.811 E2.80867
G1 X186.387 Y107.317 E.01592
M73 P3 R128
G1 X122.712 Y43.642 E2.83016
G1 X122.2 Y43.664 E.01611
G1 X186.357 Y107.821 E2.85158
G1 X186.327 Y108.326 E.01588
M73 Q3 S134
G1 X121.688 Y43.687 E2.87299
G1 X121.176 Y43.709 E.01611
G1 X186.297 Y108.83 E2.89441
G1 X186.267 Y109.334 E.01588
G1 X120.664 Y43.732 E2.91583
G1 X120.167 Y43.769 E.01567
G1 X186.236 Y109.839 E2.93658
G1 X186.206 Y110.343 E.01588
M73 Q3 S133
G1 X119.683 Y43.82 E2.95674
G1 X119.199 Y43.871 E.01529
G1 X186.158 Y110.829 E2.97608
G1 X186.1 Y111.306 E.0151
G1 X118.716 Y43.922 E2.99502
G1 X118.232 Y43.972 E.01529
M73 P3 R127
G1 X186.043 Y111.783 E3.01397
G1 X185.985 Y112.26 E.0151
G1 X117.748 Y44.023 E3.03292
G1 X117.265 Y44.074 E.01529
G1 X185.928 Y112.738 E3.05187
G1 X185.871 Y113.215 E.0151
G1 X116.781 Y44.125 E3.07082
G1 X116.322 Y44.2 E.01462
G1 X185.813 Y113.692 E3.08867
G1 X185.755 Y114.168 E.01509
G1 X115.863 Y44.277 E3.10646
G1 X115.405 Y44.353 E.0146
G1 X185.673 Y114.621 E3.12319
G1 X185.591 Y115.073 E.01445
G1 X114.947 Y44.429 E3.13992
G1 X114.488 Y44.505 E.0146
M73 P4 R127
G1 X185.509 Y115.526 E3.15664
G1 X185.427 Y115.978 E.01445
M73 Q3 S132
G1 X114.03 Y44.581 E3.17337
