; generated by PrusaSlicer 2.3.3 on 2021-11-29 at 20:53:53 UTC

; 

; external perimeters extrusion width = 0.45mm
; perimeters extrusion width = 0.45mm
; infill extrusion width = 0.45mm
; solid infill extrusion width = 0.45mm
; top infill extrusion width = 0.40mm
; support material extrusion width = 0.35mm
; first layer extrusion width = 0.42mm

M73 P0 R22
M73 Q0 S22
M201 X1000 Y1000 Z200 E5000 ; sets maximum accelerations, mm/sec^2
M203 X200 Y200 Z12 E120 ; sets maximum feedrates, mm/sec
M204 P1250 R1250 T1250 ; sets acceleration (P, T) and retract acceleration (R), mm/sec^2
M205 X8.00 Y8.00 Z0.40 E4.50 ; sets the jerk limits, mm/sec
M205 S0 T0 ; sets the minimum extruding and travel feed rate, mm/sec
M107
;TYPE:Custom
M862.3 P "MK3S" ; printer model check
M862.1 P0.4 ; nozzle diameter check
M115 U3.10.0 ; tell printer latest fw version
G90 ; use absolute coordinates
M83 ; extruder relative mode
M104 S215 ; set extruder temp
M140 S60 ; set bed temp
M190 S60 ; wait for bed temp
M109 S215 ; wait for extruder temp
G28 W ; home all without mesh bed level
G80 ; mesh bed leveling
G1 Y-3.0 F1000.0 ; go outside print area
G92 E0.0
G1 X60.0 E9.0 F1000.0 ; intro line
G1 X100.0 E12.5 F1000.0 ; intro line
G92 E0.0
M221 S95

; Don't change E values below. Excessive value can damage the printer.
M907 E430 ; set extruder motor current
G21 ; set units to millimeters
G90 ; use absolute coordinates
M83 ; use relative distances for extrusion
M900 K0.05 ; Filament gcode LA 1.5
M900 K30 ; Filament gcode LA 1.0
;LAYER_CHANGE
;Z:0.2
;HEIGHT:0.2
;BEFORE_LAYER_CHANGE
G92 E0.0
;0.2


G1 E-0.80000 F2100.000
G1 Z0.400 F10800.000
;AFTER_LAYER_CHANGE
;0.2
G1 X109.023 Y87.831
G1 Z0.200
G1 E0.80000 F2100.000
M204 S1000
;TYPE:Skirt
;WIDTH:0.42
G1 F1200.000
G1 X109.942 Y87.621 E0.02954
G1 X140.004 Y87.621 E0.94257
G1 X140.885 Y87.791 E0.02813
G1 X141.640 Y88.276 E0.02813
G1 X142.159 Y89.003 E0.02802
G1 X142.374 Y89.875 E0.02813
G1 X142.377 Y120.048 E0.94607
M73 P0 R21
G1 X142.205 Y120.891 E0.02696
G1 X141.745 Y121.617 E0.02696
G1 X140.956 Y122.179 E0.03036
G1 X140.009 Y122.379 E0.03036
G1 X109.950 Y122.379 E0.94245
M73 Q0 S21
G1 X109.108 Y122.206 E0.02696
G1 X108.385 Y121.747 E0.02684
G1 X107.824 Y120.958 E0.03036
G1 X107.623 Y120.011 E0.03036
G1 X107.623 Y89.948 E0.94260
M73 P1 R21
M73 Q1 S21
G1 X107.797 Y89.106 E0.02696
G1 X108.255 Y88.383 E0.02684
G1 X108.974 Y87.866 E0.02778
; printing object CameraBase2.stl id:0 copy 0
;WIPE_START
G1 F8640.000
G1 X109.942 Y87.621 E-0.23037
G1 X112.236 Y87.621 E-0.52963
;WIPE_END
G1 E-0.04000 F2100.000
G1 Z0.600 F10800.000
G1 X120.213 Y100.212
G1 Z0.200
G1 E0.80000 F2100.000
;TYPE:Perimeter
G1 F1200.000
G1 X129.787 Y100.212 E0.30019
G1 X129.787 Y109.788 E0.30023
G1 X120.213 Y109.788 E0.30019
G1 X120.213 Y100.272 E0.29835
G1 X120.590 Y100.589 F10800.000
;TYPE:External perimeter
G1 F1200.000
G1 X129.410 Y100.589 E0.27654
G1 X129.410 Y109.411 E0.27659
G1 X120.590 Y109.411 E0.27654
G1 X120.590 Y100.649 E0.27470
G1 X120.486 Y100.203 F10800.000
;WIPE_START
G1 F8640.000
G1 X123.881 Y100.627 E-0.76000
;WIPE_END
G1 E-0.04000 F2100.000
G1 Z0.600 F10800.000
G1 X110.787 Y90.785
G1 Z0.200
G1 E0.80000 F2100.000
;TYPE:Perimeter
G1 F1200.000
G1 X139.213 Y90.785 E0.89127
G1 X139.213 Y119.215 E0.89142
G1 X110.787 Y119.215 E0.89127
G1 X110.787 Y90.845 E0.88954
G1 X110.410 Y90.408 F10800.000
;TYPE:External perimeter
G1 F1200.000
G1 X139.590 Y90.408 E0.91492
M73 Q2 S21
G1 X139.590 Y119.592 E0.91507
M73 P2 R21
G1 X110.410 Y119.592 E0.91492
G1 X110.410 Y90.468 E0.91319
G1 X110.796 Y90.511 F10800.000
;WIPE_START
G1 F8640.000
G1 X113.701 Y90.461 E-0.76000
;WIPE_END
G1 E-0.04000 F2100.000
G1 Z0.600 F10800.000
G1 X138.331 Y90.898
G1 Z0.200
G1 E0.80000 F2100.000
;TYPE:Solid infill
;WIDTH:0.423272
G1 F1200.000
G1 X138.930 Y91.497 E0.02681
G1 X138.930 Y92.035 E0.01701
G1 X137.962 Y91.067 E0.04328
G1 X137.424 Y91.067 E0.01701
G1 X138.930 Y92.573 E0.06734
G1 X138.930 Y93.111 E0.01701
G1 X136.887 Y91.067 E0.09140
G1 X136.349 Y91.067 E0.01701
G1 X138.930 Y93.649 E0.11546
G1 X138.930 Y94.187 E0.01701
G1 X135.811 Y91.067 E0.13952
G1 X135.273 Y91.067 E0.01701
G1 X138.930 Y94.725 E0.16358
G1 X138.930 Y95.263 E0.01701
G1 X134.735 Y91.067 E0.18763
G1 X134.197 Y91.067 E0.01701
G1 X138.930 Y95.801 E0.21169
G1 X138.930 Y96.338 E0.01701
G1 X133.659 Y91.067 E0.23575
G1 X133.121 Y91.067 E0.01701
G1 X138.930 Y96.876 E0.25981
G1 X138.930 Y97.414 E0.01701
G1 X132.583 Y91.067 E0.28387
G1 X132.045 Y91.067 E0.01701
G1 X138.930 Y97.952 E0.30793
G1 X138.930 Y98.490 E0.01701
G1 X131.508 Y91.067 E0.33198
G1 X130.970 Y91.067 E0.01701
G1 X138.930 Y99.028 E0.35604
G1 X138.930 Y99.566 E0.01701
G1 X130.432 Y91.067 E0.38010
G1 X129.894 Y91.067 E0.01701
G1 X138.930 Y100.104 E0.40416
G1 X138.930 Y100.642 E0.01701
G1 X129.356 Y91.067 E0.42822
G1 X128.818 Y91.067 E0.01701
G1 X138.930 Y101.180 E0.45228
M73 Q3 S21
G1 X138.930 Y101.717 E0.01701
G1 X128.280 Y91.067 E0.47633
M73 P3 R21
G1 X127.742 Y91.067 E0.01701
G1 X138.930 Y102.255 E0.50039
G1 X138.930 Y102.793 E0.01701
G1 X127.204 Y91.067 E0.52445
G1 X126.667 Y91.067 E0.01701
G1 X138.930 Y103.331 E0.54851
G1 X138.930 Y103.869 E0.01701
G1 X126.129 Y91.067 E0.57257
G1 X125.591 Y91.067 E0.01701
G1 X138.930 Y104.407 E0.59663
G1 X138.930 Y104.945 E0.01701
G1 X125.053 Y91.067 E0.62068
G1 X124.515 Y91.067 E0.01701
G1 X138.930 Y105.483 E0.64474
G1 X138.930 Y106.021 E0.01701
G1 X123.977 Y91.067 E0.66880
G1 X123.439 Y91.067 E0.01701
G1 X138.930 Y106.559 E0.69286
G1 X138.930 Y107.096 E0.01701
G1 X122.901 Y91.067 E0.71692
G1 X122.363 Y91.067 E0.01701
G1 X138.930 Y107.634 E0.74098
G1 X138.930 Y108.172 E0.01701
G1 X121.825 Y91.067 E0.76503
M73 Q4 S21
G1 X121.288 Y91.067 E0.01701
M73 P4 R21
G1 X138.930 Y108.710 E0.78909
G1 X138.930 Y109.248 E0.01701
G1 X130.070 Y100.388 E0.39629
G1 X130.070 Y99.929 E0.01449
G1 X129.612 Y99.929 E0.01449
G1 X120.750 Y91.067 E0.39636
G1 X120.212 Y91.067 E0.01701
G1 X129.074 Y99.929 E0.39636
G1 X128.536 Y99.929 E0.01701
G1 X119.674 Y91.067 E0.39636
G1 X119.136 Y91.067 E0.01701
G1 X127.998 Y99.929 E0.39636
G1 X127.460 Y99.929 E0.01701
G1 X118.598 Y91.067 E0.39636
G1 X118.060 Y91.067 E0.01701
G1 X126.922 Y99.929 E0.39636
G1 X126.384 Y99.929 E0.01701
G1 X117.522 Y91.067 E0.39636
G1 X116.984 Y91.067 E0.01701
G1 X125.846 Y99.929 E0.39636
G1 X125.308 Y99.929 E0.01701
G1 X116.446 Y91.067 E0.39636
G1 X115.909 Y91.067 E0.01701
G1 X124.770 Y99.929 E0.39636
G1 X124.233 Y99.929 E0.01701
G1 X115.371 Y91.067 E0.39636
G1 X114.833 Y91.067 E0.01701
G1 X123.695 Y99.929 E0.39636
G1 X123.157 Y99.929 E0.01701
G1 X114.295 Y91.067 E0.39636
G1 X113.757 Y91.067 E0.01701
G1 X122.619 Y99.929 E0.39636
G1 X122.081 Y99.929 E0.01701
G1 X113.219 Y91.067 E0.39636
G1 X112.681 Y91.067 E0.01701
G1 X121.543 Y99.929 E0.39636
G1 X121.005 Y99.929 E0.01701
G1 X112.143 Y91.067 E0.39636
M73 P5 R21
M73 Q5 S21
G1 X111.605 Y91.067 E0.01701
G1 X120.467 Y99.929 E0.39636
G1 X119.930 Y99.930 E0.01699
G1 X111.070 Y91.070 E0.39629
G1 X111.070 Y91.608 E0.01701
G1 X119.930 Y100.468 E0.39629
G1 X119.930 Y101.006 E0.01701
G1 X111.070 Y92.146 E0.39629
G1 X111.070 Y92.684 E0.01701
G1 X119.930 Y101.544 E0.39629
G1 X119.930 Y102.082 E0.01701
G1 X111.070 Y93.222 E0.39629
G1 X111.070 Y93.759 E0.01701
M73 P5 R20
G1 X119.930 Y102.620 E0.39629
G1 X119.930 Y103.158 E0.01701
G1 X111.070 Y94.297 E0.39629
G1 X111.070 Y94.835 E0.01701
G1 X119.930 Y103.695 E0.39629
G1 X119.930 Y104.233 E0.01701
G1 X111.070 Y95.373 E0.39629
M73 Q5 S20
G1 X111.070 Y95.911 E0.01701
G1 X119.930 Y104.771 E0.39629
G1 X119.930 Y105.309 E0.01701
G1 X111.070 Y96.449 E0.39629
G1 X111.070 Y96.987 E0.01701
G1 X119.930 Y105.847 E0.39629
G1 X119.930 Y106.385 E0.01701
G1 X111.070 Y97.525 E0.39629
G1 X111.070 Y98.063 E0.01701
G1 X119.930 Y106.923 E0.39629
G1 X119.930 Y107.461 E0.01701
G1 X111.070 Y98.601 E0.39629
G1 X111.070 Y99.138 E0.01701
G1 X119.930 Y107.999 E0.39629
G1 X119.930 Y108.537 E0.01701
G1 X111.070 Y99.676 E0.39629
G1 X111.070 Y100.214 E0.01701
G1 X120.100 Y109.244 E0.40388
;WIPE_START
M73 Q6 S20
G1 F8640.000
G1 X117.772 Y106.917 E-0.76000
;WIPE_END
G1 E-0.04000 F2100.000
M73 P6 R20
G1 Z0.600 F10800.000
G1 X129.900 Y100.756
G1 Z0.200
G1 E0.80000 F2100.000
G1 F1200.000
G1 X138.930 Y109.786 E0.40388
G1 X138.930 Y110.324 E0.01701
G1 X130.070 Y101.464 E0.39629
G1 X130.070 Y102.001 E0.01701
G1 X138.930 Y110.862 E0.39629
G1 X138.930 Y111.400 E0.01701
G1 X130.070 Y102.539 E0.39629
G1 X130.070 Y103.077 E0.01701
G1 X138.930 Y111.937 E0.39629
G1 X138.930 Y112.475 E0.01701
G1 X130.070 Y103.615 E0.39629
G1 X130.070 Y104.153 E0.01701
G1 X138.930 Y113.013 E0.39629
G1 X138.930 Y113.551 E0.01701
G1 X130.070 Y104.691 E0.39629
G1 X130.070 Y105.229 E0.01701
G1 X138.930 Y114.089 E0.39629
G1 X138.930 Y114.627 E0.01701
G1 X130.070 Y105.767 E0.39629
G1 X130.070 Y106.305 E0.01701
G1 X138.930 Y115.165 E0.39629
G1 X138.930 Y115.703 E0.01701
G1 X130.070 Y106.843 E0.39629
G1 X130.070 Y107.380 E0.01701
G1 X138.930 Y116.241 E0.39629
G1 X138.930 Y116.779 E0.01701
G1 X130.070 Y107.918 E0.39629
G1 X130.070 Y108.456 E0.01701
G1 X138.930 Y117.316 E0.39629
G1 X138.930 Y117.854 E0.01701
G1 X130.070 Y108.994 E0.39629
G1 X130.070 Y109.532 E0.01701
G1 X138.930 Y118.392 E0.39629
G1 X138.930 Y118.930 E0.01701
G1 X130.070 Y110.070 E0.39629
G1 X129.533 Y110.070 E0.01699
G1 X138.395 Y118.933 E0.39637
M73 P7 R20
M73 Q7 S20
G1 X137.857 Y118.933 E0.01701
G1 X128.995 Y110.070 E0.39637
G1 X128.457 Y110.070 E0.01701
G1 X137.319 Y118.933 E0.39637
G1 X136.781 Y118.933 E0.01701
G1 X127.919 Y110.070 E0.39637
G1 X127.381 Y110.070 E0.01701
G1 X136.243 Y118.933 E0.39637
G1 X135.705 Y118.933 E0.01701
G1 X126.843 Y110.070 E0.39637
G1 X126.305 Y110.070 E0.01701
G1 X135.167 Y118.933 E0.39637
G1 X134.629 Y118.933 E0.01701
G1 X125.767 Y110.070 E0.39637
G1 X125.229 Y110.070 E0.01701
G1 X134.091 Y118.933 E0.39637
G1 X133.553 Y118.933 E0.01701
G1 X124.691 Y110.070 E0.39637
G1 X124.154 Y110.070 E0.01701
G1 X133.016 Y118.933 E0.39637
G1 X132.478 Y118.933 E0.01701
G1 X123.616 Y110.070 E0.39637
G1 X123.078 Y110.070 E0.01701
G1 X131.940 Y118.933 E0.39637
G1 X131.402 Y118.933 E0.01701
G1 X122.540 Y110.070 E0.39637
G1 X122.002 Y110.070 E0.01701
G1 X130.864 Y118.933 E0.39637
G1 X130.326 Y118.933 E0.01701
G1 X121.464 Y110.070 E0.39637
G1 X120.926 Y110.070 E0.01701
G1 X129.788 Y118.933 E0.39637
G1 X129.250 Y118.933 E0.01701
G1 X120.388 Y110.070 E0.39637
G1 X119.930 Y110.070 E0.01449
G1 X119.930 Y109.612 E0.01449
G1 X111.070 Y100.752 E0.39629
G1 X111.070 Y101.290 E0.01701
G1 X128.712 Y118.933 E0.78909
M73 P8 R20
M73 Q8 S20
G1 X128.174 Y118.933 E0.01701
G1 X111.070 Y101.828 E0.76503
G1 X111.070 Y102.366 E0.01701
G1 X127.637 Y118.933 E0.74097
G1 X127.099 Y118.933 E0.01701
G1 X111.070 Y102.904 E0.71691
G1 X111.070 Y103.442 E0.01701
G1 X126.561 Y118.933 E0.69285
G1 X126.023 Y118.933 E0.01701
G1 X111.070 Y103.980 E0.66879
G1 X111.070 Y104.517 E0.01701
G1 X125.485 Y118.933 E0.64474
G1 X124.947 Y118.933 E0.01701
G1 X111.070 Y105.055 E0.62068
G1 X111.070 Y105.593 E0.01701
G1 X124.409 Y118.933 E0.59662
G1 X123.871 Y118.933 E0.01701
G1 X111.070 Y106.131 E0.57256
G1 X111.070 Y106.669 E0.01701
G1 X123.333 Y118.933 E0.54850
G1 X122.795 Y118.933 E0.01701
G1 X111.070 Y107.207 E0.52444
G1 X111.070 Y107.745 E0.01701
G1 X122.258 Y118.933 E0.50039
G1 X121.720 Y118.933 E0.01701
G1 X111.070 Y108.283 E0.47633
M73 P9 R20
M73 Q9 S20
G1 X111.070 Y108.821 E0.01701
G1 X121.182 Y118.933 E0.45227
G1 X120.644 Y118.933 E0.01701
G1 X111.070 Y109.359 E0.42821
G1 X111.070 Y109.896 E0.01701
G1 X120.106 Y118.933 E0.40415
G1 X119.568 Y118.933 E0.01701
G1 X111.070 Y110.434 E0.38009
G1 X111.070 Y110.972 E0.01701
G1 X119.030 Y118.933 E0.35604
G1 X118.492 Y118.933 E0.01701
G1 X111.070 Y111.510 E0.33198
G1 X111.070 Y112.048 E0.01701
G1 X117.954 Y118.933 E0.30792
G1 X117.416 Y118.933 E0.01701
G1 X111.070 Y112.586 E0.28386
G1 X111.070 Y113.124 E0.01701
G1 X116.879 Y118.933 E0.25980
G1 X116.341 Y118.933 E0.01701
G1 X111.070 Y113.662 E0.23574
G1 X111.070 Y114.200 E0.01701
G1 X115.803 Y118.933 E0.21169
G1 X115.265 Y118.933 E0.01701
G1 X111.070 Y114.737 E0.18763
G1 X111.070 Y115.275 E0.01701
G1 X114.727 Y118.933 E0.16357
G1 X114.189 Y118.933 E0.01701
G1 X111.070 Y115.813 E0.13951
G1 X111.070 Y116.351 E0.01701
G1 X113.651 Y118.933 E0.11545
G1 X113.113 Y118.933 E0.01701
G1 X111.070 Y116.889 E0.09139
G1 X111.070 Y117.427 E0.01701
G1 X112.575 Y118.933 E0.06734
G1 X112.037 Y118.933 E0.01701
G1 X111.070 Y117.965 E0.04328
G1 X111.070 Y118.503 E0.01701
G1 X111.669 Y119.102 E0.02681
; stop printing object CameraBase2.stl id:0 copy 0
M106 S84.15
;LAYER_CHANGE
;Z:0.4
;HEIGHT:0.2
;BEFORE_LAYER_CHANGE
G92 E0.0
;0.4


;WIPE_START
G1 F8640.000
G1 X111.070 Y118.503 E-0.19573
G1 X111.070 Y117.965 E-0.12420
G1 X112.037 Y118.933 E-0.31597
G1 X112.575 Y118.933 E-0.12410
;WIPE_END
G1 E-0.04000 F2100.000
G1 Z0.600 F10800.000
;AFTER_LAYER_CHANGE
;0.4
G1 X107.824 Y120.958
G1 Z0.400
G1 E0.80000 F2100.000
;TYPE:Skirt
;WIDTH:0.42
G1 F3000.000
G1 X107.623 Y120.011 E0.03036
G1 X107.623 Y89.948 E0.94260
G1 X107.797 Y89.106 E0.02696
G1 X108.255 Y88.383 E0.02684
G1 X109.023 Y87.831 E0.02966
G1 X109.942 Y87.621 E0.02954
G1 X140.004 Y87.621 E0.94257
G1 X140.885 Y87.791 E0.02813
G1 X141.640 Y88.276 E0.02813
G1 X142.159 Y89.003 E0.02802
G1 X142.374 Y89.875 E0.02813
G1 X142.377 Y120.048 E0.94607
G1 X142.205 Y120.891 E0.02696
G1 X141.745 Y121.617 E0.02696
G1 X140.956 Y122.179 E0.03036
G1 X140.009 Y122.379 E0.03036
G1 X109.950 Y122.379 E0.94245
G1 X109.108 Y122.206 E0.02696
G1 X108.385 Y121.747 E0.02684
G1 X107.858 Y121.007 E0.02848
; printing object CameraBase2.stl id:0 copy 0
;WIPE_START
G1 F8640.000
G1 X107.623 Y120.011 E-0.23635
G1 X107.623 Y117.743 E-0.52365
;WIPE_END
G1 E-0.04000 F2100.000
G1 Z0.800 F10800.000
G1 X120.368 Y109.633
G1 Z0.400
G1 E0.80000 F2100.000
M204 S800
;TYPE:Perimeter
;WIDTH:0.45
G1 F1500.000
G1 X120.368 Y100.367 E0.31362
M73 P9 R19
G1 X129.632 Y100.367 E0.31358
M73 P10 R19
M73 Q10 S20
G1 X129.632 Y109.633 E0.31362
G1 X120.428 Y109.633 E0.31155
M204 S1000
G1 X120.775 Y109.226 F10800.000
M204 S800
;TYPE:External perimeter
G1 F1500.000
G1 X120.775 Y100.774 E0.28607
G1 X129.225 Y100.774 E0.28602
G1 X129.225 Y109.226 E0.28607
M73 Q10 S19
G1 X120.835 Y109.226 E0.28399
M204 S1000
G1 X120.389 Y109.329 F10800.000
;WIPE_START
G1 F8640.000
G1 X120.812 Y105.934 E-0.76000
;WIPE_END
G1 E-0.04000 F2100.000
G1 Z0.800 F10800.000
G1 X110.632 Y119.370
G1 Z0.400
G1 E0.80000 F2100.000
M204 S800
;TYPE:Perimeter
G1 F2700.000
G1 X110.632 Y90.630 E0.97284
G1 X139.368 Y90.630 E0.97267
G1 X139.368 Y119.370 E0.97284
G1 X110.692 Y119.370 E0.97064
M204 S1000
G1 X110.225 Y119.777 F10800.000
M204 S800
;TYPE:External perimeter
G1 F1500.000
G1 X110.225 Y90.223 E1.00039
G1 X139.775 Y90.223 E1.00023
G1 X139.775 Y119.777 E1.00039
G1 X110.285 Y119.777 E0.99820
M204 S1000
G1 X110.329 Y119.391 F10800.000
;WIPE_START
G1 F8640.000
G1 X110.278 Y116.486 E-0.76000
;WIPE_END
G1 E-0.04000 F2100.000
G1 Z0.800 F10800.000
G1 X138.422 Y119.248
G1 Z0.400
G1 E0.80000 F2100.000
;TYPE:Solid infill
;WIDTH:0.450537
G1 F4800.000
G1 X139.063 Y118.607 E0.03072
G1 X139.063 Y118.031 E0.01954
G1 X138.028 Y119.065 E0.04957
G1 X137.452 Y119.065 E0.01954
G1 X139.063 Y117.454 E0.07720
G1 X139.063 Y116.878 E0.01954
G1 X136.876 Y119.065 E0.10483
G1 X136.299 Y119.065 E0.01954
G1 X139.063 Y116.301 E0.13246
G1 X139.063 Y115.725 E0.01954
G1 X135.723 Y119.065 E0.16009
G1 X135.146 Y119.065 E0.01954
G1 X139.063 Y115.149 E0.18772
G1 X139.063 Y114.572 E0.01954
G1 X134.570 Y119.065 E0.21536
G1 X133.993 Y119.065 E0.01954
G1 X139.063 Y113.996 E0.24299
G1 X139.063 Y113.419 E0.01954
G1 X133.417 Y119.065 E0.27062
G1 X132.840 Y119.065 E0.01954
G1 X139.063 Y112.843 E0.29825
G1 X139.063 Y112.266 E0.01954
G1 X132.264 Y119.065 E0.32588
G1 X131.687 Y119.065 E0.01954
G1 X139.063 Y111.690 E0.35351
M73 P11 R19
M73 Q11 S19
G1 X139.063 Y111.113 E0.01954
G1 X131.111 Y119.065 E0.38114
G1 X130.535 Y119.065 E0.01954
G1 X139.063 Y110.537 E0.40877
G1 X139.063 Y109.960 E0.01954
G1 X129.958 Y119.065 E0.43640
G1 X129.382 Y119.065 E0.01954
G1 X139.063 Y109.384 E0.46404
G1 X139.063 Y108.808 E0.01954
