; generated by PrusaSlicer 2.3.3+win64 on 2021-11-21 at 07:44:09 UTC

; 

; external perimeters extrusion width = 0.45mm
; perimeters extrusion width = 0.45mm
; infill extrusion width = 0.45mm
; solid infill extrusion width = 0.45mm
; top infill extrusion width = 0.40mm
; support material extrusion width = 0.35mm
; first layer extrusion width = 0.42mm

M73 P0 R52
M73 Q0 S53
M201 X1000 Y1000 Z200 E5000 ; sets maximum accelerations, mm/sec^2
M203 X200 Y200 Z12 E120 ; sets maximum feedrates, mm/sec
M204 P1250 R1250 T1250 ; sets acceleration (P, T) and retract acceleration (R), mm/sec^2
M205 X8.00 Y8.00 Z0.40 E4.50 ; sets the jerk limits, mm/sec
M205 S0 T0 ; sets the minimum extruding and travel feed rate, mm/sec
M107
;TYPE:Custom
M862.3 P "MK3S" ; printer model check
M862.1 P0.4 ; nozzle diameter check
M115 U3.10.0 ; tell printer latest fw version
G90 ; use absolute coordinates
M83 ; extruder relative mode
M104 S215 ; set extruder temp
M140 S60 ; set bed temp
M190 S60 ; wait for bed temp
M109 S215 ; wait for extruder temp
G28 W ; home all without mesh bed level
G80 ; mesh bed leveling
G1 Y-3.0 F1000.0 ; go outside print area
G92 E0.0
G1 X60.0 E9.0 F1000.0 ; intro line
G1 X100.0 E12.5 F1000.0 ; intro line
G92 E0.0
M221 S95

; Don't change E values below. Excessive value can damage the printer.
M907 E430 ; set extruder motor current
G21 ; set units to millimeters
G90 ; use absolute coordinates
M83 ; use relative distances for extrusion
M900 K0.05 ; Filament gcode LA 1.5
M900 K30 ; Filament gcode LA 1.0
;LAYER_CHANGE
;Z:0.2
;HEIGHT:0.2
;BEFORE_LAYER_CHANGE
G92 E0.0
;0.2


G1 E-0.80000 F2100.000
G1 Z0.400 F10800.000
;AFTER_LAYER_CHANGE
;0.2
G1 X109.023 Y87.833
G1 Z0.200
G1 E0.80000 F2100.000
M204 S1000
;TYPE:Skirt
;WIDTH:0.42
G1 F1200.000
G1 X109.942 Y87.624 E0.02954
G1 X140.004 Y87.623 E0.94257
G1 X140.885 Y87.794 E0.02813
G1 X141.640 Y88.279 E0.02813
G1 X142.159 Y89.006 E0.02802
G1 X142.374 Y89.877 E0.02813
G1 X142.377 Y120.046 E0.94592
M73 Q0 S52
G1 X142.205 Y120.888 E0.02696
G1 X141.745 Y121.615 E0.02696
G1 X140.956 Y122.176 E0.03036
G1 X140.009 Y122.377 E0.03036
G1 X109.950 Y122.377 E0.94245
G1 X109.108 Y122.203 E0.02696
G1 X108.385 Y121.745 E0.02684
G1 X107.824 Y120.956 E0.03036
G1 X107.623 Y120.009 E0.03036
G1 X107.623 Y89.950 E0.94245
G1 X107.797 Y89.108 E0.02696
G1 X108.255 Y88.385 E0.02684
G1 X108.974 Y87.868 E0.02778
; printing object camera-holder.stl id:0 copy 0
;WIPE_START
G1 F8640.000
G1 X109.942 Y87.624 E-0.23037
G1 X112.236 Y87.624 E-0.52963
;WIPE_END
G1 E-0.04000 F2100.000
G1 Z0.600 F10800.000
G1 X120.208 Y100.208
G1 Z0.200
G1 E0.80000 F2100.000
;TYPE:Perimeter
G1 F1200.000
G1 X129.792 Y100.208 E0.30051
G1 X129.792 Y109.792 E0.30051
G1 X120.208 Y109.792 E0.30051
G1 X120.208 Y100.268 E0.29863
G1 X120.585 Y100.585 F10800.000
;TYPE:External perimeter
G1 F1200.000
G1 X129.415 Y100.585 E0.27687
G1 X129.415 Y109.415 E0.27687
G1 X120.585 Y109.415 E0.27687
G1 X120.585 Y100.645 E0.27499
G1 X120.481 Y100.198 F10800.000
;WIPE_START
G1 F8640.000
G1 X123.876 Y100.622 E-0.76000
;WIPE_END
G1 E-0.04000 F2100.000
G1 Z0.600 F10800.000
G1 X110.787 Y90.787
G1 Z0.200
G1 E0.80000 F2100.000
;TYPE:Perimeter
G1 F1200.000
G1 X139.213 Y90.787 E0.89127
G1 X139.213 Y119.213 E0.89127
G1 X110.787 Y119.213 E0.89127
G1 X110.787 Y90.847 E0.88939
G1 X110.410 Y90.410 F10800.000
;TYPE:External perimeter
G1 F1200.000
G1 X139.590 Y90.410 E0.91492
G1 X139.590 Y119.590 E0.91492
G1 X110.410 Y119.590 E0.91492
G1 X110.410 Y90.470 E0.91304
G1 X110.796 Y90.514 F10800.000
;WIPE_START
G1 F8640.000
G1 X113.701 Y90.463 E-0.76000
;WIPE_END
G1 E-0.04000 F2100.000
G1 Z0.600 F10800.000
G1 X138.331 Y90.900
G1 Z0.200
G1 E0.80000 F2100.000
;TYPE:Solid infill
;WIDTH:0.42324
G1 F1200.000
G1 X138.930 Y91.500 E0.02681
G1 X138.930 Y92.038 E0.01701
G1 X137.962 Y91.070 E0.04327
G1 X137.425 Y91.070 E0.01701
G1 X138.930 Y92.575 E0.06733
G1 X138.930 Y93.113 E0.01701
M73 Q1 S52
G1 X136.887 Y91.070 E0.09138
G1 X136.349 Y91.070 E0.01701
G1 X138.930 Y93.651 E0.11544
M73 P1 R52
G1 X138.930 Y94.189 E0.01701
G1 X135.811 Y91.070 E0.13949
G1 X135.273 Y91.070 E0.01701
G1 X138.930 Y94.727 E0.16355
G1 X138.930 Y95.265 E0.01701
G1 X134.735 Y91.070 E0.18760
G1 X134.198 Y91.070 E0.01701
G1 X138.930 Y95.802 E0.21165
G1 X138.930 Y96.340 E0.01701
G1 X133.660 Y91.070 E0.23571
G1 X133.122 Y91.070 E0.01701
G1 X138.930 Y96.878 E0.25976
G1 X138.930 Y97.416 E0.01701
G1 X132.584 Y91.070 E0.28382
G1 X132.046 Y91.070 E0.01701
G1 X138.930 Y97.954 E0.30787
G1 X138.930 Y98.492 E0.01701
G1 X131.508 Y91.070 E0.33193
G1 X130.970 Y91.070 E0.01701
G1 X138.930 Y99.030 E0.35598
G1 X138.930 Y99.567 E0.01701
G1 X130.433 Y91.070 E0.38003
G1 X129.895 Y91.070 E0.01701
G1 X138.930 Y100.105 E0.40409
G1 X138.930 Y100.643 E0.01701
G1 X129.357 Y91.070 E0.42814
G1 X128.819 Y91.070 E0.01701
G1 X138.930 Y101.181 E0.45220
G1 X138.930 Y101.719 E0.01701
G1 X128.281 Y91.070 E0.47625
G1 X127.743 Y91.070 E0.01701
G1 X138.930 Y102.257 E0.50031
G1 X138.930 Y102.795 E0.01701
G1 X127.205 Y91.070 E0.52436
G1 X126.668 Y91.070 E0.01701
G1 X138.930 Y103.332 E0.54841
G1 X138.930 Y103.870 E0.01701
G1 X126.130 Y91.070 E0.57247
G1 X125.592 Y91.070 E0.01701
G1 X138.930 Y104.408 E0.59652
G1 X138.930 Y104.946 E0.01701
G1 X125.054 Y91.070 E0.62058
G1 X124.516 Y91.070 E0.01701
G1 X138.930 Y105.484 E0.64463
G1 X138.930 Y106.022 E0.01701
G1 X123.978 Y91.070 E0.66869
G1 X123.440 Y91.070 E0.01701
G1 X138.930 Y106.560 E0.69274
G1 X138.930 Y107.097 E0.01701
G1 X122.903 Y91.070 E0.71679
G1 X122.365 Y91.070 E0.01701
G1 X138.930 Y107.635 E0.74085
G1 X138.930 Y108.173 E0.01701
G1 X121.827 Y91.070 E0.76490
G1 X121.289 Y91.070 E0.01701
G1 X138.930 Y108.711 E0.78896
G1 X138.930 Y109.249 E0.01701
G1 X130.075 Y100.394 E0.39602
G1 X130.075 Y99.925 E0.01483
G1 X129.606 Y99.925 E0.01483
G1 X120.751 Y91.070 E0.39602
G1 X120.213 Y91.070 E0.01701
G1 X129.068 Y99.925 E0.39602
G1 X128.531 Y99.925 E0.01701
G1 X119.675 Y91.070 E0.39602
G1 X119.138 Y91.070 E0.01701
G1 X127.993 Y99.925 E0.39602
G1 X127.455 Y99.925 E0.01701
G1 X118.600 Y91.070 E0.39602
G1 X118.062 Y91.070 E0.01701
G1 X126.917 Y99.925 E0.39602
G1 X126.379 Y99.925 E0.01701
G1 X117.524 Y91.070 E0.39602
G1 X116.986 Y91.070 E0.01701
G1 X125.841 Y99.925 E0.39602
G1 X125.303 Y99.925 E0.01701
G1 X116.448 Y91.070 E0.39602
M73 P1 R51
G1 X115.910 Y91.070 E0.01701
G1 X124.766 Y99.925 E0.39602
G1 X124.228 Y99.925 E0.01701
G1 X115.373 Y91.070 E0.39602
G1 X114.835 Y91.070 E0.01701
G1 X123.690 Y99.925 E0.39602
G1 X123.152 Y99.925 E0.01701
G1 X114.297 Y91.070 E0.39602
G1 X113.759 Y91.070 E0.01701
G1 X122.614 Y99.925 E0.39602
M73 P2 R51
M73 Q2 S52
G1 X122.076 Y99.925 E0.01701
G1 X113.221 Y91.070 E0.39602
G1 X112.683 Y91.070 E0.01701
G1 X121.538 Y99.925 E0.39602
G1 X121.001 Y99.925 E0.01701
G1 X112.146 Y91.070 E0.39602
G1 X111.608 Y91.070 E0.01701
G1 X120.463 Y99.925 E0.39602
G1 X119.925 Y99.925 E0.01701
G1 X111.070 Y91.070 E0.39602
G1 X111.070 Y91.608 E0.01701
G1 X119.925 Y100.463 E0.39602
G1 X119.925 Y101.001 E0.01701
G1 X111.070 Y92.146 E0.39602
G1 X111.070 Y92.684 E0.01701
G1 X119.925 Y101.539 E0.39602
G1 X119.925 Y102.076 E0.01701
G1 X111.070 Y93.221 E0.39602
G1 X111.070 Y93.759 E0.01701
G1 X119.925 Y102.614 E0.39602
G1 X119.925 Y103.152 E0.01701
G1 X111.070 Y94.297 E0.39602
M73 Q2 S51
G1 X111.070 Y94.835 E0.01701
G1 X119.925 Y103.690 E0.39602
G1 X119.925 Y104.228 E0.01701
G1 X111.070 Y95.373 E0.39602
G1 X111.070 Y95.911 E0.01701
G1 X119.925 Y104.766 E0.39602
G1 X119.925 Y105.304 E0.01701
G1 X111.070 Y96.448 E0.39602
G1 X111.070 Y96.986 E0.01701
G1 X119.925 Y105.841 E0.39602
G1 X119.925 Y106.379 E0.01701
G1 X111.070 Y97.524 E0.39602
G1 X111.070 Y98.062 E0.01701
G1 X119.925 Y106.917 E0.39602
G1 X119.925 Y107.455 E0.01701
G1 X111.070 Y98.600 E0.39602
G1 X111.070 Y99.138 E0.01701
G1 X119.925 Y107.993 E0.39602
G1 X119.925 Y108.531 E0.01701
G1 X111.070 Y99.676 E0.39602
G1 X111.070 Y100.213 E0.01701
G1 X120.095 Y109.238 E0.40361
;WIPE_START
G1 F8640.000
G1 X117.767 Y106.911 E-0.76000
;WIPE_END
G1 E-0.04000 F2100.000
G1 Z0.600 F10800.000
G1 X129.905 Y100.762
G1 Z0.200
G1 E0.80000 F2100.000
G1 F1200.000
G1 X138.930 Y109.787 E0.40361
G1 X138.930 Y110.325 E0.01701
G1 X130.075 Y101.469 E0.39602
G1 X130.075 Y102.007 E0.01701
G1 X138.930 Y110.862 E0.39602
G1 X138.930 Y111.400 E0.01701
G1 X130.075 Y102.545 E0.39602
G1 X130.075 Y103.083 E0.01701
G1 X138.930 Y111.938 E0.39602
G1 X138.930 Y112.476 E0.01701
G1 X130.075 Y103.621 E0.39602
G1 X130.075 Y104.159 E0.01701
G1 X138.930 Y113.014 E0.39602
G1 X138.930 Y113.552 E0.01701
G1 X130.075 Y104.697 E0.39602
G1 X130.075 Y105.234 E0.01701
G1 X138.930 Y114.090 E0.39602
G1 X138.930 Y114.627 E0.01701
G1 X130.075 Y105.772 E0.39602
G1 X130.075 Y106.310 E0.01701
G1 X138.930 Y115.165 E0.39602
G1 X138.930 Y115.703 E0.01701
G1 X130.075 Y106.848 E0.39602
G1 X130.075 Y107.386 E0.01701
G1 X138.930 Y116.241 E0.39602
G1 X138.930 Y116.779 E0.01701
G1 X130.075 Y107.924 E0.39602
G1 X130.075 Y108.462 E0.01701
G1 X138.930 Y117.317 E0.39602
G1 X138.930 Y117.854 E0.01701
G1 X130.075 Y108.999 E0.39602
G1 X130.075 Y109.537 E0.01701
G1 X138.930 Y118.392 E0.39602
G1 X138.930 Y118.930 E0.01701
G1 X130.075 Y110.075 E0.39603
G1 X129.537 Y110.075 E0.01701
G1 X138.392 Y118.930 E0.39602
G1 X137.854 Y118.930 E0.01701
G1 X128.999 Y110.075 E0.39602
G1 X128.461 Y110.075 E0.01701
G1 X137.316 Y118.930 E0.39602
G1 X136.779 Y118.930 E0.01701
G1 X127.924 Y110.075 E0.39602
G1 X127.386 Y110.075 E0.01701
G1 X136.241 Y118.930 E0.39602
G1 X135.703 Y118.930 E0.01701
G1 X126.848 Y110.075 E0.39602
G1 X126.310 Y110.075 E0.01701
G1 X135.165 Y118.930 E0.39602
M73 P3 R51
M73 Q3 S51
G1 X134.627 Y118.930 E0.01701
G1 X125.772 Y110.075 E0.39602
G1 X125.234 Y110.075 E0.01701
G1 X134.089 Y118.930 E0.39602
G1 X133.552 Y118.930 E0.01701
G1 X124.696 Y110.075 E0.39602
G1 X124.159 Y110.075 E0.01701
G1 X133.014 Y118.930 E0.39602
G1 X132.476 Y118.930 E0.01701
G1 X123.621 Y110.075 E0.39602
G1 X123.083 Y110.075 E0.01701
G1 X131.938 Y118.930 E0.39602
G1 X131.400 Y118.930 E0.01701
G1 X122.545 Y110.075 E0.39602
G1 X122.007 Y110.075 E0.01701
G1 X130.862 Y118.930 E0.39602
G1 X130.324 Y118.930 E0.01701
G1 X121.469 Y110.075 E0.39602
G1 X120.931 Y110.075 E0.01701
G1 X129.787 Y118.930 E0.39602
G1 X129.249 Y118.930 E0.01701
G1 X120.394 Y110.075 E0.39602
G1 X119.925 Y110.075 E0.01482
G1 X119.925 Y109.606 E0.01482
G1 X111.070 Y100.751 E0.39602
G1 X111.070 Y101.289 E0.01701
G1 X128.711 Y118.930 E0.78895
G1 X128.173 Y118.930 E0.01701
G1 X111.070 Y101.827 E0.76490
G1 X111.070 Y102.365 E0.01701
G1 X127.635 Y118.930 E0.74084
G1 X127.097 Y118.930 E0.01701
G1 X111.070 Y102.903 E0.71679
G1 X111.070 Y103.441 E0.01701
G1 X126.559 Y118.930 E0.69273
G1 X126.022 Y118.930 E0.01701
G1 X111.070 Y103.978 E0.66868
G1 X111.070 Y104.516 E0.01701
G1 X125.484 Y118.930 E0.64463
G1 X124.946 Y118.930 E0.01701
G1 X111.070 Y105.054 E0.62057
G1 X111.070 Y105.592 E0.01701
G1 X124.408 Y118.930 E0.59652
G1 X123.870 Y118.930 E0.01701
G1 X111.070 Y106.130 E0.57246
G1 X111.070 Y106.668 E0.01701
G1 X123.332 Y118.930 E0.54841
G1 X122.794 Y118.930 E0.01701
G1 X111.070 Y107.206 E0.52435
G1 X111.070 Y107.743 E0.01701
G1 X122.257 Y118.930 E0.50030
G1 X121.719 Y118.930 E0.01701
G1 X111.070 Y108.281 E0.47625
G1 X111.070 Y108.819 E0.01701
G1 X121.181 Y118.930 E0.45219
G1 X120.643 Y118.930 E0.01701
G1 X111.070 Y109.357 E0.42814
G1 X111.070 Y109.895 E0.01701
G1 X120.105 Y118.930 E0.40408
M73 P3 R50
G1 X119.567 Y118.930 E0.01701
G1 X111.070 Y110.433 E0.38003
G1 X111.070 Y110.971 E0.01701
G1 X119.029 Y118.930 E0.35597
G1 X118.492 Y118.930 E0.01701
G1 X111.070 Y111.508 E0.33192
G1 X111.070 Y112.046 E0.01701
G1 X117.954 Y118.930 E0.30787
G1 X117.416 Y118.930 E0.01701
G1 X111.070 Y112.584 E0.28381
G1 X111.070 Y113.122 E0.01701
G1 X116.878 Y118.930 E0.25976
G1 X116.340 Y118.930 E0.01701
G1 X111.070 Y113.660 E0.23570
G1 X111.070 Y114.198 E0.01701
G1 X115.802 Y118.930 E0.21165
G1 X115.264 Y118.930 E0.01701
G1 X111.070 Y114.736 E0.18759
G1 X111.070 Y115.273 E0.01701
G1 X114.727 Y118.930 E0.16354
G1 X114.189 Y118.930 E0.01701
G1 X111.070 Y115.811 E0.13949
G1 X111.070 Y116.349 E0.01701
G1 X113.651 Y118.930 E0.11543
G1 X113.113 Y118.930 E0.01701
G1 X111.070 Y116.887 E0.09138
G1 X111.070 Y117.425 E0.01701
G1 X112.575 Y118.930 E0.06732
G1 X112.037 Y118.930 E0.01701
G1 X111.070 Y117.963 E0.04327
G1 X111.070 Y118.500 E0.01701
G1 X111.669 Y119.100 E0.02680
; stop printing object camera-holder.stl id:0 copy 0
M106 S84.15
;LAYER_CHANGE
;Z:0.35
;HEIGHT:0.15
;BEFORE_LAYER_CHANGE
G92 E0.0
;0.35


;WIPE_START
G1 F8640.000
G1 X111.070 Y118.500 E-0.19571
G1 X111.070 Y117.963 E-0.12419
G1 X112.037 Y118.930 E-0.31593
G1 X112.575 Y118.930 E-0.12417
;WIPE_END
G1 E-0.04000 F2100.000
G1 Z0.600 F10800.000
;AFTER_LAYER_CHANGE
;0.35
G1 X107.824 Y120.956
G1 Z0.350
G1 E0.80000 F2100.000
;TYPE:Skirt
;WIDTH:0.42
G1 F3000.000
G1 X107.623 Y120.009 E0.02342
G1 X107.623 Y89.950 E0.72695
M73 P4 R50
M73 Q4 S51
G1 X107.797 Y89.108 E0.02080
G1 X108.255 Y88.385 E0.02071
G1 X109.023 Y87.833 E0.02288
G1 X109.942 Y87.624 E0.02279
G1 X140.004 Y87.623 E0.72705
G1 X140.885 Y87.794 E0.02170
G1 X141.640 Y88.279 E0.02170
G1 X142.159 Y89.006 E0.02161
G1 X142.374 Y89.877 E0.02170
G1 X142.377 Y120.046 E0.72962
G1 X142.205 Y120.888 E0.02080
G1 X141.745 Y121.615 E0.02080
G1 X140.956 Y122.176 E0.02342
G1 X140.009 Y122.377 E0.02342
G1 X109.950 Y122.377 E0.72695
G1 X109.108 Y122.203 E0.02080
G1 X108.385 Y121.745 E0.02071
G1 X107.858 Y121.005 E0.02197
; printing object camera-holder.stl id:0 copy 0
;WIPE_START
G1 F8640.000
G1 X107.623 Y120.009 E-0.23635
G1 X107.623 Y117.741 E-0.52365
;WIPE_END
G1 E-0.04000 F2100.000
G1 Z0.750 F10800.000
G1 X120.352 Y109.648
G1 Z0.350
G1 E0.80000 F2100.000
M204 S800
;TYPE:Perimeter
;WIDTH:0.45
G1 F1500.000
G1 X120.352 Y100.352 E0.24221
G1 X129.648 Y100.352 E0.24221
M73 Q4 S50
G1 X129.648 Y109.648 E0.24221
G1 X120.412 Y109.648 E0.24065
M204 S1000
G1 X120.770 Y109.230 F10800.000
M204 S800
;TYPE:External perimeter
G1 F1500.000
G1 X120.770 Y100.770 E0.22044
G1 X129.230 Y100.770 E0.22044
G1 X129.230 Y109.230 E0.22044
G1 X120.830 Y109.230 E0.21888
M204 S1000
G1 X120.383 Y109.334 F10800.000
;WIPE_START
G1 F8640.000
G1 X120.807 Y105.939 E-0.76000
;WIPE_END
G1 E-0.04000 F2100.000
G1 Z0.750 F10800.000
G1 X110.643 Y119.357
G1 Z0.350
G1 E0.80000 F2100.000
M204 S800
;TYPE:Perimeter
G1 F2700.000
G1 X110.643 Y90.643 E0.74818
G1 X139.357 Y90.643 E0.74818
G1 X139.357 Y119.357 E0.74818
G1 X110.703 Y119.357 E0.74661
M204 S1000
G1 X110.225 Y119.775 F10800.000
M204 S800
;TYPE:External perimeter
G1 F1500.000
G1 X110.225 Y90.225 E0.76995
G1 X139.775 Y90.225 E0.76995
G1 X139.775 Y119.775 E0.76995
G1 X110.285 Y119.775 E0.76838
M204 S1000
G1 X110.329 Y119.389 F10800.000
;WIPE_START
G1 F8640.000
G1 X110.278 Y116.484 E-0.76000
;WIPE_END
G1 E-0.04000 F2100.000
G1 Z0.750 F10800.000
G1 X139.232 Y118.383
G1 Z0.350
G1 E0.80000 F2100.000
;TYPE:Solid infill
;WIDTH:0.452115
G1 F4800.000
G1 X138.571 Y119.044 E0.02448
G1 X137.977 Y119.044 E0.01555
G1 X139.044 Y117.977 E0.03951
G1 X139.044 Y117.383 E0.01555
G1 X137.383 Y119.044 E0.06151
G1 X136.789 Y119.044 E0.01555
G1 X139.044 Y116.789 E0.08350
G1 X139.044 Y116.195 E0.01555
G1 X136.195 Y119.044 E0.10549
G1 X135.601 Y119.044 E0.01555
G1 X139.044 Y115.601 E0.12749
G1 X139.044 Y115.008 E0.01555
G1 X135.008 Y119.044 E0.14948
G1 X134.414 Y119.044 E0.01555
G1 X139.044 Y114.414 E0.17148
G1 X139.044 Y113.820 E0.01555
G1 X133.820 Y119.044 E0.19347
G1 X133.226 Y119.044 E0.01555
G1 X139.044 Y113.226 E0.21546
G1 X139.044 Y112.632 E0.01555
G1 X132.632 Y119.044 E0.23746
G1 X132.038 Y119.044 E0.01555
G1 X139.044 Y112.038 E0.25945
G1 X139.044 Y111.444 E0.01555
G1 X131.444 Y119.044 E0.28144
G1 X130.851 Y119.044 E0.01555
G1 X139.044 Y110.851 E0.30344
G1 X139.044 Y110.257 E0.01555
G1 X130.257 Y119.044 E0.32543
G1 X129.663 Y119.044 E0.01555
G1 X139.044 Y109.663 E0.34743
G1 X139.044 Y109.069 E0.01555
G1 X129.069 Y119.044 E0.36942
G1 X128.475 Y119.044 E0.01555
G1 X139.044 Y108.475 E0.39141
G1 X139.044 Y107.881 E0.01555
G1 X127.881 Y119.044 E0.41341
G1 X127.287 Y119.044 E0.01555
G1 X139.044 Y107.287 E0.43540
