; generated by PrusaSlicer 2.4.0+win64 on 2022-01-09 at 16:06:46 UTC

; 

; external perimeters extrusion width = 0.45mm
; perimeters extrusion width = 0.45mm
; infill extrusion width = 0.45mm
; solid infill extrusion width = 0.45mm
; top infill extrusion width = 0.40mm
; support material extrusion width = 0.35mm
; first layer extrusion width = 0.42mm

M73 P0 R22
M73 Q0 S22
M201 X1000 Y1000 Z200 E5000 ; sets maximum accelerations, mm/sec^2
M203 X200 Y200 Z12 E120 ; sets maximum feedrates, mm/sec
M204 P1250 R1250 T1250 ; sets acceleration (P, T) and retract acceleration (R), mm/sec^2
M205 X8.00 Y8.00 Z0.40 E4.50 ; sets the jerk limits, mm/sec
M205 S0 T0 ; sets the minimum extruding and travel feed rate, mm/sec
M107
;TYPE:Custom
M862.3 P "MK3S" ; printer model check
M862.1 P0.4 ; nozzle diameter check
M115 U3.10.0 ; tell printer latest fw version
G90 ; use absolute coordinates
M83 ; extruder relative mode
M104 S215 ; set extruder temp
M140 S60 ; set bed temp
M190 S60 ; wait for bed temp
M109 S215 ; wait for extruder temp
G28 W ; home all without mesh bed level
G80 ; mesh bed leveling
G1 Z0.2 F720
G1 Y-3 F1000 ; go outside print area
G92 E0
G1 X60 E9 F1000 ; intro line
G1 X100 E12.5 F1000 ; intro line
G92 E0
M221 S95

; Don't change E values below. Excessive value can damage the printer.

M907 E538 ; set extruder motor current
G21 ; set units to millimeters
G90 ; use absolute coordinates
M83 ; use relative distances for extrusion
M900 K0.05 ; Filament gcode LA 1.5
M900 K30 ; Filament gcode LA 1.0
M107
;LAYER_CHANGE
;Z:0.2
;HEIGHT:0.2
;BEFORE_LAYER_CHANGE
G92 E0.0
;0.2


G1 E-.8 F2100
G1 Z.4 F720
;AFTER_LAYER_CHANGE
;0.2
G1 X107.639 Y96.312 F10800
G1 Z.2 F720
G1 E.8 F2100
M204 S800
;TYPE:Skirt/Brim
;WIDTH:0.42
G1 F1200
G1 X108.705 Y95.299 E.04612
G1 X110 Y94.975 E.04186
G1 X140 Y94.975 E.94063
G1 X141.417 Y95.368 E.04612
G1 X142.431 Y96.434 E.04612
G1 X142.754 Y97.729 E.04186
G1 X142.754 Y112.271 E.45593
G1 X142.361 Y113.688 E.04612
G1 X141.295 Y114.701 E.04612
G1 X140 Y115.025 E.04186
G1 X110 Y115.025 E.94063
G1 X108.583 Y114.632 E.04612
G1 X107.569 Y113.566 E.04612
G1 X107.246 Y112.271 E.04186
G1 X107.246 Y97.729 E.45593
G1 X107.623 Y96.37 E.04424
M204 S1000
G1 X107.997 Y96.482 F10800
M204 S800
G1 F1200
G1 X108.015 Y96.422 E.00195
G1 X109.06 Y95.546 E.04278
G1 X110 Y95.352 E.03008
G1 X140 Y95.352 E.94063
G1 X141.307 Y95.744 E.04278
M73 P1 R22
M73 Q1 S22
G1 X142.183 Y96.79 E.04278
G1 X142.377 Y97.729 E.03008
G1 X142.377 Y112.271 E.45593
G1 X141.985 Y113.578 E.04278
G1 X140.94 Y114.454 E.04278
G1 X140 Y114.648 E.03008
G1 X110 Y114.648 E.94063
G1 X108.693 Y114.256 E.04278
G1 X107.817 Y113.21 E.04278
G1 X107.623 Y112.271 E.03008
G1 X107.623 Y97.729 E.45593
G1 X107.979 Y96.539 E.03895
M204 S1000
; printing object CameraBase.stl id:0 copy 0
;WIPE_START
G1 F8640
G1 X108.015 Y96.422 E-.0282
G1 X109.06 Y95.546 E-.31505
G1 X110 Y95.352 E-.22155
G1 X110.845 Y95.352 E-.1952
;WIPE_END
G1 E-.04 F2100
G1 Z.6 F720
G1 X119.522 Y102.695 F10800
G1 Z.2 F720
G1 E.8 F2100
M204 S800
;TYPE:Support material
G1 F1200
G1 X119.382 Y102.695 E.00439
G1 X119.382 Y102.517 E.00558
G1 X119.522 Y102.517 E.00439
G1 X119.522 Y102.638 E.0038
M204 S1000
;WIPE_START
G1 F8640
G1 X119.522 Y102.517 E-.028
G1 X119.382 Y102.517 E-.03233
G1 X119.382 Y102.695 E-.04106
G1 X119.522 Y102.695 E-.03233
;WIPE_END
G1 E-.66629 F2100
G1 Z.6 F720
G1 X124.522 Y102.695 F10800
G1 Z.2 F720
G1 E.8 F2100
M204 S800
G1 F1200
G1 X124.382 Y102.695 E.00439
G1 X124.382 Y102.517 E.00558
G1 X124.522 Y102.517 E.00439
G1 X124.522 Y102.638 E.0038
M204 S1000
;WIPE_START
G1 F8640
G1 X124.522 Y102.517 E-.028
G1 X124.382 Y102.517 E-.03233
G1 X124.382 Y102.695 E-.04106
G1 X124.522 Y102.695 E-.03233
;WIPE_END
G1 E-.66629 F2100
G1 Z.6 F720
G1 X129.522 Y102.695 F10800
G1 Z.2 F720
G1 E.8 F2100
M204 S800
G1 F1200
G1 X129.382 Y102.695 E.00439
G1 X129.382 Y102.517 E.00558
G1 X129.522 Y102.517 E.00439
G1 X129.522 Y102.638 E.0038
M204 S1000
;WIPE_START
G1 F8640
G1 X129.522 Y102.517 E-.028
G1 X129.382 Y102.517 E-.03233
G1 X129.382 Y102.695 E-.04106
G1 X129.522 Y102.695 E-.03233
;WIPE_END
G1 E-.66629 F2100
G1 Z.6 F720
G1 X125.789 Y101.273 F10800
G1 Z.2 F720
G1 E.8 F2100
M204 S800
;TYPE:Perimeter
G1 F1200
G1 X125.789 Y103.962 E.08431
G1 X123.115 Y103.962 E.08385
G1 X123.115 Y101.25 E.08503
G1 X125.752 Y101.25 E.08268
M204 S1000
G1 X125.412 Y101.627 F10800
M204 S800
;TYPE:External perimeter
G1 F1200
G1 X125.412 Y103.585 E.06139
G1 X123.492 Y103.585 E.0602
G1 X123.492 Y101.627 E.06139
G1 X125.352 Y101.627 E.05832
M204 S1000
G1 X125.798 Y101.522 F10800
;WIPE_START
G1 F8640
G1 X125.412 Y103.585 E-.45228
G1 X124.079 Y103.585 E-.30772
;WIPE_END
G1 E-.04 F2100
G1 Z.6 F720
G1 X120.789 Y101.273 F10800
G1 Z.2 F720
G1 E.8 F2100
M204 S800
;TYPE:Perimeter
G1 F1200
G1 X120.789 Y103.962 E.08431
G1 X118.115 Y103.962 E.08385
G1 X118.115 Y101.25 E.08503
G1 X120.752 Y101.25 E.08268
M204 S1000
G1 X120.412 Y101.627 F10800
M204 S800
;TYPE:External perimeter
G1 F1200
G1 X120.412 Y103.585 E.06139
G1 X118.492 Y103.585 E.0602
G1 X118.492 Y101.627 E.06139
G1 X120.352 Y101.627 E.05832
M204 S1000
G1 X120.798 Y101.522 F10800
;WIPE_START
G1 F8640
G1 X120.412 Y103.585 E-.45228
G1 X119.079 Y103.585 E-.30772
;WIPE_END
G1 E-.04 F2100
G1 Z.6 F720
G1 X128.892 Y101.25 F10800
G1 Z.2 F720
G1 E.8 F2100
M204 S800
;TYPE:Perimeter
G1 F1200
G1 X130.789 Y101.25 E.05948
G1 X130.789 Y103.962 E.08503
G1 X128.115 Y103.962 E.08385
G1 X128.115 Y101.25 E.08503
G1 X128.832 Y101.25 E.02248
M204 S1000
G1 X128.492 Y101.627 F10800
M204 S800
;TYPE:External perimeter
G1 F1200
G1 X130.412 Y101.627 E.0602
G1 X130.412 Y103.585 E.06139
G1 X128.492 Y103.585 E.0602
G1 X128.492 Y101.687 E.0595
M204 S1000
G1 X128.389 Y101.24 F10800
;WIPE_START
G1 F8640
G1 X130.412 Y101.627 E-.44355
G1 X130.412 Y102.997 E-.31645
;WIPE_END
G1 E-.04 F2100
G1 Z.6 F720
G1 X139.213 Y98.916 F10800
G1 Z.2 F720
G1 E.8 F2100
M204 S800
;TYPE:Perimeter
G1 F1200
G1 X139.213 Y111.484 E.39403
G1 X110.787 Y111.484 E.89127
G1 X110.787 Y98.516 E.40657
G1 X139.213 Y98.516 E.89127
M73 Q2 S22
G1 X139.213 Y98.856 E.01066
M204 S1000
M73 P2 R22
G1 X139.59 Y98.139 F10800
M204 S800
;TYPE:External perimeter
G1 F1200
G1 X139.59 Y111.861 E.43022
G1 X110.41 Y111.861 E.91492
G1 X110.41 Y98.139 E.43022
G1 X139.53 Y98.139 E.91304
M204 S1000
G1 X139.443 Y98.511 F10800
;WIPE_START
G1 F8640
G1 X139.544 Y101.431 E-.76
;WIPE_END
G1 E-.04 F2100
G1 Z.6 F720
G1 X139.1 Y99.401 F10800
G1 Z.2 F720
G1 E.8 F2100
M204 S800
;TYPE:Solid infill
;WIDTH:0.424533
G1 F1200
G1 X138.498 Y98.799 E.02702
G1 X137.958 Y98.799 E.01712
G1 X138.93 Y99.771 E.04363
G1 X138.93 Y100.311 E.01712
G1 X137.418 Y98.799 E.06785
G1 X136.879 Y98.799 E.01712
G1 X138.93 Y100.851 E.09206
G1 X138.93 Y101.391 E.01712
G1 X136.339 Y98.799 E.11628
G1 X135.799 Y98.799 E.01712
G1 X138.93 Y101.93 E.1405
G1 X138.93 Y102.47 E.01712
G1 X135.26 Y98.799 E.16472
G1 X134.72 Y98.799 E.01712
G1 X138.93 Y103.01 E.18894
G1 X138.93 Y103.549 E.01712
G1 X134.18 Y98.799 E.21315
G1 X133.64 Y98.799 E.01712
G1 X138.93 Y104.089 E.23737
G1 X138.93 Y104.629 E.01712
M73 P2 R21
G1 X133.101 Y98.799 E.26159
G1 X132.561 Y98.799 E.01712
G1 X138.93 Y105.168 E.28581
M73 Q2 S21
G1 X138.93 Y105.708 E.01712
G1 X132.021 Y98.799 E.31003
G1 X131.482 Y98.799 E.01712
G1 X138.93 Y106.248 E.33424
G1 X138.93 Y106.787 E.01712
G1 X130.942 Y98.799 E.35846
G1 X130.402 Y98.799 E.01712
G1 X138.93 Y107.327 E.38268
G1 X138.93 Y107.867 E.01712
G1 X129.863 Y98.799 E.4069
G1 X129.323 Y98.799 E.01712
G1 X138.93 Y108.406 E.43112
G1 X138.93 Y108.946 E.01712
G1 X128.783 Y98.799 E.45534
G1 X128.244 Y98.799 E.01712
M73 P3 R21
M73 Q3 S21
G1 X130.411 Y100.967 E.09727
G1 X129.872 Y100.967 E.01712
G1 X127.704 Y98.799 E.09727
G1 X127.164 Y98.799 E.01712
G1 X129.332 Y100.967 E.09727
G1 X128.792 Y100.967 E.01712
G1 X126.625 Y98.799 E.09727
G1 X126.085 Y98.799 E.01712
G1 X128.253 Y100.967 E.09727
G1 X127.832 Y100.967 E.01335
G1 X127.832 Y101.086 E.00377
G1 X125.545 Y98.799 E.10261
G1 X125.006 Y98.799 E.01712
G1 X127.832 Y101.626 E.12683
G1 X127.832 Y102.165 E.01712
G1 X124.466 Y98.799 E.15105
G1 X123.926 Y98.799 E.01712
G1 X127.832 Y102.705 E.17526
G1 X127.832 Y103.245 E.01712
G1 X126.072 Y101.484 E.07899
G1 X126.072 Y100.967 E.01642
G1 X125.554 Y100.967 E.01642
G1 X123.387 Y98.799 E.09727
G1 X122.847 Y98.799 E.01712
G1 X125.014 Y100.967 E.09727
G1 X124.475 Y100.967 E.01712
G1 X122.307 Y98.799 E.09727
G1 X121.767 Y98.799 E.01712
G1 X123.935 Y100.967 E.09727
G1 X123.395 Y100.967 E.01712
G1 X121.228 Y98.799 E.09727
G1 X120.688 Y98.799 E.01712
G1 X122.856 Y100.967 E.09727
G1 X122.832 Y100.967 E.00076
G1 X122.832 Y101.483 E.01637
G1 X120.148 Y98.799 E.12042
G1 X119.609 Y98.799 E.01712
G1 X122.832 Y102.022 E.14464
G1 X122.832 Y102.562 E.01712
G1 X119.069 Y98.799 E.16885
G1 X118.529 Y98.799 E.01712
G1 X120.697 Y100.967 E.09727
G1 X121.072 Y100.967 E.01189
G1 X121.072 Y101.341 E.01189
G1 X122.832 Y103.102 E.07899
G1 X122.832 Y103.641 E.01712
G1 X120.902 Y101.711 E.0866
M204 S1000
G1 X120.327 Y101.137 F10800
M204 S800
G1 F1200
G1 X117.99 Y98.799 E.10489
G1 X117.45 Y98.799 E.01712
G1 X119.618 Y100.967 E.09727
G1 X119.078 Y100.967 E.01712
G1 X116.91 Y98.799 E.09727
G1 X116.371 Y98.799 E.01712
G1 X118.538 Y100.967 E.09727
G1 X117.999 Y100.967 E.01712
G1 X115.831 Y98.799 E.09727
G1 X115.291 Y98.799 E.01712
G1 X117.832 Y101.34 E.11401
G1 X117.832 Y101.879 E.01712
G1 X114.752 Y98.799 E.13822
G1 X114.212 Y98.799 E.01712
G1 X117.832 Y102.419 E.16244
G1 X117.832 Y102.959 E.01712
G1 X113.672 Y98.799 E.18666
G1 X113.133 Y98.799 E.01712
G1 X118.002 Y103.668 E.21849
M204 S1000
;WIPE_START
G1 F8640
G1 X115.674 Y101.341 E-.76
;WIPE_END
G1 E-.04 F2100
G1 Z.6 F720
G1 X130.902 Y101.458 F10800
G1 Z.2 F720
G1 E.8 F2100
M204 S800
G1 F1200
G1 X138.93 Y109.486 E.36026
G1 X138.93 Y110.025 E.01712
G1 X131.072 Y102.167 E.35265
G1 X131.072 Y102.707 E.01712
G1 X138.93 Y110.565 E.35265
G1 X138.93 Y111.105 E.01712
G1 X131.072 Y103.246 E.35265
G1 X131.072 Y103.786 E.01712
G1 X138.486 Y111.201 E.33274
G1 X137.947 Y111.201 E.01712
G1 X130.99 Y104.244 E.31216
G1 X130.451 Y104.244 E.01712
G1 X137.407 Y111.201 E.31216
G1 X136.867 Y111.201 E.01712
G1 X129.911 Y104.244 E.31216
G1 X129.371 Y104.244 E.01712
G1 X136.328 Y111.201 E.31216
G1 X135.788 Y111.201 E.01712
G1 X128.662 Y104.075 E.31978
M204 S1000
;WIPE_START
M73 Q4 S21
G1 F8640
M73 P4 R21
G1 X130.989 Y106.402 E-.76
;WIPE_END
G1 E-.04 F2100
G1 Z.6 F720
G1 X125.902 Y101.854 F10800
G1 Z.2 F720
G1 E.8 F2100
M204 S800
G1 F1200
G1 X127.832 Y103.784 E.0866
G1 X127.832 Y104.244 E.0146
G1 X128.292 Y104.244 E.0146
G1 X135.248 Y111.201 E.31216
G1 X134.709 Y111.201 E.01712
G1 X126.072 Y102.564 E.38758
G1 X126.072 Y103.103 E.01712
G1 X134.169 Y111.201 E.36337
G1 X133.629 Y111.201 E.01712
G1 X126.072 Y103.643 E.33915
G1 X126.072 Y104.183 E.01712
G1 X133.09 Y111.201 E.31493
G1 X132.55 Y111.201 E.01712
G1 X125.594 Y104.244 E.31216
G1 X125.054 Y104.244 E.01712
G1 X132.01 Y111.201 E.31216
G1 X131.471 Y111.201 E.01712
G1 X124.514 Y104.244 E.31216
G1 X123.975 Y104.244 E.01712
G1 X130.931 Y111.201 E.31216
G1 X130.391 Y111.201 E.01712
G1 X123.265 Y104.075 E.31978
M204 S1000
;WIPE_START
G1 F8640
G1 X125.593 Y106.402 E-.76
;WIPE_END
G1 E-.04 F2100
G1 Z.6 F720
G1 X120.902 Y102.251 F10800
G1 Z.2 F720
G1 E.8 F2100
M204 S800
G1 F1200
G1 X129.851 Y111.201 E.40161
G1 X129.312 Y111.201 E.01712
G1 X121.072 Y102.961 E.36978
G1 X121.072 Y103.5 E.01712
G1 X128.772 Y111.201 E.34556
G1 X128.232 Y111.201 E.01712
G1 X121.072 Y104.04 E.32134
G1 X121.072 Y104.244 E.00649
G1 X120.736 Y104.244 E.01063
G1 X127.693 Y111.201 E.31216
G1 X127.153 Y111.201 E.01712
G1 X120.197 Y104.244 E.31216
G1 X119.657 Y104.244 E.01712
G1 X126.613 Y111.201 E.31216
G1 X126.074 Y111.201 E.01712
G1 X119.117 Y104.244 E.31216
G1 X118.578 Y104.244 E.01712
G1 X125.534 Y111.201 E.31216
G1 X124.994 Y111.201 E.01712
G1 X112.593 Y98.799 E.55651
G1 X112.053 Y98.799 E.01712
G1 X124.455 Y111.201 E.55651
G1 X123.915 Y111.201 E.01712
M73 P5 R21
M73 Q5 S21
G1 X111.513 Y98.799 E.55651
G1 X111.07 Y98.799 E.01408
G1 X111.07 Y98.895 E.00305
G1 X123.375 Y111.201 E.5522
G1 X122.836 Y111.201 E.01712
G1 X111.07 Y99.435 E.52798
G1 X111.07 Y99.975 E.01712
G1 X122.296 Y111.201 E.50377
G1 X121.756 Y111.201 E.01712
G1 X111.07 Y100.514 E.47955
G1 X111.07 Y101.054 E.01712
G1 X121.217 Y111.201 E.45533
G1 X120.677 Y111.201 E.01712
G1 X111.07 Y101.594 E.43111
G1 X111.07 Y102.133 E.01712
G1 X120.137 Y111.201 E.40689
G1 X119.598 Y111.201 E.01712
G1 X111.07 Y102.673 E.38268
G1 X111.07 Y103.213 E.01712
G1 X119.058 Y111.201 E.35846
G1 X118.518 Y111.201 E.01712
G1 X111.07 Y103.752 E.33424
G1 X111.07 Y104.292 E.01712
G1 X117.978 Y111.201 E.31002
G1 X117.439 Y111.201 E.01712
G1 X111.07 Y104.832 E.2858
G1 X111.07 Y105.372 E.01712
G1 X116.899 Y111.201 E.26158
G1 X116.359 Y111.201 E.01712
G1 X111.07 Y105.911 E.23737
G1 X111.07 Y106.451 E.01712
G1 X115.82 Y111.201 E.21315
G1 X115.28 Y111.201 E.01712
G1 X111.07 Y106.991 E.18893
G1 X111.07 Y107.53 E.01712
G1 X114.74 Y111.201 E.16471
G1 X114.201 Y111.201 E.01712
G1 X111.07 Y108.07 E.14049
G1 X111.07 Y108.61 E.01712
G1 X113.661 Y111.201 E.11628
G1 X113.121 Y111.201 E.01712
G1 X111.07 Y109.149 E.09206
G1 X111.07 Y109.689 E.01712
G1 X112.582 Y111.201 E.06784
G1 X112.042 Y111.201 E.01712
G1 X111.07 Y110.229 E.04362
G1 X111.07 Y110.768 E.01712
G1 X111.672 Y111.37 E.02702
M204 S1000
; stop printing object CameraBase.stl id:0 copy 0
M106 S84.15
;LAYER_CHANGE
;Z:0.35
;HEIGHT:0.15
;BEFORE_LAYER_CHANGE
G92 E0.0
;0.35


;WIPE_START
G1 F8640
G1 X111.07 Y110.768 E-.19661
G1 X111.07 Y110.229 E-.12461
G1 X112.042 Y111.201 E-.31743
G1 X112.568 Y111.201 E-.12135
;WIPE_END
G1 E-.04 F2100
G1 Z.6 F720
;AFTER_LAYER_CHANGE
;0.35
G1 X112.568 Y115.025 F10800
G1 Z.35 F720
G1 E.8 F2100
;TYPE:Skirt/Brim
;WIDTH:0.42
G1 F3000
G1 X110 Y115.025 E.06209
G1 X108.583 Y114.632 E.03557
G1 X107.569 Y113.566 E.03557
G1 X107.246 Y112.271 E.03229
G1 X107.246 Y97.729 E.35168
G1 X107.639 Y96.312 E.03557
M73 Q6 S21
G1 X108.705 Y95.299 E.03557
G1 X110 Y94.975 E.03229
G1 X140 Y94.975 E.72555
G1 X141.417 Y95.368 E.03557
M73 P6 R21
G1 X142.431 Y96.434 E.03557
G1 X142.754 Y97.729 E.03229
G1 X142.754 Y112.271 E.35168
G1 X142.361 Y113.688 E.03557
G1 X141.295 Y114.701 E.03557
G1 X140 Y115.025 E.03229
G1 X112.628 Y115.025 E.662
G1 X112.628 Y114.648 F10800
G1 F3000
G1 X110 Y114.648 E.06355
G1 X108.693 Y114.256 E.033
G1 X107.817 Y113.21 E.033
G1 X107.623 Y112.271 E.02321
G1 X107.623 Y97.729 E.35168
G1 X108.015 Y96.422 E.033
G1 X109.06 Y95.546 E.033
G1 X110 Y95.352 E.02321
G1 X140 Y95.352 E.72555
G1 X141.307 Y95.744 E.033
G1 X142.183 Y96.79 E.033
G1 X142.377 Y97.729 E.02321
G1 X142.377 Y112.271 E.35168
G1 X141.985 Y113.578 E.033
G1 X140.94 Y114.454 E.033
G1 X140 Y114.648 E.02321
G1 X112.688 Y114.648 E.66055
; printing object CameraBase.stl id:0 copy 0
;WIPE_START
G1 F8640
G1 X110 Y114.648 E-.62055
G1 X109.421 Y114.474 E-.13945
;WIPE_END
G1 E-.04 F2100
G1 Z.75 F720
G1 X123.277 Y103.817 F10800
G1 Z.35 F720
G1 E.8 F2100
M204 S800
;TYPE:Perimeter
;WIDTH:0.45
G1 F1500
G1 X123.259 Y103.817 E.00046
G1 X123.259 Y101.394 E.06314
G1 X125.645 Y101.394 E.06216
G1 X125.645 Y103.817 E.06314
G1 X123.337 Y103.817 E.06013
M204 S1000
G1 X123.677 Y103.4 F10800
M204 S800
;TYPE:External perimeter
G1 F1500
G1 X123.677 Y101.812 E.04137
G1 X125.227 Y101.812 E.04039
G1 X125.227 Y103.4 E.04137
G1 X123.737 Y103.4 E.03882
M204 S1000
G1 X123.291 Y103.505 F10800
;WIPE_START
G1 F8640
G1 X123.677 Y101.812 E-.36689
G1 X125.227 Y101.812 E-.3579
G1 X125.227 Y101.964 E-.03521
;WIPE_END
G1 E-.04 F2100
G1 Z.75 F720
G1 X120.645 Y103.8 F10800
G1 Z.35 F720
G1 E.8 F2100
M204 S800
;TYPE:Perimeter
G1 F1500
G1 X120.645 Y103.817 E.00046
G1 X118.259 Y103.817 E.06216
G1 X118.259 Y101.394 E.06314
G1 X120.645 Y101.394 E.06216
G1 X120.645 Y103.74 E.06112
M204 S1000
G1 X120.227 Y103.4 F10800
M204 S800
;TYPE:External perimeter
G1 F1500
G1 X118.677 Y103.4 E.04039
G1 X118.677 Y101.812 E.04137
G1 X120.227 Y101.812 E.04039
G1 X120.227 Y103.34 E.03981
M204 S1000
G1 X120.329 Y103.786 F10800
;WIPE_START
G1 F8640
G1 X118.677 Y103.4 E-.35817
G1 X118.677 Y101.812 E-.36663
