; generated by PrusaSlicer 2.4.0+win64 on 2022-01-09 at 16:07:39 UTC

; 

; external perimeters extrusion width = 0.45mm
; perimeters extrusion width = 0.45mm
; infill extrusion width = 0.45mm
; solid infill extrusion width = 0.45mm
; top infill extrusion width = 0.40mm
; support material extrusion width = 0.35mm
; first layer extrusion width = 0.42mm

M73 P0 R47
M73 Q0 S47
M201 X1000 Y1000 Z200 E5000 ; sets maximum accelerations, mm/sec^2
M203 X200 Y200 Z12 E120 ; sets maximum feedrates, mm/sec
M204 P1250 R1250 T1250 ; sets acceleration (P, T) and retract acceleration (R), mm/sec^2
M205 X8.00 Y8.00 Z0.40 E4.50 ; sets the jerk limits, mm/sec
M205 S0 T0 ; sets the minimum extruding and travel feed rate, mm/sec
M107
;TYPE:Custom
M862.3 P "MK3S" ; printer model check
M862.1 P0.4 ; nozzle diameter check
M115 U3.10.0 ; tell printer latest fw version
G90 ; use absolute coordinates
M83 ; extruder relative mode
M104 S215 ; set extruder temp
M140 S60 ; set bed temp
M190 S60 ; wait for bed temp
M109 S215 ; wait for extruder temp
G28 W ; home all without mesh bed level
G80 ; mesh bed leveling
G1 Z0.2 F720
G1 Y-3 F1000 ; go outside print area
G92 E0
G1 X60 E9 F1000 ; intro line
G1 X100 E12.5 F1000 ; intro line
G92 E0
M221 S95

; Don't change E values below. Excessive value can damage the printer.

M907 E538 ; set extruder motor current
G21 ; set units to millimeters
G90 ; use absolute coordinates
M83 ; use relative distances for extrusion
M900 K0.05 ; Filament gcode LA 1.5
M900 K30 ; Filament gcode LA 1.0
M107
;LAYER_CHANGE
;Z:0.2
;HEIGHT:0.2
;BEFORE_LAYER_CHANGE
G92 E0.0
;0.2


G1 E-.8 F2100
G1 Z.4 F720
;AFTER_LAYER_CHANGE
;0.2
G1 X108.015 Y88.693 F10800
G1 Z.2 F720
G1 E.8 F2100
M204 S800
;TYPE:Skirt/Brim
;WIDTH:0.42
G1 F1200
G1 X109.06 Y87.817 E.04278
G1 X110 Y87.623 E.03008
G1 X140 Y87.623 E.94063
G1 X141.307 Y88.015 E.04278
G1 X142.183 Y89.06 E.04278
G1 X142.377 Y90 E.03008
G1 X142.377 Y120 E.94063
G1 X141.985 Y121.307 E.04278
G1 X140.94 Y122.183 E.04278
G1 X140 Y122.377 E.03008
G1 X110 Y122.377 E.94063
G1 X108.693 Y121.985 E.04278
G1 X107.817 Y120.94 E.04278
G1 X107.623 Y120 E.03008
G1 X107.623 Y90 E.94063
G1 X107.997 Y88.75 E.0409
M204 S1000
; printing object camera-holder.stl id:0 copy 0
;WIPE_START
G1 F8640
G1 X109.06 Y87.817 E-.32671
G1 X110 Y87.623 E-.22155
G1 X110.917 Y87.623 E-.21174
;WIPE_END
G1 E-.04 F2100
G1 Z.6 F720
G1 X119.529 Y110.333 F10800
G1 Z.2 F720
G1 E.8 F2100
M204 S800
;TYPE:Support material
G1 F1200
G1 X119.371 Y110.333 E.00498
G1 X119.371 Y110.193 E.00439
G1 X119.529 Y110.193 E.00498
G1 X119.529 Y110.277 E.00262
M204 S1000
;WIPE_START
G1 F8640
G1 X119.529 Y110.193 E-.01927
G1 X119.371 Y110.193 E-.03667
G1 X119.371 Y110.333 E-.03233
G1 X119.529 Y110.333 E-.03667
;WIPE_END
G1 E-.67507 F2100
G1 Z.6 F720
G1 X124.52 Y110.343 F10800
G1 Z.2 F720
G1 E.8 F2100
M204 S800
G1 F1200
G1 X124.38 Y110.343 E.00439
G1 X124.38 Y110.183 E.00503
G1 X124.52 Y110.183 E.00439
G1 X124.52 Y110.287 E.00326
M204 S1000
;WIPE_START
G1 F8640
G1 X124.52 Y110.183 E-.02397
G1 X124.38 Y110.183 E-.03233
G1 X124.38 Y110.343 E-.03704
G1 X124.52 Y110.343 E-.03233
;WIPE_END
G1 E-.67433 F2100
G1 Z.6 F720
G1 X129.52 Y110.343 F10800
G1 Z.2 F720
G1 E.8 F2100
M204 S800
G1 F1200
G1 X129.38 Y110.343 E.00439
G1 X129.38 Y110.183 E.00503
G1 X129.52 Y110.183 E.00439
G1 X129.52 Y110.287 E.00326
M204 S1000
;WIPE_START
G1 F8640
G1 X129.52 Y110.183 E-.02397
G1 X129.38 Y110.183 E-.03233
G1 X129.38 Y110.343 E-.03704
G1 X129.52 Y110.343 E-.03233
;WIPE_END
G1 E-.67433 F2100
G1 Z.6 F720
G1 X125.787 Y108.939 F10800
G1 Z.2 F720
G1 E.8 F2100
M204 S800
;TYPE:Perimeter
G1 F1200
G1 X125.787 Y111.61 E.08377
G1 X123.113 Y111.61 E.08385
G1 X123.113 Y108.916 E.08449
G1 X125.75 Y108.916 E.08268
M204 S1000
G1 X125.41 Y109.293 F10800
M204 S800
;TYPE:External perimeter
G1 F1200
G1 X125.41 Y111.233 E.06084
G1 X123.49 Y111.233 E.0602
G1 X123.49 Y109.293 E.06084
G1 X125.35 Y109.293 E.05832
M204 S1000
G1 X125.796 Y109.189 F10800
;WIPE_START
G1 F8640
G1 X125.41 Y111.233 E-.44826
G1 X124.06 Y111.233 E-.31174
;WIPE_END
G1 E-.04 F2100
G1 Z.6 F720
G1 X128.89 Y108.916 F10800
G1 Z.2 F720
G1 E.8 F2100
M204 S800
;TYPE:Perimeter
G1 F1200
G1 X130.787 Y108.916 E.05948
G1 X130.787 Y111.61 E.08449
G1 X128.113 Y111.61 E.08385
G1 X128.113 Y108.916 E.08449
G1 X128.83 Y108.916 E.02248
M204 S1000
G1 X128.49 Y109.293 F10800
M204 S800
;TYPE:External perimeter
G1 F1200
G1 X130.41 Y109.293 E.0602
G1 X130.41 Y111.233 E.06084
G1 X128.49 Y111.233 E.0602
G1 X128.49 Y109.353 E.05896
M204 S1000
G1 X128.387 Y108.906 F10800
;WIPE_START
G1 F8640
G1 X130.41 Y109.293 E-.44355
G1 X130.41 Y110.663 E-.31645
;WIPE_END
G1 E-.04 F2100
G1 Z.6 F720
G1 X120.796 Y108.949 F10800
G1 Z.2 F720
G1 E.8 F2100
M204 S800
;TYPE:Perimeter
G1 F1200
G1 X120.796 Y111.6 E.08313
G1 X118.104 Y111.6 E.08444
G1 X118.104 Y108.926 E.08385
G1 X120.759 Y108.926 E.08327
M204 S1000
G1 X120.419 Y109.303 F10800
M204 S800
;TYPE:External perimeter
G1 F1200
G1 X120.419 Y111.223 E.0602
G1 X118.481 Y111.223 E.06079
G1 X118.481 Y109.303 E.0602
G1 X120.359 Y109.303 E.05891
M204 S1000
G1 X120.806 Y109.2 F10800
;WIPE_START
G1 F8640
G1 X120.419 Y111.223 E-.44355
G1 X119.049 Y111.223 E-.31645
;WIPE_END
G1 E-.04 F2100
G1 Z.6 F720
G1 X139.078 Y90.774 F10800
G1 Z.2 F720
G1 E.8 F2100
M204 S800
;TYPE:Perimeter
G1 F1200
G1 X139.213 Y90.776 E.00423
G1 X139.213 Y119.213 E.89161
G1 X110.787 Y119.213 E.89127
G1 X110.787 Y90.776 E.89161
G1 X111.325 Y90.748 E.01688
G1 X111.247 Y91.453 E.02224
G1 X111.213 Y92.474 E.03204
G1 X111.213 Y106.128 E.4281
G1 X138.79 Y106.128 E.86466
G1 X138.79 Y92.474 E.4281
G1 X138.756 Y91.453 E.03204
G1 X138.679 Y90.752 E.02209
G1 X139.018 Y90.773 E.01066
M204 S1000
G1 X138.292 Y90.689 F10800
M204 S800
;TYPE:External perimeter
G1 F1200
G1 X138.38 Y91.48 E.02495
G1 X138.413 Y92.48 E.03139
G1 X138.413 Y105.751 E.41609
G1 X111.59 Y105.751 E.84101
M73 P1 R47
M73 Q1 S47
G1 X111.59 Y92.48 E.41609
G1 X111.623 Y91.48 E.03139
G1 X111.71 Y90.689 E.02495
G1 X138.232 Y90.689 E.83158
M204 S1000
G1 X138.691 Y90.655 F10800
;WIPE_START
G1 F8640
G1 X138.38 Y91.48 E-.18578
G1 X138.413 Y92.48 E-.23115
G1 X138.413 Y93.966 E-.34307
;WIPE_END
G1 E-.04 F2100
G1 Z.6 F720
G1 X139.59 Y90.406 F10800
G1 Z.2 F720
G1 E.8 F2100
M204 S800
G1 F1200
G1 X139.59 Y119.59 E.91506
G1 X110.41 Y119.59 E.91492
G1 X110.41 Y90.406 E.91506
G1 X111.011 Y90.396 E.01884
G1 X112.009 Y90.311 E.03141
G1 X137.989 Y90.311 E.81461
G1 X138.991 Y90.395 E.03152
G1 X139.53 Y90.405 E.0169
M204 S1000
G1 X139.383 Y90.748 F10800
G1 X139.024 Y90.963
M204 S800
;TYPE:Gap fill
;WIDTH:0.165766
G1 F1200
G1 X138.963 Y91.022 E.00087
M204 S1000
M204 S800
;WIDTH:0.168566
G1 X138.962 Y91.023 E.00002
M204 S1000
M204 S800
;WIDTH:0.168566
G1 X138.984 Y91.435 E.0043
M204 S1000
M204 S800
;WIDTH:0.123252
G1 X138.984 Y91.438 E.00002
M204 S1000
M204 S800
;WIDTH:0.12303
G1 X139 Y92.371 E.00622
M204 S1000
;WIPE_START
G1 F8640
G1 X138.984 Y91.438 E-.21549
;WIPE_END
G1 E-.58451 F2100
G1 Z.6 F720
G1 X138.635 Y106.241 F10800
G1 Z.2 F720
G1 E.8 F2100
M204 S800
;TYPE:Solid infill
;WIDTH:0.423459
G1 F1200
G1 X138.93 Y106.536 E.01322
G1 X138.93 Y107.074 E.01703
G1 X138.266 Y106.41 E.02971
G1 X137.728 Y106.41 E.01703
G1 X138.93 Y107.612 E.05379
G1 X138.93 Y108.151 E.01703
G1 X137.19 Y106.41 E.07787
G1 X136.652 Y106.41 E.01703
G1 X138.93 Y108.689 E.10195
G1 X138.93 Y109.227 E.01703
G1 X136.114 Y106.41 E.12604
G1 X135.575 Y106.41 E.01703
G1 X138.93 Y109.765 E.15012
G1 X138.93 Y110.303 E.01703
G1 X135.037 Y106.41 E.1742
G1 X134.499 Y106.41 E.01703
G1 X138.93 Y110.841 E.19828
G1 X138.93 Y111.38 E.01703
G1 X133.961 Y106.41 E.22236
G1 X133.423 Y106.41 E.01703
G1 X138.93 Y111.918 E.24644
G1 X138.93 Y112.456 E.01703
G1 X132.885 Y106.41 E.27053
G1 X132.346 Y106.41 E.01703
G1 X138.93 Y112.994 E.29461
G1 X138.93 Y113.532 E.01703
G1 X131.808 Y106.41 E.31869
G1 X131.27 Y106.41 E.01703
G1 X138.93 Y114.07 E.34277
G1 X138.93 Y114.609 E.01703
G1 X130.732 Y106.41 E.36685
G1 X130.194 Y106.41 E.01703
G1 X138.93 Y115.147 E.39094
G1 X138.93 Y115.685 E.01703
M73 Q1 S46
G1 X129.656 Y106.41 E.41502
G1 X129.118 Y106.41 E.01703
G1 X138.93 Y116.223 E.4391
G1 X138.93 Y116.761 E.01703
G1 X128.579 Y106.41 E.46318
M73 P1 R46
G1 X128.041 Y106.41 E.01703
G1 X130.264 Y108.633 E.09946
G1 X129.726 Y108.633 E.01703
G1 X127.503 Y106.41 E.09946
G1 X126.965 Y106.41 E.01703
G1 X129.188 Y108.633 E.09946
G1 X128.649 Y108.633 E.01703
G1 X126.427 Y106.41 E.09946
G1 X125.889 Y106.41 E.01703
G1 X128.111 Y108.633 E.09946
G1 X127.83 Y108.633 E.0089
G1 X127.83 Y108.89 E.00813
G1 X125.35 Y106.41 E.11097
G1 X124.812 Y106.41 E.01703
G1 X127.83 Y109.428 E.13505
G1 X127.83 Y109.966 E.01703
G1 X124.274 Y106.41 E.15913
G1 X123.736 Y106.41 E.01703
G1 X127.83 Y110.505 E.18321
G1 X127.83 Y111.043 E.01703
G1 X125.9 Y109.113 E.08636
M204 S1000
G1 X125.59 Y108.803 F10800
M204 S800
G1 F1200
G1 X123.198 Y106.41 E.10706
G1 X122.66 Y106.41 E.01703
G1 X124.882 Y108.633 E.09946
G1 X124.344 Y108.633 E.01703
G1 X122.121 Y106.41 E.09946
G1 X121.583 Y106.41 E.01703
G1 X123.806 Y108.633 E.09946
G1 X123.268 Y108.633 E.01703
G1 X121.045 Y106.41 E.09946
G1 X120.507 Y106.41 E.01703
G1 X122.83 Y108.734 E.10396
G1 X122.83 Y109.272 E.01703
G1 X119.969 Y106.41 E.12804
G1 X119.431 Y106.41 E.01703
G1 X122.83 Y109.81 E.15213
G1 X122.83 Y110.348 E.01703
G1 X118.892 Y106.41 E.17621
G1 X118.354 Y106.41 E.01703
G1 X120.587 Y108.643 E.09992
G1 X121.079 Y108.643 E.01557
G1 X121.079 Y109.135 E.01557
G1 X123 Y111.056 E.08594
M204 S1000
;WIPE_START
G1 F8640
G1 X121.079 Y109.135 E-.62714
G1 X121.079 Y108.643 E-.11363
G1 X120.996 Y108.643 E-.01922
;WIPE_END
G1 E-.04 F2100
G1 Z.6 F720
G1 X120.219 Y108.813 F10800
G1 Z.2 F720
G1 E.8 F2100
M204 S800
G1 F1200
G1 X117.816 Y106.41 E.10751
G1 X117.278 Y106.41 E.01703
G1 X119.511 Y108.643 E.09992
G1 X118.973 Y108.643 E.01703
G1 X116.74 Y106.41 E.09992
G1 X116.202 Y106.41 E.01703
G1 X118.435 Y108.643 E.09992
G1 X117.896 Y108.643 E.01703
G1 X115.663 Y106.41 E.09992
G1 X115.125 Y106.41 E.01703
G1 X117.821 Y109.106 E.12062
G1 X117.821 Y109.644 E.01703
G1 X114.587 Y106.41 E.1447
G1 X114.049 Y106.41 E.01703
G1 X117.821 Y110.182 E.16878
G1 X117.821 Y110.72 E.01703
G1 X113.511 Y106.41 E.19286
G1 X112.973 Y106.41 E.01703
G1 X117.99 Y111.428 E.22454
M204 S1000
;WIPE_START
G1 F8640
G1 X115.663 Y109.101 E-.76
;WIPE_END
G1 E-.04 F2100
G1 Z.6 F720
G1 X130.9 Y109.269 F10800
G1 Z.2 F720
G1 E.8 F2100
M204 S800
G1 F1200
G1 X138.93 Y117.299 E.35933
G1 X138.93 Y117.838 E.01703
G1 X131.07 Y109.977 E.35173
G1 X131.07 Y110.515 E.01703
G1 X138.93 Y118.376 E.35173
G1 X138.93 Y118.914 E.01703
M73 Q2 S46
G1 X131.07 Y111.054 E.35173
G1 X131.07 Y111.592 E.01703
M73 P2 R46
G1 X138.408 Y118.93 E.32838
G1 X137.87 Y118.93 E.01703
G1 X130.833 Y111.893 E.31489
G1 X130.295 Y111.893 E.01703
G1 X137.332 Y118.93 E.31489
G1 X136.794 Y118.93 E.01703
G1 X129.757 Y111.893 E.31489
G1 X129.219 Y111.893 E.01703
G1 X136.256 Y118.93 E.31489
G1 X135.717 Y118.93 E.01703
G1 X128.511 Y111.724 E.32248
M204 S1000
;WIPE_START
G1 F8640
G1 X130.838 Y114.051 E-.76
;WIPE_END
G1 E-.04 F2100
G1 Z.6 F720
G1 X125.9 Y109.651 F10800
G1 Z.2 F720
G1 E.8 F2100
M204 S800
G1 F1200
G1 X135.179 Y118.93 E.41522
G1 X134.641 Y118.93 E.01703
G1 X126.07 Y110.359 E.38355
G1 X126.07 Y110.897 E.01703
G1 X134.103 Y118.93 E.35947
G1 X133.565 Y118.93 E.01703
G1 X126.07 Y111.435 E.33538
G1 X126.07 Y111.893 E.01449
G1 X125.99 Y111.893 E.00254
G1 X133.027 Y118.93 E.31489
G1 X132.488 Y118.93 E.01703
G1 X125.452 Y111.893 E.31489
G1 X124.913 Y111.893 E.01703
G1 X131.95 Y118.93 E.31489
G1 X131.412 Y118.93 E.01703
G1 X124.375 Y111.893 E.31489
G1 X123.837 Y111.893 E.01703
G1 X130.874 Y118.93 E.31489
G1 X130.336 Y118.93 E.01703
G1 X123.299 Y111.893 E.31489
G1 X122.83 Y111.893 E.01483
G1 X122.83 Y111.424 E.01483
G1 X121.079 Y109.674 E.07835
G1 X121.079 Y110.212 E.01703
G1 X129.798 Y118.93 E.39013
G1 X129.259 Y118.93 E.01703
G1 X121.079 Y110.75 E.36605
G1 X121.079 Y111.288 E.01703
G1 X128.721 Y118.93 E.34197
G1 X128.183 Y118.93 E.01703
G1 X121.079 Y111.826 E.31789
G1 X121.079 Y111.883 E.0018
G1 X120.598 Y111.883 E.01523
G1 X127.645 Y118.93 E.31534
G1 X127.107 Y118.93 E.01703
G1 X120.06 Y111.883 E.31534
G1 X119.522 Y111.883 E.01703
G1 X126.569 Y118.93 E.31534
G1 X126.03 Y118.93 E.01703
G1 X118.983 Y111.883 E.31534
G1 X118.445 Y111.883 E.01703
G1 X125.492 Y118.93 E.31534
G1 X124.954 Y118.93 E.01703
G1 X112.434 Y106.41 E.56024
G1 X111.896 Y106.41 E.01703
G1 X124.416 Y118.93 E.56024
G1 X123.878 Y118.93 E.01703
G1 X111.358 Y106.41 E.56024
G1 X111.07 Y106.41 E.00912
G1 X111.07 Y106.66 E.00791
G1 X123.34 Y118.93 E.54906
G1 X122.802 Y118.93 E.01703
G1 X111.07 Y107.198 E.52497
G1 X111.07 Y107.737 E.01703
G1 X122.263 Y118.93 E.50089
G1 X121.725 Y118.93 E.01703
G1 X111.07 Y108.275 E.47681
G1 X111.07 Y108.813 E.01703
G1 X121.187 Y118.93 E.45273
G1 X120.649 Y118.93 E.01703
G1 X111.07 Y109.351 E.42865
G1 X111.07 Y109.889 E.01703
G1 X120.111 Y118.93 E.40456
G1 X119.573 Y118.93 E.01703
G1 X111.07 Y110.427 E.38048
G1 X111.07 Y110.966 E.01703
G1 X119.034 Y118.93 E.3564
G1 X118.496 Y118.93 E.01703
G1 X111.07 Y111.504 E.33232
G1 X111.07 Y112.042 E.01703
G1 X117.958 Y118.93 E.30824
G1 X117.42 Y118.93 E.01703
G1 X111.07 Y112.58 E.28415
G1 X111.07 Y113.118 E.01703
G1 X116.882 Y118.93 E.26007
G1 X116.344 Y118.93 E.01703
G1 X111.07 Y113.656 E.23599
G1 X111.07 Y114.195 E.01703
G1 X115.805 Y118.93 E.21191
G1 X115.267 Y118.93 E.01703
G1 X111.07 Y114.733 E.18783
G1 X111.07 Y115.271 E.01703
G1 X114.729 Y118.93 E.16374
G1 X114.191 Y118.93 E.01703
M73 Q3 S46
G1 X111.07 Y115.809 E.13966
G1 X111.07 Y116.347 E.01703
G1 X113.653 Y118.93 E.11558
G1 X113.115 Y118.93 E.01703
M73 P3 R46
G1 X111.07 Y116.885 E.0915
G1 X111.07 Y117.424 E.01703
G1 X112.576 Y118.93 E.06742
G1 X112.038 Y118.93 E.01703
G1 X111.07 Y117.962 E.04333
G1 X111.07 Y118.5 E.01703
G1 X111.67 Y119.1 E.02684
M204 S1000
;WIPE_START
G1 F8640
G1 X111.07 Y118.5 E-.19589
G1 X111.07 Y117.962 E-.12426
G1 X112.038 Y118.93 E-.31622
G1 X112.574 Y118.93 E-.12363
;WIPE_END
G1 E-.04 F2100
G1 Z.6 F720
G1 X111 Y92.458 F10800
G1 Z.2 F720
G1 E.8 F2100
M204 S800
;TYPE:Gap fill
;WIDTH:0.125883
G1 F1200
G1 X111.017 Y91.438 E.00704
M204 S1000
M204 S800
;WIDTH:0.126113
G1 X111.017 Y91.435 E.00002
M204 S1000
M204 S800
;WIDTH:0.171232
G1 X111.04 Y91.025 E.00438
M204 S1000
M204 S800
;WIDTH:0.171232
G1 X111.04 Y91.025 E.00001
M204 S1000
M204 S800
;WIDTH:0.170466
G1 X111.112 Y90.957 E.00104
M204 S1000
; stop printing object camera-holder.stl id:0 copy 0
M106 S84.15
;LAYER_CHANGE
;Z:0.35
;HEIGHT:0.15
;BEFORE_LAYER_CHANGE
G92 E0.0
;0.35


;WIPE_START
G1 F8640
G1 X111.04 Y91.025 E-.02271
;WIPE_END
G1 E-.77729 F2100
G1 Z.6 F720
;AFTER_LAYER_CHANGE
;0.35
G1 X111.04 Y87.623 F10800
G1 Z.35 F720
G1 E.8 F2100
;TYPE:Skirt/Brim
;WIDTH:0.42
G1 F3000
G1 X140 Y87.623 E.70039
G1 X141.307 Y88.015 E.033
G1 X142.183 Y89.06 E.033
G1 X142.377 Y90 E.02321
G1 X142.377 Y120 E.72555
G1 X141.985 Y121.307 E.033
G1 X140.94 Y122.183 E.033
G1 X140 Y122.377 E.02321
G1 X110 Y122.377 E.72555
G1 X108.693 Y121.985 E.033
G1 X107.817 Y120.94 E.033
G1 X107.623 Y120 E.02321
G1 X107.623 Y90 E.72555
G1 X108.015 Y88.693 E.033
G1 X109.06 Y87.817 E.033
G1 X110 Y87.623 E.02321
G1 X110.98 Y87.623 E.0237
; printing object camera-holder.stl id:0 copy 0
;WIPE_START
G1 F8640
G1 X114.272 Y87.623 E-.76
;WIPE_END
G1 E-.04 F2100
G1 Z.75 F720
G1 X124.075 Y109.06 F10800
G1 Z.35 F720
G1 E.8 F2100
M204 S800
;TYPE:Perimeter
;WIDTH:0.45
G1 F1500
G1 X125.643 Y109.06 E.04085
G1 X125.643 Y111.466 E.06269
G1 X123.257 Y111.466 E.06216
G1 X123.257 Y109.06 E.06269
G1 X124.015 Y109.06 E.01975
M204 S1000
G1 X123.675 Y109.478 F10800
M204 S800
;TYPE:External perimeter
G1 F1500
G1 X125.225 Y109.478 E.04039
G1 X125.225 Y111.048 E.04092
G1 X123.675 Y111.048 E.04039
G1 X123.675 Y109.538 E.03935
M204 S1000
G1 X123.572 Y109.091 F10800
;WIPE_START
G1 F8640
G1 X125.225 Y109.478 E-.35817
G1 X125.225 Y111.048 E-.36261
G1 X125.055 Y111.048 E-.03922
;WIPE_END
G1 E-.04 F2100
G1 Z.75 F720
G1 X129.075 Y109.06 F10800
G1 Z.35 F720
G1 E.8 F2100
M204 S800
;TYPE:Perimeter
G1 F1500
G1 X130.643 Y109.06 E.04085
G1 X130.643 Y111.466 E.06269
