; generated by PrusaSlicer 2.3.3+win64 on 2021-11-23 at 13:46:46 UTC

; 

; external perimeters extrusion width = 0.45mm
; perimeters extrusion width = 0.45mm
; infill extrusion width = 0.45mm
; solid infill extrusion width = 0.45mm
; top infill extrusion width = 0.40mm
; first layer extrusion width = 0.42mm

M73 P0 R77
M73 Q0 S77
M201 X1000 Y1000 Z200 E5000 ; sets maximum accelerations, mm/sec^2
M203 X200 Y200 Z12 E120 ; sets maximum feedrates, mm/sec
M204 P1250 R1250 T1250 ; sets acceleration (P, T) and retract acceleration (R), mm/sec^2
M205 X8.00 Y8.00 Z0.40 E4.50 ; sets the jerk limits, mm/sec
M205 S0 T0 ; sets the minimum extruding and travel feed rate, mm/sec
M107
;TYPE:Custom
M862.3 P "MK3S" ; printer model check
M862.1 P0.4 ; nozzle diameter check
M115 U3.10.0 ; tell printer latest fw version
G90 ; use absolute coordinates
M83 ; extruder relative mode
M104 S215 ; set extruder temp
M140 S60 ; set bed temp
M190 S60 ; wait for bed temp
M109 S215 ; wait for extruder temp
G28 W ; home all without mesh bed level
G80 ; mesh bed leveling
G1 Y-3.0 F1000.0 ; go outside print area
G92 E0.0
G1 X60.0 E9.0 F1000.0 ; intro line
G1 X100.0 E12.5 F1000.0 ; intro line
G92 E0.0
M221 S95

; Don't change E values below. Excessive value can damage the printer.
M907 E430 ; set extruder motor current
G21 ; set units to millimeters
G90 ; use absolute coordinates
M83 ; use relative distances for extrusion
M900 K0.05 ; Filament gcode LA 1.5
M900 K30 ; Filament gcode LA 1.0
;LAYER_CHANGE
;Z:0.2
;HEIGHT:0.2
;BEFORE_LAYER_CHANGE
G92 E0.0
;0.2


G1 E-0.80000 F2100.000
G1 Z0.400 F10800.000
;AFTER_LAYER_CHANGE
;0.2
G1 X76.319 Y80.828
G1 Z0.200
G1 E0.80000 F2100.000
M204 S1000
;TYPE:Skirt
;WIDTH:0.42
G1 F1200.000
G1 X76.849 Y80.465 E0.02012
G1 X77.363 Y80.278 E0.01716
G1 X77.910 Y80.213 E0.01728
G1 X172.089 Y80.213 E2.95291
G1 X172.987 Y80.391 E0.02872
G1 X173.749 Y80.893 E0.02860
G1 X174.266 Y81.644 E0.02860
G1 X174.462 Y82.539 E0.02872
G1 X174.461 Y127.479 E1.40905
G1 X174.357 Y128.108 E0.02000
G1 X174.090 Y128.687 E0.02000
G1 X173.678 Y129.175 E0.02000
G1 X173.151 Y129.535 E0.02000
G1 X172.637 Y129.722 E0.01716
G1 X172.090 Y129.787 E0.01728
G1 X77.888 Y129.787 E2.95362
G1 X77.246 Y129.691 E0.02036
G1 X76.654 Y129.425 E0.02036
G1 X76.158 Y129.012 E0.02024
G1 X75.790 Y128.476 E0.02036
G1 X75.603 Y127.962 E0.01716
G1 X75.538 Y127.423 E0.01704
G1 X75.539 Y82.537 E1.40737
M73 P0 R76
G1 X75.639 Y81.903 E0.02012
G1 X75.906 Y81.319 E0.02012
G1 X76.281 Y80.874 E0.01824
; printing object cap.stl id:0 copy 0
;WIPE_START
G1 F8640.000
G1 X76.849 Y80.465 E-0.16158
G1 X77.363 Y80.278 E-0.12637
G1 X77.910 Y80.213 E-0.12724
G1 X79.403 Y80.213 E-0.34481
;WIPE_END
G1 E-0.04000 F2100.000
G1 Z0.600 F10800.000
G1 X78.702 Y83.377
G1 Z0.200
G1 E0.80000 F2100.000
;TYPE:Perimeter
G1 F1200.000
G1 X171.298 Y83.377 E2.90328
G1 X171.298 Y126.623 E1.35595
G1 X78.702 Y126.623 E2.90328
G1 X78.702 Y83.437 E1.35407
G1 X78.325 Y83.000 F10800.000
;TYPE:External perimeter
G1 F1200.000
G1 X171.675 Y83.000 E2.92692
G1 X171.675 Y127.000 E1.37960
G1 X78.325 Y127.000 E2.92692
M73 P1 R76
M73 Q1 S76
G1 X78.325 Y83.060 E1.37772
G1 X78.721 Y83.058 F10800.000
;WIPE_START
G1 F8640.000
G1 X81.616 Y83.058 E-0.76000
;WIPE_END
G1 E-0.04000 F2100.000
G1 Z0.600 F10800.000
G1 X170.422 Y83.490
G1 Z0.200
G1 E0.80000 F2100.000
;TYPE:Solid infill
;WIDTH:0.420038
G1 F1200.000
G1 X171.015 Y84.083 E0.02628
G1 X171.015 Y84.616 E0.01672
G1 X170.059 Y83.660 E0.04241
G1 X169.525 Y83.660 E0.01672
G1 X171.015 Y85.149 E0.06606
G1 X171.015 Y85.683 E0.01672
G1 X168.992 Y83.660 E0.08971
G1 X168.459 Y83.660 E0.01672
G1 X171.015 Y86.216 E0.11336
G1 X171.015 Y86.749 E0.01672
G1 X167.926 Y83.660 E0.13701
G1 X167.392 Y83.660 E0.01672
G1 X171.015 Y87.283 E0.16066
G1 X171.015 Y87.816 E0.01672
G1 X166.859 Y83.660 E0.18431
G1 X166.326 Y83.660 E0.01672
G1 X171.015 Y88.349 E0.20797
G1 X171.015 Y88.883 E0.01672
G1 X165.792 Y83.660 E0.23162
G1 X165.259 Y83.660 E0.01672
G1 X171.015 Y89.416 E0.25527
G1 X171.015 Y89.949 E0.01672
G1 X164.726 Y83.660 E0.27892
G1 X164.192 Y83.660 E0.01672
G1 X171.015 Y90.483 E0.30257
G1 X171.015 Y91.016 E0.01672
G1 X163.659 Y83.660 E0.32622
G1 X163.126 Y83.660 E0.01672
G1 X171.015 Y91.549 E0.34987
G1 X171.015 Y92.083 E0.01672
G1 X162.592 Y83.660 E0.37352
G1 X162.059 Y83.660 E0.01672
G1 X171.015 Y92.616 E0.39717
G1 X171.015 Y93.149 E0.01672
G1 X161.526 Y83.660 E0.42082
G1 X160.992 Y83.660 E0.01672
G1 X171.015 Y93.683 E0.44447
G1 X171.015 Y94.216 E0.01672
G1 X160.459 Y83.660 E0.46813
G1 X159.926 Y83.660 E0.01672
G1 X171.015 Y94.749 E0.49178
G1 X171.015 Y95.283 E0.01672
G1 X159.392 Y83.660 E0.51543
G1 X158.859 Y83.660 E0.01672
G1 X171.015 Y95.816 E0.53908
G1 X171.015 Y96.349 E0.01672
G1 X158.326 Y83.660 E0.56273
G1 X157.792 Y83.660 E0.01672
G1 X171.015 Y96.883 E0.58638
G1 X171.015 Y97.416 E0.01672
G1 X157.259 Y83.660 E0.61003
G1 X156.726 Y83.660 E0.01672
G1 X171.015 Y97.949 E0.63368
G1 X171.015 Y98.482 E0.01672
G1 X156.192 Y83.660 E0.65733
G1 X155.659 Y83.660 E0.01672
G1 X171.015 Y99.016 E0.68098
G1 X171.015 Y99.549 E0.01672
G1 X155.126 Y83.660 E0.70464
G1 X154.592 Y83.660 E0.01672
G1 X171.015 Y100.082 E0.72829
G1 X171.015 Y100.616 E0.01672
G1 X154.059 Y83.660 E0.75194
G1 X153.526 Y83.660 E0.01672
G1 X171.015 Y101.149 E0.77559
G1 X171.015 Y101.682 E0.01672
G1 X152.992 Y83.660 E0.79924
G1 X152.459 Y83.660 E0.01672
G1 X171.015 Y102.216 E0.82289
G1 X171.015 Y102.749 E0.01672
G1 X151.926 Y83.660 E0.84654
G1 X151.392 Y83.660 E0.01672
G1 X171.015 Y103.282 E0.87019
G1 X171.015 Y103.816 E0.01672
G1 X150.859 Y83.660 E0.89384
G1 X150.326 Y83.660 E0.01672
G1 X171.015 Y104.349 E0.91749
M73 P1 R75
G1 X171.015 Y104.882 E0.01672
G1 X149.792 Y83.660 E0.94114
G1 X149.259 Y83.660 E0.01672
G1 X171.015 Y105.416 E0.96480
G1 X171.015 Y105.949 E0.01672
G1 X148.726 Y83.660 E0.98845
G1 X148.192 Y83.660 E0.01672
G1 X171.015 Y106.482 E1.01210
G1 X171.015 Y107.016 E0.01672
G1 X147.659 Y83.660 E1.03575
G1 X147.126 Y83.660 E0.01672
G1 X171.015 Y107.549 E1.05940
G1 X171.015 Y108.082 E0.01672
G1 X146.592 Y83.660 E1.08305
M73 P2 R75
M73 Q2 S76
G1 X146.059 Y83.660 E0.01672
G1 X171.015 Y108.616 E1.10670
G1 X171.015 Y109.149 E0.01672
G1 X145.526 Y83.660 E1.13035
G1 X144.993 Y83.660 E0.01672
G1 X171.015 Y109.682 E1.15400
G1 X171.015 Y110.216 E0.01672
G1 X144.459 Y83.660 E1.17765
G1 X143.926 Y83.660 E0.01672
G1 X171.015 Y110.749 E1.20130
G1 X171.015 Y111.282 E0.01672
G1 X143.393 Y83.660 E1.22496
G1 X142.859 Y83.660 E0.01672
G1 X171.015 Y111.816 E1.24861
G1 X171.015 Y112.349 E0.01672
G1 X142.326 Y83.660 E1.27226
M73 Q2 S75
G1 X141.793 Y83.660 E0.01672
G1 X171.015 Y112.882 E1.29591
G1 X171.015 Y113.416 E0.01672
G1 X141.259 Y83.660 E1.31956
G1 X140.726 Y83.660 E0.01672
G1 X171.015 Y113.949 E1.34321
G1 X171.015 Y114.482 E0.01672
G1 X140.193 Y83.660 E1.36686
G1 X139.659 Y83.660 E0.01672
G1 X171.015 Y115.016 E1.39051
G1 X171.015 Y115.549 E0.01672
G1 X139.126 Y83.660 E1.41416
G1 X138.593 Y83.660 E0.01672
G1 X171.015 Y116.082 E1.43781
G1 X171.015 Y116.616 E0.01672
G1 X138.059 Y83.660 E1.46147
G1 X137.526 Y83.660 E0.01672
G1 X171.015 Y117.149 E1.48512
G1 X171.015 Y117.682 E0.01672
G1 X136.993 Y83.660 E1.50877
G1 X136.459 Y83.660 E0.01672
G1 X171.015 Y118.216 E1.53242
G1 X171.015 Y118.749 E0.01672
G1 X135.926 Y83.660 E1.55607
G1 X135.393 Y83.660 E0.01672
G1 X171.015 Y119.282 E1.57972
M73 P3 R75
G1 X171.015 Y119.816 E0.01672
G1 X134.859 Y83.660 E1.60337
M73 P3 R74
M73 Q3 S75
G1 X134.326 Y83.660 E0.01672
G1 X171.015 Y120.349 E1.62702
G1 X171.015 Y120.882 E0.01672
G1 X133.793 Y83.660 E1.65067
G1 X133.259 Y83.660 E0.01672
G1 X171.015 Y121.415 E1.67432
G1 X171.015 Y121.949 E0.01672
G1 X132.726 Y83.660 E1.69797
G1 X132.193 Y83.660 E0.01672
G1 X171.015 Y122.482 E1.72163
G1 X171.015 Y123.015 E0.01672
G1 X131.659 Y83.660 E1.74528
G1 X131.126 Y83.660 E0.01672
G1 X171.015 Y123.549 E1.76893
G1 X171.015 Y124.082 E0.01672
G1 X130.593 Y83.660 E1.79258
G1 X130.059 Y83.660 E0.01672
G1 X171.015 Y124.615 E1.81623
G1 X171.015 Y125.149 E0.01672
G1 X129.526 Y83.660 E1.83988
M73 Q3 S74
G1 X128.993 Y83.660 E0.01672
G1 X171.015 Y125.682 E1.86353
G1 X171.015 Y126.215 E0.01672
G1 X128.459 Y83.660 E1.88718
G1 X127.926 Y83.660 E0.01672
G1 X170.607 Y126.340 E1.89272
G1 X170.073 Y126.340 E0.01672
G1 X127.393 Y83.660 E1.89272
G1 X126.859 Y83.660 E0.01672
G1 X169.540 Y126.340 E1.89272
G1 X169.007 Y126.340 E0.01672
G1 X126.326 Y83.660 E1.89272
M73 P4 R74
M73 Q4 S74
G1 X125.793 Y83.660 E0.01672
G1 X168.473 Y126.340 E1.89272
G1 X167.940 Y126.340 E0.01672
G1 X125.259 Y83.660 E1.89272
G1 X124.726 Y83.660 E0.01672
G1 X167.407 Y126.340 E1.89272
G1 X166.873 Y126.340 E0.01672
G1 X124.193 Y83.660 E1.89272
G1 X123.659 Y83.660 E0.01672
G1 X166.340 Y126.340 E1.89272
M73 P4 R73
G1 X165.807 Y126.340 E0.01672
G1 X123.126 Y83.660 E1.89272
G1 X122.593 Y83.660 E0.01672
G1 X165.273 Y126.340 E1.89272
G1 X164.740 Y126.340 E0.01672
G1 X122.060 Y83.660 E1.89272
G1 X121.526 Y83.660 E0.01672
G1 X164.207 Y126.340 E1.89272
G1 X163.673 Y126.340 E0.01672
G1 X120.993 Y83.660 E1.89272
G1 X120.460 Y83.660 E0.01672
G1 X163.140 Y126.340 E1.89272
G1 X162.607 Y126.340 E0.01672
G1 X119.926 Y83.660 E1.89272
G1 X119.393 Y83.660 E0.01672
G1 X162.073 Y126.340 E1.89272
M73 Q4 S73
G1 X161.540 Y126.340 E0.01672
G1 X118.860 Y83.660 E1.89272
G1 X118.326 Y83.660 E0.01672
G1 X161.007 Y126.340 E1.89272
M73 P5 R73
M73 Q5 S73
G1 X160.473 Y126.340 E0.01672
G1 X117.793 Y83.660 E1.89272
G1 X117.260 Y83.660 E0.01672
G1 X159.940 Y126.340 E1.89272
G1 X159.407 Y126.340 E0.01672
G1 X116.726 Y83.660 E1.89272
G1 X116.193 Y83.660 E0.01672
G1 X158.874 Y126.340 E1.89272
G1 X158.340 Y126.340 E0.01672
G1 X115.660 Y83.660 E1.89272
G1 X115.126 Y83.660 E0.01672
G1 X157.807 Y126.340 E1.89272
G1 X157.274 Y126.340 E0.01672
G1 X114.593 Y83.660 E1.89272
G1 X114.060 Y83.660 E0.01672
G1 X156.740 Y126.340 E1.89272
G1 X156.207 Y126.340 E0.01672
G1 X113.526 Y83.660 E1.89272
M73 P5 R72
G1 X112.993 Y83.660 E0.01672
G1 X155.674 Y126.340 E1.89272
G1 X155.140 Y126.340 E0.01672
G1 X112.460 Y83.660 E1.89272
G1 X111.926 Y83.660 E0.01672
G1 X154.607 Y126.340 E1.89272
G1 X154.074 Y126.340 E0.01672
G1 X111.393 Y83.660 E1.89272
G1 X110.860 Y83.660 E0.01672
G1 X153.540 Y126.340 E1.89272
G1 X153.007 Y126.340 E0.01672
G1 X110.326 Y83.660 E1.89272
M73 P6 R72
M73 Q6 S73
G1 X109.793 Y83.660 E0.01672
G1 X152.474 Y126.340 E1.89272
G1 X151.940 Y126.340 E0.01672
G1 X109.260 Y83.660 E1.89272
G1 X108.726 Y83.660 E0.01672
G1 X151.407 Y126.340 E1.89272
M73 Q6 S72
G1 X150.874 Y126.340 E0.01672
G1 X108.193 Y83.660 E1.89272
G1 X107.660 Y83.660 E0.01672
G1 X150.340 Y126.340 E1.89272
G1 X149.807 Y126.340 E0.01672
G1 X107.126 Y83.660 E1.89272
G1 X106.593 Y83.660 E0.01672
G1 X149.274 Y126.340 E1.89272
G1 X148.740 Y126.340 E0.01672
G1 X106.060 Y83.660 E1.89272
G1 X105.526 Y83.660 E0.01672
G1 X148.207 Y126.340 E1.89272
G1 X147.674 Y126.340 E0.01672
G1 X104.993 Y83.660 E1.89272
G1 X104.460 Y83.660 E0.01672
G1 X147.140 Y126.340 E1.89272
G1 X146.607 Y126.340 E0.01672
G1 X103.926 Y83.660 E1.89272
G1 X103.393 Y83.660 E0.01672
G1 X146.074 Y126.340 E1.89272
G1 X145.540 Y126.340 E0.01672
G1 X102.860 Y83.660 E1.89272
M73 P6 R71
G1 X102.326 Y83.660 E0.01672
G1 X145.007 Y126.340 E1.89272
M73 P7 R71
M73 Q7 S72
G1 X144.474 Y126.340 E0.01672
G1 X101.793 Y83.660 E1.89272
G1 X101.260 Y83.660 E0.01672
G1 X143.940 Y126.340 E1.89272
G1 X143.407 Y126.340 E0.01672
G1 X100.727 Y83.660 E1.89272
G1 X100.193 Y83.660 E0.01672
G1 X142.874 Y126.340 E1.89272
G1 X142.340 Y126.340 E0.01672
G1 X99.660 Y83.660 E1.89272
G1 X99.127 Y83.660 E0.01672
G1 X141.807 Y126.340 E1.89272
G1 X141.274 Y126.340 E0.01672
G1 X98.593 Y83.660 E1.89272
G1 X98.060 Y83.660 E0.01672
M73 Q7 S71
G1 X140.740 Y126.340 E1.89272
G1 X140.207 Y126.340 E0.01672
G1 X97.527 Y83.660 E1.89272
G1 X96.993 Y83.660 E0.01672
G1 X139.674 Y126.340 E1.89272
G1 X139.140 Y126.340 E0.01672
G1 X96.460 Y83.660 E1.89272
G1 X95.927 Y83.660 E0.01672
G1 X138.607 Y126.340 E1.89272
G1 X138.074 Y126.340 E0.01672
G1 X95.393 Y83.660 E1.89272
G1 X94.860 Y83.660 E0.01672
G1 X137.540 Y126.340 E1.89272
G1 X137.007 Y126.340 E0.01672
G1 X94.327 Y83.660 E1.89272
M73 P8 R71
M73 Q8 S71
G1 X93.793 Y83.660 E0.01672
G1 X136.474 Y126.340 E1.89272
G1 X135.941 Y126.340 E0.01672
G1 X93.260 Y83.660 E1.89272
G1 X92.727 Y83.660 E0.01672
G1 X135.407 Y126.340 E1.89272
G1 X134.874 Y126.340 E0.01672
G1 X92.193 Y83.660 E1.89272
M73 P8 R70
G1 X91.660 Y83.660 E0.01672
G1 X134.341 Y126.340 E1.89272
G1 X133.807 Y126.340 E0.01672
G1 X91.127 Y83.660 E1.89272
G1 X90.593 Y83.660 E0.01672
G1 X133.274 Y126.340 E1.89272
G1 X132.741 Y126.340 E0.01672
G1 X90.060 Y83.660 E1.89272
G1 X89.527 Y83.660 E0.01672
G1 X132.207 Y126.340 E1.89272
G1 X131.674 Y126.340 E0.01672
G1 X88.993 Y83.660 E1.89272
G1 X88.460 Y83.660 E0.01672
G1 X131.141 Y126.340 E1.89272
G1 X130.607 Y126.340 E0.01672
G1 X87.927 Y83.660 E1.89272
M73 Q8 S70
G1 X87.393 Y83.660 E0.01672
G1 X130.074 Y126.340 E1.89272
G1 X129.541 Y126.340 E0.01672
G1 X86.860 Y83.660 E1.89272
G1 X86.327 Y83.660 E0.01672
G1 X129.007 Y126.340 E1.89272
M73 P9 R70
G1 X128.474 Y126.340 E0.01672
G1 X85.793 Y83.660 E1.89272
M73 Q9 S70
G1 X85.260 Y83.660 E0.01672
G1 X127.941 Y126.340 E1.89272
G1 X127.407 Y126.340 E0.01672
G1 X84.727 Y83.660 E1.89272
G1 X84.193 Y83.660 E0.01672
G1 X126.874 Y126.340 E1.89272
G1 X126.341 Y126.340 E0.01672
G1 X83.660 Y83.660 E1.89272
G1 X83.127 Y83.660 E0.01672
G1 X125.807 Y126.340 E1.89272
G1 X125.274 Y126.340 E0.01672
G1 X82.593 Y83.660 E1.89272
G1 X82.060 Y83.660 E0.01672
G1 X124.741 Y126.340 E1.89272
M73 P9 R69
G1 X124.207 Y126.340 E0.01672
G1 X81.527 Y83.660 E1.89272
G1 X80.993 Y83.660 E0.01672
G1 X123.674 Y126.340 E1.89272
G1 X123.141 Y126.340 E0.01672
G1 X80.460 Y83.660 E1.89272
G1 X79.927 Y83.660 E0.01672
G1 X122.607 Y126.340 E1.89272
G1 X122.074 Y126.340 E0.01672
G1 X79.393 Y83.660 E1.89272
G1 X78.985 Y83.660 E0.01281
G1 X78.985 Y83.784 E0.00391
G1 X121.541 Y126.340 E1.88719
G1 X121.007 Y126.340 E0.01672
G1 X78.985 Y84.318 E1.86354
M73 P10 R69
G1 X78.985 Y84.851 E0.01672
G1 X120.474 Y126.340 E1.83989
M73 Q10 S70
G1 X119.941 Y126.340 E0.01672
G1 X78.985 Y85.384 E1.81624
M73 Q10 S69
G1 X78.985 Y85.918 E0.01672
G1 X119.407 Y126.340 E1.79259
G1 X118.874 Y126.340 E0.01672
G1 X78.985 Y86.451 E1.76893
G1 X78.985 Y86.984 E0.01672
G1 X118.341 Y126.340 E1.74528
G1 X117.807 Y126.340 E0.01672
G1 X78.985 Y87.518 E1.72163
G1 X78.985 Y88.051 E0.01672
G1 X117.274 Y126.340 E1.69798
G1 X116.741 Y126.340 E0.01672
G1 X78.985 Y88.584 E1.67433
G1 X78.985 Y89.118 E0.01672
G1 X116.207 Y126.340 E1.65068
G1 X115.674 Y126.340 E0.01672
G1 X78.985 Y89.651 E1.62703
G1 X78.985 Y90.184 E0.01672
G1 X115.141 Y126.340 E1.60338
G1 X114.607 Y126.340 E0.01672
G1 X78.985 Y90.718 E1.57973
G1 X78.985 Y91.251 E0.01672
G1 X114.074 Y126.340 E1.55608
G1 X113.541 Y126.340 E0.01672
G1 X78.985 Y91.784 E1.53242
M73 P10 R68
G1 X78.985 Y92.318 E0.01672
G1 X113.008 Y126.340 E1.50877
G1 X112.474 Y126.340 E0.01672
G1 X78.985 Y92.851 E1.48512
G1 X78.985 Y93.384 E0.01672
G1 X111.941 Y126.340 E1.46147
M73 P11 R68
G1 X111.408 Y126.340 E0.01672
G1 X78.985 Y93.918 E1.43782
M73 Q11 S69
G1 X78.985 Y94.451 E0.01672
G1 X110.874 Y126.340 E1.41417
G1 X110.341 Y126.340 E0.01672
G1 X78.985 Y94.984 E1.39052
G1 X78.985 Y95.518 E0.01672
G1 X109.808 Y126.340 E1.36687
G1 X109.274 Y126.340 E0.01672
G1 X78.985 Y96.051 E1.34322
G1 X78.985 Y96.584 E0.01672
G1 X108.741 Y126.340 E1.31957
G1 X108.208 Y126.340 E0.01672
G1 X78.985 Y97.118 E1.29592
G1 X78.985 Y97.651 E0.01672
G1 X107.674 Y126.340 E1.27226
G1 X107.141 Y126.340 E0.01672
G1 X78.985 Y98.184 E1.24861
M73 Q11 S68
G1 X78.985 Y98.718 E0.01672
G1 X106.608 Y126.340 E1.22496
G1 X106.074 Y126.340 E0.01672
G1 X78.985 Y99.251 E1.20131
G1 X78.985 Y99.784 E0.01672
G1 X105.541 Y126.340 E1.17766
G1 X105.008 Y126.340 E0.01672
G1 X78.985 Y100.318 E1.15401
G1 X78.985 Y100.851 E0.01672
G1 X104.474 Y126.340 E1.13036
G1 X103.941 Y126.340 E0.01672
G1 X78.985 Y101.384 E1.10671
G1 X78.985 Y101.918 E0.01672
G1 X103.408 Y126.340 E1.08306
G1 X102.874 Y126.340 E0.01672
G1 X78.985 Y102.451 E1.05941
G1 X78.985 Y102.984 E0.01672
G1 X102.341 Y126.340 E1.03576
