; generated by PrusaSlicer 2.3.3 on 2021-11-29 at 20:44:00 UTC

; 

; external perimeters extrusion width = 0.45mm
; perimeters extrusion width = 0.45mm
; infill extrusion width = 0.45mm
; solid infill extrusion width = 0.45mm
; top infill extrusion width = 0.40mm
; support material extrusion width = 0.35mm
; first layer extrusion width = 0.42mm

M73 P0 R65
M73 Q0 S65
M201 X1000 Y1000 Z200 E5000 ; sets maximum accelerations, mm/sec^2
M203 X200 Y200 Z12 E120 ; sets maximum feedrates, mm/sec
M204 P1250 R1250 T1250 ; sets acceleration (P, T) and retract acceleration (R), mm/sec^2
M205 X8.00 Y8.00 Z0.40 E4.50 ; sets the jerk limits, mm/sec
M205 S0 T0 ; sets the minimum extruding and travel feed rate, mm/sec
M107
;TYPE:Custom
M862.3 P "MK3S" ; printer model check
M862.1 P0.4 ; nozzle diameter check
M115 U3.10.0 ; tell printer latest fw version
G90 ; use absolute coordinates
M83 ; extruder relative mode
M104 S215 ; set extruder temp
M140 S60 ; set bed temp
M190 S60 ; wait for bed temp
M109 S215 ; wait for extruder temp
G28 W ; home all without mesh bed level
G80 ; mesh bed leveling
G1 Y-3.0 F1000.0 ; go outside print area
G92 E0.0
G1 X60.0 E9.0 F1000.0 ; intro line
G1 X100.0 E12.5 F1000.0 ; intro line
G92 E0.0
M221 S95

; Don't change E values below. Excessive value can damage the printer.
M907 E430 ; set extruder motor current
G21 ; set units to millimeters
G90 ; use absolute coordinates
M83 ; use relative distances for extrusion
M900 K0.05 ; Filament gcode LA 1.5
M900 K30 ; Filament gcode LA 1.0
;LAYER_CHANGE
;Z:0.2
;HEIGHT:0.2
;BEFORE_LAYER_CHANGE
G92 E0.0
;0.2


G1 E-0.80000 F2100.000
G1 Z0.400 F10800.000
;AFTER_LAYER_CHANGE
;0.2
G1 X51.319 Y75.828
G1 Z0.200
G1 E0.80000 F2100.000
M204 S1000
;TYPE:Skirt
;WIDTH:0.42
G1 F1200.000
G1 X51.849 Y75.465 E0.02012
G1 X52.363 Y75.278 E0.01716
G1 X52.910 Y75.213 E0.01728
G1 X147.089 Y75.213 E2.95291
G1 X147.987 Y75.391 E0.02872
G1 X148.749 Y75.893 E0.02860
G1 X149.266 Y76.644 E0.02860
G1 X149.462 Y77.539 E0.02872
G1 X149.461 Y122.479 E1.40905
G1 X149.357 Y123.108 E0.02000
G1 X149.090 Y123.687 E0.02000
G1 X148.678 Y124.175 E0.02000
G1 X148.151 Y124.535 E0.02000
G1 X147.637 Y124.722 E0.01716
G1 X147.090 Y124.787 E0.01728
G1 X52.888 Y124.787 E2.95362
M73 P0 R64
G1 X52.246 Y124.691 E0.02036
G1 X51.654 Y124.425 E0.02036
G1 X51.158 Y124.012 E0.02024
G1 X50.790 Y123.476 E0.02036
G1 X50.603 Y122.962 E0.01716
G1 X50.538 Y122.423 E0.01704
G1 X50.539 Y77.537 E1.40737
G1 X50.639 Y76.903 E0.02012
G1 X50.906 Y76.319 E0.02012
G1 X51.281 Y75.874 E0.01824
; printing object cap.stl id:0 copy 0
;WIPE_START
G1 F8640.000
G1 X51.849 Y75.465 E-0.16158
G1 X52.363 Y75.278 E-0.12637
G1 X52.910 Y75.213 E-0.12724
G1 X54.403 Y75.213 E-0.34481
;WIPE_END
G1 E-0.04000 F2100.000
G1 Z0.600 F10800.000
G1 X53.702 Y78.377
G1 Z0.200
G1 E0.80000 F2100.000
;TYPE:Perimeter
G1 F1200.000
G1 X146.298 Y78.377 E2.90328
G1 X146.298 Y121.623 E1.35595
G1 X53.702 Y121.623 E2.90328
M73 Q0 S64
G1 X53.702 Y78.437 E1.35407
G1 X53.325 Y78.000 F10800.000
;TYPE:External perimeter
G1 F1200.000
G1 X146.675 Y78.000 E2.92692
M73 P1 R64
M73 Q1 S64
G1 X146.675 Y122.000 E1.37960
G1 X53.325 Y122.000 E2.92692
G1 X53.325 Y78.060 E1.37772
G1 X53.721 Y78.058 F10800.000
;WIPE_START
G1 F8640.000
G1 X56.616 Y78.058 E-0.76000
;WIPE_END
G1 E-0.04000 F2100.000
G1 Z0.600 F10800.000
G1 X146.185 Y79.252
G1 Z0.200
G1 E0.80000 F2100.000
;TYPE:Solid infill
;WIDTH:0.420038
G1 F1200.000
G1 X145.592 Y78.660 E0.02628
G1 X145.059 Y78.660 E0.01672
G1 X146.015 Y79.616 E0.04241
G1 X146.015 Y80.149 E0.01672
G1 X144.525 Y78.660 E0.06606
G1 X143.992 Y78.660 E0.01672
G1 X146.015 Y80.683 E0.08971
G1 X146.015 Y81.216 E0.01672
G1 X143.459 Y78.660 E0.11336
G1 X142.926 Y78.660 E0.01672
G1 X146.015 Y81.749 E0.13701
G1 X146.015 Y82.283 E0.01672
G1 X142.392 Y78.660 E0.16066
G1 X141.859 Y78.660 E0.01672
G1 X146.015 Y82.816 E0.18431
G1 X146.015 Y83.349 E0.01672
G1 X141.326 Y78.660 E0.20797
G1 X140.792 Y78.660 E0.01672
G1 X146.015 Y83.883 E0.23162
G1 X146.015 Y84.416 E0.01672
G1 X140.259 Y78.660 E0.25527
G1 X139.726 Y78.660 E0.01672
G1 X146.015 Y84.949 E0.27892
G1 X146.015 Y85.483 E0.01672
G1 X139.192 Y78.660 E0.30257
G1 X138.659 Y78.660 E0.01672
G1 X146.015 Y86.016 E0.32622
G1 X146.015 Y86.549 E0.01672
G1 X138.126 Y78.660 E0.34987
G1 X137.592 Y78.660 E0.01672
G1 X146.015 Y87.083 E0.37352
G1 X146.015 Y87.616 E0.01672
G1 X137.059 Y78.660 E0.39717
G1 X136.526 Y78.660 E0.01672
G1 X146.015 Y88.149 E0.42082
G1 X146.015 Y88.683 E0.01672
G1 X135.992 Y78.660 E0.44447
G1 X135.459 Y78.660 E0.01672
G1 X146.015 Y89.216 E0.46813
G1 X146.015 Y89.749 E0.01672
G1 X134.926 Y78.660 E0.49178
G1 X134.392 Y78.660 E0.01672
G1 X146.015 Y90.283 E0.51543
G1 X146.015 Y90.816 E0.01672
G1 X133.859 Y78.660 E0.53908
G1 X133.326 Y78.660 E0.01672
G1 X146.015 Y91.349 E0.56273
G1 X146.015 Y91.883 E0.01672
G1 X132.792 Y78.660 E0.58638
G1 X132.259 Y78.660 E0.01672
G1 X146.015 Y92.416 E0.61003
G1 X146.015 Y92.949 E0.01672
G1 X131.726 Y78.660 E0.63368
G1 X131.192 Y78.660 E0.01672
G1 X146.015 Y93.482 E0.65733
G1 X146.015 Y94.016 E0.01672
G1 X130.659 Y78.660 E0.68098
G1 X130.126 Y78.660 E0.01672
G1 X146.015 Y94.549 E0.70464
G1 X146.015 Y95.082 E0.01672
G1 X129.592 Y78.660 E0.72829
G1 X129.059 Y78.660 E0.01672
G1 X146.015 Y95.616 E0.75194
G1 X146.015 Y96.149 E0.01672
G1 X128.526 Y78.660 E0.77559
G1 X127.992 Y78.660 E0.01672
G1 X146.015 Y96.682 E0.79924
G1 X146.015 Y97.216 E0.01672
G1 X127.459 Y78.660 E0.82289
G1 X126.926 Y78.660 E0.01672
G1 X146.015 Y97.749 E0.84654
M73 P1 R63
G1 X146.015 Y98.282 E0.01672
G1 X126.392 Y78.660 E0.87019
M73 P2 R63
M73 Q2 S64
G1 X125.859 Y78.660 E0.01672
G1 X146.015 Y98.816 E0.89384
G1 X146.015 Y99.349 E0.01672
G1 X125.326 Y78.660 E0.91749
G1 X124.792 Y78.660 E0.01672
G1 X146.015 Y99.882 E0.94114
G1 X146.015 Y100.416 E0.01672
G1 X124.259 Y78.660 E0.96480
G1 X123.726 Y78.660 E0.01672
G1 X146.015 Y100.949 E0.98845
G1 X146.015 Y101.482 E0.01672
G1 X123.192 Y78.660 E1.01210
G1 X122.659 Y78.660 E0.01672
G1 X146.015 Y102.016 E1.03575
G1 X146.015 Y102.549 E0.01672
G1 X122.126 Y78.660 E1.05940
M73 Q2 S63
G1 X121.592 Y78.660 E0.01672
G1 X146.015 Y103.082 E1.08305
G1 X146.015 Y103.616 E0.01672
G1 X121.059 Y78.660 E1.10670
G1 X120.526 Y78.660 E0.01672
G1 X146.015 Y104.149 E1.13035
G1 X146.015 Y104.682 E0.01672
G1 X119.993 Y78.660 E1.15400
G1 X119.459 Y78.660 E0.01672
G1 X146.015 Y105.216 E1.17765
G1 X146.015 Y105.749 E0.01672
G1 X118.926 Y78.660 E1.20130
G1 X118.393 Y78.660 E0.01672
G1 X146.015 Y106.282 E1.22496
G1 X146.015 Y106.816 E0.01672
G1 X117.859 Y78.660 E1.24861
G1 X117.326 Y78.660 E0.01672
G1 X146.015 Y107.349 E1.27226
G1 X146.015 Y107.882 E0.01672
G1 X116.793 Y78.660 E1.29591
G1 X116.259 Y78.660 E0.01672
G1 X146.015 Y108.416 E1.31956
G1 X146.015 Y108.949 E0.01672
G1 X115.726 Y78.660 E1.34321
G1 X115.193 Y78.660 E0.01672
G1 X146.015 Y109.482 E1.36686
M73 P3 R63
M73 Q3 S63
G1 X146.015 Y110.016 E0.01672
G1 X114.659 Y78.660 E1.39051
G1 X114.126 Y78.660 E0.01672
G1 X146.015 Y110.549 E1.41416
G1 X146.015 Y111.082 E0.01672
G1 X113.593 Y78.660 E1.43781
G1 X113.059 Y78.660 E0.01672
G1 X146.015 Y111.616 E1.46147
G1 X146.015 Y112.149 E0.01672
G1 X112.526 Y78.660 E1.48512
G1 X111.993 Y78.660 E0.01672
G1 X146.015 Y112.682 E1.50877
G1 X146.015 Y113.216 E0.01672
G1 X111.459 Y78.660 E1.53242
G1 X110.926 Y78.660 E0.01672
G1 X146.015 Y113.749 E1.55607
G1 X146.015 Y114.282 E0.01672
G1 X110.393 Y78.660 E1.57972
M73 P3 R62
G1 X109.859 Y78.660 E0.01672
G1 X146.015 Y114.816 E1.60337
G1 X146.015 Y115.349 E0.01672
G1 X109.326 Y78.660 E1.62702
G1 X108.793 Y78.660 E0.01672
G1 X146.015 Y115.882 E1.65067
G1 X146.015 Y116.415 E0.01672
G1 X108.259 Y78.660 E1.67432
G1 X107.726 Y78.660 E0.01672
G1 X146.015 Y116.949 E1.69797
M73 Q3 S62
G1 X146.015 Y117.482 E0.01672
G1 X107.193 Y78.660 E1.72163
G1 X106.659 Y78.660 E0.01672
G1 X146.015 Y118.015 E1.74528
M73 P4 R62
M73 Q4 S62
G1 X146.015 Y118.549 E0.01672
G1 X106.126 Y78.660 E1.76893
G1 X105.593 Y78.660 E0.01672
G1 X146.015 Y119.082 E1.79258
G1 X146.015 Y119.615 E0.01672
G1 X105.059 Y78.660 E1.81623
G1 X104.526 Y78.660 E0.01672
G1 X146.015 Y120.149 E1.83988
G1 X146.015 Y120.682 E0.01672
G1 X103.993 Y78.660 E1.86353
G1 X103.459 Y78.660 E0.01672
G1 X146.015 Y121.215 E1.88718
G1 X146.015 Y121.340 E0.00392
G1 X145.607 Y121.340 E0.01281
G1 X102.926 Y78.660 E1.89272
G1 X102.393 Y78.660 E0.01672
G1 X145.073 Y121.340 E1.89272
G1 X144.540 Y121.340 E0.01672
G1 X101.859 Y78.660 E1.89272
G1 X101.326 Y78.660 E0.01672
G1 X144.007 Y121.340 E1.89272
G1 X143.473 Y121.340 E0.01672
G1 X100.793 Y78.660 E1.89272
G1 X100.259 Y78.660 E0.01672
G1 X142.940 Y121.340 E1.89272
G1 X142.407 Y121.340 E0.01672
G1 X99.726 Y78.660 E1.89272
M73 P5 R61
M73 Q5 S62
G1 X99.193 Y78.660 E0.01672
G1 X141.873 Y121.340 E1.89272
G1 X141.340 Y121.340 E0.01672
G1 X98.659 Y78.660 E1.89272
G1 X98.126 Y78.660 E0.01672
G1 X140.807 Y121.340 E1.89272
G1 X140.273 Y121.340 E0.01672
G1 X97.593 Y78.660 E1.89272
G1 X97.060 Y78.660 E0.01672
G1 X139.740 Y121.340 E1.89272
M73 Q5 S61
G1 X139.207 Y121.340 E0.01672
G1 X96.526 Y78.660 E1.89272
G1 X95.993 Y78.660 E0.01672
G1 X138.673 Y121.340 E1.89272
G1 X138.140 Y121.340 E0.01672
G1 X95.460 Y78.660 E1.89272
G1 X94.926 Y78.660 E0.01672
G1 X137.607 Y121.340 E1.89272
G1 X137.073 Y121.340 E0.01672
G1 X94.393 Y78.660 E1.89272
G1 X93.860 Y78.660 E0.01672
G1 X136.540 Y121.340 E1.89272
G1 X136.007 Y121.340 E0.01672
G1 X93.326 Y78.660 E1.89272
G1 X92.793 Y78.660 E0.01672
G1 X135.473 Y121.340 E1.89272
M73 P6 R61
M73 Q6 S61
G1 X134.940 Y121.340 E0.01672
G1 X92.260 Y78.660 E1.89272
G1 X91.726 Y78.660 E0.01672
G1 X134.407 Y121.340 E1.89272
G1 X133.874 Y121.340 E0.01672
G1 X91.193 Y78.660 E1.89272
G1 X90.660 Y78.660 E0.01672
G1 X133.340 Y121.340 E1.89272
G1 X132.807 Y121.340 E0.01672
G1 X90.126 Y78.660 E1.89272
G1 X89.593 Y78.660 E0.01672
G1 X132.274 Y121.340 E1.89272
G1 X131.740 Y121.340 E0.01672
G1 X89.060 Y78.660 E1.89272
M73 P6 R60
G1 X88.526 Y78.660 E0.01672
G1 X131.207 Y121.340 E1.89272
G1 X130.674 Y121.340 E0.01672
G1 X87.993 Y78.660 E1.89272
G1 X87.460 Y78.660 E0.01672
G1 X130.140 Y121.340 E1.89272
G1 X129.607 Y121.340 E0.01672
G1 X86.926 Y78.660 E1.89272
G1 X86.393 Y78.660 E0.01672
G1 X129.074 Y121.340 E1.89272
M73 P7 R60
M73 Q7 S60
G1 X128.540 Y121.340 E0.01672
G1 X85.860 Y78.660 E1.89272
G1 X85.326 Y78.660 E0.01672
G1 X128.007 Y121.340 E1.89272
G1 X127.474 Y121.340 E0.01672
G1 X84.793 Y78.660 E1.89272
G1 X84.260 Y78.660 E0.01672
G1 X126.940 Y121.340 E1.89272
G1 X126.407 Y121.340 E0.01672
G1 X83.726 Y78.660 E1.89272
G1 X83.193 Y78.660 E0.01672
G1 X125.874 Y121.340 E1.89272
G1 X125.340 Y121.340 E0.01672
G1 X82.660 Y78.660 E1.89272
G1 X82.126 Y78.660 E0.01672
G1 X124.807 Y121.340 E1.89272
G1 X124.274 Y121.340 E0.01672
G1 X81.593 Y78.660 E1.89272
G1 X81.060 Y78.660 E0.01672
G1 X123.740 Y121.340 E1.89272
G1 X123.207 Y121.340 E0.01672
G1 X80.526 Y78.660 E1.89272
G1 X79.993 Y78.660 E0.01672
G1 X122.674 Y121.340 E1.89272
G1 X122.140 Y121.340 E0.01672
G1 X79.460 Y78.660 E1.89272
M73 P8 R60
M73 Q8 S60
G1 X78.926 Y78.660 E0.01672
G1 X121.607 Y121.340 E1.89272
G1 X121.074 Y121.340 E0.01672
G1 X78.393 Y78.660 E1.89272
M73 P8 R59
G1 X77.860 Y78.660 E0.01672
G1 X120.540 Y121.340 E1.89272
G1 X120.007 Y121.340 E0.01672
G1 X77.326 Y78.660 E1.89272
G1 X76.793 Y78.660 E0.01672
G1 X119.474 Y121.340 E1.89272
G1 X118.940 Y121.340 E0.01672
G1 X76.260 Y78.660 E1.89272
M73 Q8 S59
G1 X75.727 Y78.660 E0.01672
G1 X118.407 Y121.340 E1.89272
G1 X117.874 Y121.340 E0.01672
G1 X75.193 Y78.660 E1.89272
G1 X74.660 Y78.660 E0.01672
G1 X117.340 Y121.340 E1.89272
G1 X116.807 Y121.340 E0.01672
G1 X74.127 Y78.660 E1.89272
G1 X73.593 Y78.660 E0.01672
G1 X116.274 Y121.340 E1.89272
G1 X115.740 Y121.340 E0.01672
G1 X73.060 Y78.660 E1.89272
G1 X72.527 Y78.660 E0.01672
G1 X115.207 Y121.340 E1.89272
M73 P9 R59
M73 Q9 S59
G1 X114.674 Y121.340 E0.01672
G1 X71.993 Y78.660 E1.89272
G1 X71.460 Y78.660 E0.01672
G1 X114.140 Y121.340 E1.89272
G1 X113.607 Y121.340 E0.01672
G1 X70.927 Y78.660 E1.89272
G1 X70.393 Y78.660 E0.01672
G1 X113.074 Y121.340 E1.89272
G1 X112.540 Y121.340 E0.01672
G1 X69.860 Y78.660 E1.89272
G1 X69.327 Y78.660 E0.01672
G1 X112.007 Y121.340 E1.89272
G1 X111.474 Y121.340 E0.01672
G1 X68.793 Y78.660 E1.89272
G1 X68.260 Y78.660 E0.01672
G1 X110.941 Y121.340 E1.89272
M73 P9 R58
G1 X110.407 Y121.340 E0.01672
G1 X67.727 Y78.660 E1.89272
G1 X67.193 Y78.660 E0.01672
G1 X109.874 Y121.340 E1.89272
G1 X109.341 Y121.340 E0.01672
G1 X66.660 Y78.660 E1.89272
G1 X66.127 Y78.660 E0.01672
G1 X108.807 Y121.340 E1.89272
M73 P10 R58
G1 X108.274 Y121.340 E0.01672
G1 X65.593 Y78.660 E1.89272
M73 Q10 S58
G1 X65.060 Y78.660 E0.01672
G1 X107.741 Y121.340 E1.89272
G1 X107.207 Y121.340 E0.01672
G1 X64.527 Y78.660 E1.89272
G1 X63.993 Y78.660 E0.01672
G1 X106.674 Y121.340 E1.89272
G1 X106.141 Y121.340 E0.01672
G1 X63.460 Y78.660 E1.89272
G1 X62.927 Y78.660 E0.01672
G1 X105.607 Y121.340 E1.89272
G1 X105.074 Y121.340 E0.01672
G1 X62.393 Y78.660 E1.89272
G1 X61.860 Y78.660 E0.01672
G1 X104.541 Y121.340 E1.89272
G1 X104.007 Y121.340 E0.01672
G1 X61.327 Y78.660 E1.89272
G1 X60.793 Y78.660 E0.01672
G1 X103.474 Y121.340 E1.89272
G1 X102.941 Y121.340 E0.01672
G1 X60.260 Y78.660 E1.89272
G1 X59.727 Y78.660 E0.01672
G1 X102.407 Y121.340 E1.89272
G1 X101.874 Y121.340 E0.01672
G1 X59.193 Y78.660 E1.89272
M73 P11 R58
M73 Q11 S58
G1 X58.660 Y78.660 E0.01672
G1 X101.341 Y121.340 E1.89272
G1 X100.807 Y121.340 E0.01672
G1 X58.127 Y78.660 E1.89272
G1 X57.593 Y78.660 E0.01672
G1 X100.274 Y121.340 E1.89272
M73 P11 R57
G1 X99.741 Y121.340 E0.01672
G1 X57.060 Y78.660 E1.89272
G1 X56.527 Y78.660 E0.01672
G1 X99.207 Y121.340 E1.89272
G1 X98.674 Y121.340 E0.01672
G1 X55.993 Y78.660 E1.89272
G1 X55.460 Y78.660 E0.01672
G1 X98.141 Y121.340 E1.89272
G1 X97.607 Y121.340 E0.01672
G1 X54.927 Y78.660 E1.89272
M73 Q11 S57
G1 X54.393 Y78.660 E0.01672
G1 X97.074 Y121.340 E1.89272
G1 X96.541 Y121.340 E0.01672
G1 X53.985 Y78.784 E1.88719
G1 X53.985 Y79.318 E0.01672
G1 X96.007 Y121.340 E1.86354
G1 X95.474 Y121.340 E0.01672
G1 X53.985 Y79.851 E1.83989
G1 X53.985 Y80.384 E0.01672
G1 X94.941 Y121.340 E1.81624
M73 P12 R57
M73 Q12 S57
G1 X94.407 Y121.340 E0.01672
G1 X53.985 Y80.918 E1.79259
G1 X53.985 Y81.451 E0.01672
G1 X93.874 Y121.340 E1.76893
G1 X93.341 Y121.340 E0.01672
G1 X53.985 Y81.984 E1.74528
G1 X53.985 Y82.518 E0.01672
G1 X92.807 Y121.340 E1.72163
G1 X92.274 Y121.340 E0.01672
G1 X53.985 Y83.051 E1.69798
G1 X53.985 Y83.584 E0.01672
G1 X91.741 Y121.340 E1.67433
G1 X91.207 Y121.340 E0.01672
G1 X53.985 Y84.118 E1.65068
G1 X53.985 Y84.651 E0.01672
G1 X90.674 Y121.340 E1.62703
G1 X90.141 Y121.340 E0.01672
G1 X53.985 Y85.184 E1.60338
G1 X53.985 Y85.718 E0.01672
G1 X89.607 Y121.340 E1.57973
G1 X89.074 Y121.340 E0.01672
G1 X53.985 Y86.251 E1.55608
M73 P12 R56
G1 X53.985 Y86.784 E0.01672
G1 X88.541 Y121.340 E1.53242
G1 X88.008 Y121.340 E0.01672
G1 X53.985 Y87.318 E1.50877
G1 X53.985 Y87.851 E0.01672
G1 X87.474 Y121.340 E1.48512
M73 P13 R56
G1 X86.941 Y121.340 E0.01672
G1 X53.985 Y88.384 E1.46147
M73 Q13 S57
G1 X53.985 Y88.918 E0.01672
G1 X86.408 Y121.340 E1.43782
G1 X85.874 Y121.340 E0.01672
G1 X53.985 Y89.451 E1.41417
M73 Q13 S56
G1 X53.985 Y89.984 E0.01672
G1 X85.341 Y121.340 E1.39052
G1 X84.808 Y121.340 E0.01672
G1 X53.985 Y90.518 E1.36687
G1 X53.985 Y91.051 E0.01672
G1 X84.274 Y121.340 E1.34322
G1 X83.741 Y121.340 E0.01672
G1 X53.985 Y91.584 E1.31957
G1 X53.985 Y92.118 E0.01672
G1 X83.208 Y121.340 E1.29592
G1 X82.674 Y121.340 E0.01672
G1 X53.985 Y92.651 E1.27226
G1 X53.985 Y93.184 E0.01672
G1 X82.141 Y121.340 E1.24861
G1 X81.608 Y121.340 E0.01672
G1 X53.985 Y93.718 E1.22496
G1 X53.985 Y94.251 E0.01672
G1 X81.074 Y121.340 E1.20131
G1 X80.541 Y121.340 E0.01672
G1 X53.985 Y94.784 E1.17766
G1 X53.985 Y95.318 E0.01672
G1 X80.008 Y121.340 E1.15401
G1 X79.474 Y121.340 E0.01672
G1 X53.985 Y95.851 E1.13036
G1 X53.985 Y96.384 E0.01672
G1 X78.941 Y121.340 E1.10671
G1 X78.408 Y121.340 E0.01672
G1 X53.985 Y96.918 E1.08306
G1 X53.985 Y97.451 E0.01672
G1 X77.874 Y121.340 E1.05941
G1 X77.341 Y121.340 E0.01672
G1 X53.985 Y97.984 E1.03576
G1 X53.985 Y98.517 E0.01672
