; generated by PrusaSlicer 2.4.0+win64 on 2022-01-09 at 16:08:38 UTC

; 

; external perimeters extrusion width = 0.45mm
; perimeters extrusion width = 0.45mm
; infill extrusion width = 0.45mm
; solid infill extrusion width = 0.45mm
; top infill extrusion width = 0.40mm
; support material extrusion width = 0.35mm
; first layer extrusion width = 0.42mm

M73 P0 R52
M73 Q0 S53
M201 X1000 Y1000 Z200 E5000 ; sets maximum accelerations, mm/sec^2
M203 X200 Y200 Z12 E120 ; sets maximum feedrates, mm/sec
M204 P1250 R1250 T1250 ; sets acceleration (P, T) and retract acceleration (R), mm/sec^2
M205 X8.00 Y8.00 Z0.40 E4.50 ; sets the jerk limits, mm/sec
M205 S0 T0 ; sets the minimum extruding and travel feed rate, mm/sec
M107
;TYPE:Custom
M862.3 P "MK3S" ; printer model check
M862.1 P0.4 ; nozzle diameter check
M115 U3.10.0 ; tell printer latest fw version
G90 ; use absolute coordinates
M83 ; extruder relative mode
M104 S215 ; set extruder temp
M140 S60 ; set bed temp
M190 S60 ; wait for bed temp
M109 S215 ; wait for extruder temp
G28 W ; home all without mesh bed level
G80 ; mesh bed leveling
G1 Z0.2 F720
G1 Y-3 F1000 ; go outside print area
G92 E0
G1 X60 E9 F1000 ; intro line
G1 X100 E12.5 F1000 ; intro line
G92 E0
M221 S95

; Don't change E values below. Excessive value can damage the printer.

M907 E538 ; set extruder motor current
G21 ; set units to millimeters
G90 ; use absolute coordinates
M83 ; use relative distances for extrusion
M900 K0.05 ; Filament gcode LA 1.5
M900 K30 ; Filament gcode LA 1.0
M107
;LAYER_CHANGE
;Z:0.2
;HEIGHT:0.2
;BEFORE_LAYER_CHANGE
G92 E0.0
;0.2


G1 E-.8 F2100
G1 Z.4 F720
;AFTER_LAYER_CHANGE
;0.2
G1 X100.578 Y83.752 F10800
G1 Z.2 F720
G1 E.8 F2100
M204 S800
;TYPE:Skirt/Brim
;WIDTH:0.42
G1 F1200
G1 X101.993 Y82.228 E.06519
G1 X103.396 Y80.892 E.06074
G1 X104.765 Y79.732 E.05628
G1 X106.312 Y78.566 E.06074
G1 X107.927 Y77.496 E.06073
G1 X109.727 Y76.456 E.06519
G1 X111.333 Y75.653 E.05628
G1 X113.112 Y74.888 E.06074
G1 X114.934 Y74.231 E.06074
G1 X116.793 Y73.683 E.06074
G1 X118.82 Y73.221 E.06519
G1 X120.731 Y72.907 E.06073
G1 X122.516 Y72.72 E.05628
G1 X124.61 Y72.627 E.0657
G1 X126.53 Y72.66 E.06023
G1 X128.462 Y72.809 E.06073
G1 X130.24 Y73.05 E.05628
G1 X132.142 Y73.42 E.06074
G1 X134.154 Y73.943 E.0652
G1 X135.995 Y74.546 E.06073
G1 X137.797 Y75.257 E.06074
G1 X139.552 Y76.075 E.06073
G1 X141.133 Y76.926 E.05628
G1 X142.783 Y77.941 E.06074
G1 X144.37 Y79.052 E.06073
G1 X145.995 Y80.349 E.0652
G1 X147.432 Y81.648 E.06073
G1 X148.692 Y82.927 E.05628
G1 X150.06 Y84.492 E.0652
G1 X151.241 Y86.027 E.06074
G1 X152.329 Y87.63 E.06074
G1 X153.319 Y89.295 E.06073
G1 X154.146 Y90.888 E.05628
G1 X154.991 Y92.788 E.06519
G1 X155.668 Y94.603 E.06074
G1 X156.235 Y96.455 E.06073
G1 X156.69 Y98.338 E.06074
G1 X157.011 Y100.104 E.05628
G1 X157.259 Y102.169 E.06519
G1 X157.366 Y103.96 E.05628
G1 X157.37 Y105.897 E.06074
G1 X157.246 Y107.973 E.06519
G1 X157.011 Y109.896 E.06073
G1 X156.69 Y111.662 E.05629
G1 X156.235 Y113.545 E.06074
G1 X155.668 Y115.397 E.06074
G1 X154.937 Y117.344 E.06519
G1 X154.146 Y119.112 E.06074
G1 X153.319 Y120.705 E.05628
G1 X152.227 Y122.527 E.06661
G1 X151.158 Y124.088 E.05932
G1 X149.969 Y125.617 E.06074
G1 X148.692 Y127.073 E.06074
G1 X147.432 Y128.352 E.05628
G1 X145.887 Y129.743 E.06519
G1 X144.483 Y130.862 E.05628
G1 X142.902 Y131.981 E.06074
G1 X141.133 Y133.074 E.06519
G1 X139.425 Y133.988 E.06073
G1 X137.666 Y134.799 E.06074
G1 X135.861 Y135.502 E.06073
G1 X134.154 Y136.057 E.05628
G1 X132.142 Y136.58 E.0652
G1 X130.24 Y136.95 E.06074
G1 X128.32 Y137.206 E.06074
G1 X126.388 Y137.347 E.06074
G1 X124.593 Y137.373 E.05628
G1 X122.516 Y137.28 E.06519
G1 X120.731 Y137.093 E.05628
G1 X118.82 Y136.779 E.06074
G1 X116.793 Y136.317 E.06519
G1 X114.934 Y135.769 E.06074
G1 X113.112 Y135.112 E.06073
G1 X111.333 Y134.347 E.06074
G1 X109.727 Y133.544 E.05628
G1 X107.927 Y132.504 E.06519
G1 X106.312 Y131.434 E.06073
G1 X104.765 Y130.268 E.06074
G1 X103.29 Y129.013 E.06074
G1 X101.993 Y127.772 E.05628
G1 X100.672 Y126.355 E.06074
G1 X99.438 Y124.861 E.06073
G1 X98.216 Y123.179 E.06519
G1 X97.177 Y121.545 E.06074
G1 X96.237 Y119.851 E.06074
G1 X95.459 Y118.233 E.05628
G1 X94.72 Y116.443 E.06074
G1 X94.048 Y114.475 E.06519
G1 X93.537 Y112.607 E.06074
G1 X93.164 Y110.851 E.05628
G1 X92.85 Y108.75 E.06661
G1 X92.684 Y106.865 E.05932
G1 X92.631 Y104.929 E.06074
G1 X92.693 Y102.993 E.06073
G1 X92.871 Y101.064 E.06074
G1 X93.138 Y99.289 E.05628
G1 X93.537 Y97.393 E.06074
G1 X94.09 Y95.389 E.06519
G1 X94.72 Y93.557 E.06073
G1 X95.401 Y91.896 E.05628
G1 X96.337 Y89.962 E.06738
G1 X97.25 Y88.333 E.05854
G1 X98.296 Y86.703 E.06073
G1 X99.351 Y85.251 E.05628
G1 X100.54 Y83.799 E.05886
M204 S1000
; printing object LEDBase.stl id:0 copy 0
;WIPE_START
G1 F8640
G1 X101.993 Y82.228 E-.49393
G1 X102.827 Y81.433 E-.26607
;WIPE_END
G1 E-.04 F2100
G1 Z.6 F720
G1 X120.127 Y110.12 F10800
G1 Z.2 F720
G1 E.8 F2100
M204 S800
;TYPE:Support material
G1 F1200
G1 X119.987 Y110.12 E.00439
G1 X119.987 Y109.98 E.00439
G1 X120.127 Y109.98 E.00439
G1 X120.127 Y110.063 E.00262
M204 S1000
;WIPE_START
G1 F8640
G1 X120.127 Y109.98 E-.01927
G1 X119.987 Y109.98 E-.03233
G1 X119.987 Y110.12 E-.03234
G1 X120.127 Y110.12 E-.03233
;WIPE_END
G1 E-.68374 F2100
G1 Z.6 F720
G1 X125.127 Y110.12 F10800
G1 Z.2 F720
G1 E.8 F2100
M204 S800
G1 F1200
G1 X124.987 Y110.12 E.00439
G1 X124.987 Y109.98 E.00439
G1 X125.127 Y109.98 E.00439
G1 X125.127 Y110.063 E.00262
M204 S1000
;WIPE_START
G1 F8640
G1 X125.127 Y109.98 E-.01927
G1 X124.987 Y109.98 E-.03233
G1 X124.987 Y110.12 E-.03234
G1 X125.127 Y110.12 E-.03233
;WIPE_END
G1 E-.68374 F2100
G1 Z.6 F720
G1 X130.127 Y110.12 F10800
G1 Z.2 F720
G1 E.8 F2100
M204 S800
G1 F1200
G1 X129.987 Y110.12 E.00439
G1 X129.987 Y109.98 E.00439
G1 X130.127 Y109.98 E.00439
G1 X130.127 Y110.063 E.00262
M204 S1000
;WIPE_START
G1 F8640
G1 X130.127 Y109.98 E-.01927
G1 X129.987 Y109.98 E-.03233
G1 X129.987 Y110.12 E-.03234
G1 X130.127 Y110.12 E-.03233
;WIPE_END
G1 E-.68373 F2100
G1 Z.6 F720
G1 X126.394 Y108.736 F10800
G1 Z.2 F720
G1 E.8 F2100
M204 S800
;TYPE:Perimeter
G1 F1200
G1 X126.394 Y111.387 E.08313
G1 X123.72 Y111.387 E.08385
G1 X123.72 Y108.713 E.08385
G1 X126.357 Y108.713 E.08268
M204 S1000
G1 X126.017 Y109.09 F10800
M204 S800
;TYPE:External perimeter
G1 F1200
G1 X126.017 Y111.01 E.0602
G1 X124.097 Y111.01 E.0602
G1 X124.097 Y109.09 E.0602
G1 X125.957 Y109.09 E.05832
M204 S1000
G1 X126.403 Y108.986 F10800
;WIPE_START
G1 F8640
G1 X126.017 Y111.01 E-.44356
G1 X124.646 Y111.01 E-.31644
;WIPE_END
G1 E-.04 F2100
G1 Z.6 F720
G1 X121.394 Y108.736 F10800
G1 Z.2 F720
G1 E.8 F2100
M204 S800
;TYPE:Perimeter
G1 F1200
G1 X121.394 Y111.387 E.08313
G1 X118.72 Y111.387 E.08385
G1 X118.72 Y108.713 E.08385
G1 X121.357 Y108.713 E.08268
M204 S1000
G1 X121.017 Y109.09 F10800
M204 S800
;TYPE:External perimeter
G1 F1200
G1 X121.017 Y111.01 E.0602
G1 X119.097 Y111.01 E.0602
G1 X119.097 Y109.09 E.0602
G1 X120.957 Y109.09 E.05832
M204 S1000
G1 X121.403 Y108.986 F10800
;WIPE_START
G1 F8640
G1 X121.017 Y111.01 E-.44356
G1 X119.646 Y111.01 E-.31644
;WIPE_END
G1 E-.04 F2100
G1 Z.6 F720
G1 X129.497 Y108.713 F10800
G1 Z.2 F720
G1 E.8 F2100
M204 S800
;TYPE:Perimeter
G1 F1200
G1 X131.394 Y108.713 E.05948
G1 X131.394 Y111.387 E.08385
G1 X128.72 Y111.387 E.08385
G1 X128.72 Y108.713 E.08385
G1 X129.437 Y108.713 E.02248
M204 S1000
G1 X129.097 Y109.09 F10800
M204 S800
;TYPE:External perimeter
G1 F1200
G1 X131.017 Y109.09 E.0602
G1 X131.017 Y111.01 E.0602
G1 X129.097 Y111.01 E.0602
G1 X129.097 Y109.15 E.05832
M204 S1000
G1 X128.993 Y108.704 F10800
;WIPE_START
G1 F8640
G1 X131.017 Y109.09 E-.44355
G1 X131.017 Y110.46 E-.31645
;WIPE_END
G1 E-.04 F2100
G1 Z.6 F720
G1 X139.404 Y90.092 F10800
G1 Z.2 F720
G1 E.8 F2100
M204 S800
;TYPE:Perimeter
G1 F1200
G1 X139.404 Y105.987 E.49839
G1 X111.82 Y105.987 E.8649
G1 X111.82 Y90.069 E.49911
G1 X139.367 Y90.069 E.86374
M204 S1000
G1 X139.027 Y90.446 F10800
M204 S800
;TYPE:External perimeter
G1 F1200
G1 X139.027 Y105.61 E.47546
G1 X112.197 Y105.61 E.84125
G1 X112.197 Y90.446 E.47546
G1 X138.967 Y90.446 E.83937
M204 S1000
G1 X139.421 Y90.378 F10800
;WIPE_START
M73 P1 R52
M73 Q1 S53
G1 F8640
G1 X138.98 Y93.737 E-.76
;WIPE_END
G1 E-.04 F2100
G1 Z.6 F720
G1 X145.717 Y84.416 F10800
G1 Z.2 F720
G1 E.8 F2100
M204 S800
;TYPE:Perimeter
G1 F1200
G1 X146.421 Y85.13 E.03143
G1 X147.571 Y86.447 E.0548
G1 X148.64 Y87.829 E.0548
G1 X149.625 Y89.273 E.0548
G1 X150.521 Y90.774 E.0548
G1 X151.326 Y92.325 E.0548
G1 X152.037 Y93.922 E.0548
G1 X152.651 Y95.558 E.0548
G1 X153.167 Y97.228 E.0548
G1 X153.581 Y98.926 E.0548
G1 X153.893 Y100.646 E.0548
G1 X154.102 Y102.381 E.0548
G1 X154.206 Y104.126 E.0548
G1 X154.206 Y105.874 E.0548
G1 X154.102 Y107.619 E.0548
G1 X153.893 Y109.354 E.0548
G1 X153.581 Y111.074 E.0548
G1 X153.167 Y112.772 E.0548
G1 X152.651 Y114.442 E.0548
G1 X152.037 Y116.078 E.0548
G1 X151.326 Y117.675 E.0548
G1 X150.521 Y119.226 E.0548
G1 X149.625 Y120.727 E.0548
G1 X148.64 Y122.171 E.0548
G1 X147.571 Y123.553 E.0548
G1 X146.421 Y124.87 E.0548
G1 X145.194 Y126.115 E.0548
G1 X143.896 Y127.284 E.0548
G1 X142.529 Y128.374 E.0548
G1 X141.1 Y129.38 E.0548
G1 X139.613 Y130.299 E.0548
G1 X138.074 Y131.127 E.0548
G1 X136.488 Y131.862 E.0548
G1 X134.861 Y132.5 E.0548
G1 X133.199 Y133.04 E.0548
G1 X131.507 Y133.48 E.0548
G1 X129.792 Y133.818 E.0548
G1 X128.06 Y134.053 E.0548
G1 X126.317 Y134.183 E.0548
G1 X124.57 Y134.209 E.0548
G1 X122.824 Y134.131 E.0548
G1 X121.086 Y133.948 E.0548
G1 X119.351 Y133.66 E.05513
G1 X117.657 Y133.273 E.05448
G1 X115.98 Y132.783 E.0548
G1 X114.334 Y132.193 E.0548
G1 X112.727 Y131.506 E.0548
G1 X111.164 Y130.724 E.0548
G1 X109.65 Y129.851 E.0548
G1 X108.191 Y128.888 E.0548
G1 X106.793 Y127.839 E.0548
G1 X105.46 Y126.709 E.0548
G1 X104.196 Y125.501 E.0548
G1 X103.008 Y124.22 E.0548
G1 X101.898 Y122.87 E.0548
G1 X100.865 Y121.447 E.05513
G1 X99.929 Y119.983 E.05448
G1 X99.078 Y118.457 E.0548
G1 X98.32 Y116.882 E.0548
G1 X97.657 Y115.265 E.0548
G1 X97.092 Y113.611 E.0548
G1 X96.627 Y111.926 E.0548
G1 X96.264 Y110.216 E.0548
G1 X96.002 Y108.478 E.05513
G1 X95.846 Y106.747 E.05448
G1 X95.794 Y105 E.0548
G1 X95.846 Y103.253 E.0548
G1 X96.003 Y101.512 E.0548
G1 X96.264 Y99.784 E.0548
G1 X96.627 Y98.074 E.0548
G1 X97.092 Y96.39 E.0548
G1 X97.661 Y94.726 E.05513
G1 X98.32 Y93.118 E.05448
G1 X99.078 Y91.543 E.0548
G1 X99.929 Y90.017 E.0548
G1 X100.87 Y88.544 E.0548
G1 X101.897 Y87.13 E.0548
G1 X103.008 Y85.78 E.0548
G1 X104.196 Y84.499 E.0548
G1 X105.46 Y83.291 E.0548
G1 X106.793 Y82.161 E.0548
G1 X108.191 Y81.112 E.0548
G1 X109.65 Y80.149 E.0548
G1 X111.164 Y79.276 E.0548
G1 X112.727 Y78.494 E.0548
G1 X114.334 Y77.807 E.0548
G1 X115.98 Y77.217 E.0548
G1 X117.657 Y76.727 E.0548
G1 X119.361 Y76.338 E.0548
G1 X121.085 Y76.052 E.0548
G1 X122.824 Y75.869 E.0548
M73 Q1 S52
G1 X124.58 Y75.791 E.05513
G1 X126.317 Y75.817 E.05448
G1 X128.06 Y75.947 E.0548
G1 X129.792 Y76.182 E.0548
G1 X131.507 Y76.52 E.0548
G1 X133.209 Y76.963 E.05513
G1 X134.861 Y77.5 E.05448
G1 X136.488 Y78.138 E.0548
G1 X138.074 Y78.873 E.0548
G1 X139.613 Y79.701 E.0548
G1 X141.1 Y80.62 E.0548
G1 X142.529 Y81.626 E.0548
G1 X143.896 Y82.716 E.0548
G1 X145.194 Y83.885 E.0548
G1 X145.675 Y84.373 E.02149
M204 S1000
G1 X145.705 Y83.867 F10800
M204 S800
;TYPE:External perimeter
G1 F1200
G1 X146.698 Y84.874 E.04433
G1 X147.862 Y86.207 E.05551
G1 X148.945 Y87.608 E.05551
G1 X149.943 Y89.07 E.05551
G1 X150.851 Y90.59 E.05551
G1 X151.666 Y92.161 E.05551
G1 X152.386 Y93.779 E.05551
G1 X153.008 Y95.436 E.05551
G1 X153.53 Y97.128 E.05551
G1 X153.95 Y98.848 E.05551
G1 X154.266 Y100.59 E.05551
G1 X154.477 Y102.348 E.05551
G1 X154.583 Y104.115 E.05551
G1 X154.583 Y105.885 E.05551
G1 X154.477 Y107.652 E.05551
G1 X154.266 Y109.41 E.05551
G1 X153.95 Y111.152 E.05551
G1 X153.53 Y112.872 E.05551
G1 X153.008 Y114.564 E.05551
G1 X152.386 Y116.221 E.05551
G1 X151.666 Y117.839 E.05551
G1 X150.851 Y119.41 E.05551
G1 X149.943 Y120.93 E.05551
G1 X148.945 Y122.392 E.05551
G1 X147.862 Y123.793 E.05551
G1 X146.698 Y125.126 E.05551
G1 X145.455 Y126.387 E.05551
G1 X144.139 Y127.572 E.05551
G1 X142.755 Y128.676 E.05551
G1 X141.308 Y129.695 E.05551
G1 X139.802 Y130.626 E.05551
G1 X138.243 Y131.464 E.05551
G1 X136.636 Y132.209 E.05551
G1 X134.988 Y132.855 E.05551
G1 X133.304 Y133.403 E.05551
G1 X131.591 Y133.848 E.05551
G1 X129.854 Y134.19 E.05551
G1 X128.1 Y134.428 E.05551
G1 X126.334 Y134.56 E.05551
G1 X124.564 Y134.587 E.05551
G1 X122.795 Y134.507 E.05551
G1 X121.035 Y134.322 E.05551
G1 X119.278 Y134.03 E.05584
G1 X117.562 Y133.638 E.05518
G1 X115.863 Y133.142 E.05551
G1 X114.196 Y132.544 E.05551
G1 X112.568 Y131.849 E.05551
G1 X110.985 Y131.057 E.05551
G1 X109.452 Y130.171 E.05551
G1 X107.974 Y129.196 E.05551
G1 X106.558 Y128.134 E.05551
G1 X105.207 Y126.99 E.05551
G1 X103.928 Y125.766 E.05551
G1 X102.723 Y124.468 E.05551
G1 X101.599 Y123.101 E.05551
G1 X100.553 Y121.66 E.05584
G1 X99.605 Y120.177 E.05518
G1 X98.743 Y118.63 E.05551
G1 X97.975 Y117.035 E.05551
G1 X97.304 Y115.397 E.05551
G1 X96.731 Y113.722 E.05551
G1 X96.261 Y112.015 E.05551
G1 X95.892 Y110.283 E.05551
G1 X95.628 Y108.522 E.05584
G1 X95.47 Y106.77 E.05518
G1 X95.417 Y105 E.05551
G1 X95.47 Y103.23 E.05551
G1 X95.629 Y101.467 E.05551
G1 X95.892 Y99.717 E.05551
G1 X96.261 Y97.985 E.05551
G1 X96.731 Y96.278 E.05551
G1 X97.308 Y94.593 E.05584
G1 X97.975 Y92.965 E.05518
G1 X98.743 Y91.37 E.05551
G1 X99.605 Y89.823 E.05551
G1 X100.558 Y88.331 E.05551
G1 X101.599 Y86.899 E.05551
G1 X102.723 Y85.532 E.05551
G1 X103.928 Y84.234 E.05551
G1 X105.207 Y83.01 E.05551
G1 X106.558 Y81.866 E.05551
G1 X107.974 Y80.804 E.05551
G1 X109.452 Y79.829 E.05551
G1 X110.985 Y78.943 E.05551
G1 X112.568 Y78.151 E.05551
G1 X114.196 Y77.456 E.05551
G1 X115.863 Y76.858 E.05551
G1 X117.562 Y76.362 E.05551
G1 X119.288 Y75.968 E.05551
G1 X121.035 Y75.678 E.05551
G1 X122.795 Y75.493 E.05551
G1 X124.574 Y75.414 E.05584
G1 X126.334 Y75.44 E.05518
G1 X128.1 Y75.572 E.05551
G1 X129.854 Y75.81 E.05551
G1 X131.591 Y76.152 E.05551
G1 X133.314 Y76.601 E.05584
G1 X134.988 Y77.145 E.05518
G1 X136.636 Y77.791 E.05551
G1 X138.243 Y78.536 E.05551
G1 X139.802 Y79.374 E.05551
G1 X141.308 Y80.305 E.05551
G1 X142.755 Y81.324 E.05551
G1 X144.139 Y82.428 E.05551
G1 X145.455 Y83.613 E.05551
G1 X145.663 Y83.824 E.0093
M204 S1000
G1 X145.605 Y84.254 F10800
;WIPE_START
G1 F8640
G1 X146.698 Y84.874 E-.34031
G1 X147.862 Y86.207 E-.40879
G1 X147.891 Y86.244 E-.0109
;WIPE_END
G1 E-.04 F2100
G1 Z.6 F720
G1 X147.677 Y86.769 F10800
G1 Z.2 F720
G1 E.8 F2100
M204 S800
;TYPE:Solid infill
;WIDTH:0.421026
M73 P1 R51
G1 F1200
G1 X144.991 Y84.083 E.11941
G1 X143.713 Y82.932 E.0541
G1 X142.359 Y81.852 E.05442
G1 X141.909 Y81.535 E.01731
G1 X148.501 Y88.128 E.29311
G1 X149.386 Y89.426 E.04939
G1 X149.567 Y89.728 E.01108
G1 X140.292 Y80.453 E.41238
G1 X139.472 Y79.946 E.03033
G1 X138.993 Y79.689 E.0171
G1 X150.337 Y91.033 E.5044
G1 X150.914 Y92.145 E.03938
G1 X137.851 Y79.081 E.58083
G1 X136.854 Y78.62 E.03452
G1 X151.383 Y93.149 E.646
G1 X151.803 Y94.103 E.03278
G1 X135.919 Y78.219 E.70627
G1 X135.038 Y77.873 E.02973
G1 X152.124 Y94.959 E.75969
G1 X152.43 Y95.799 E.0281
G1 X134.219 Y77.588 E.80969
G1 X133.427 Y77.331 E.02619
G1 X152.668 Y96.572 E.85552
G1 X152.903 Y97.342 E.0253
G1 X132.678 Y77.117 E.89926
G1 X131.955 Y76.929 E.02349
G1 X153.076 Y98.049 E.93908
G1 X153.248 Y98.757 E.02289
M73 P2 R51
M73 Q2 S52
G1 X131.249 Y76.757 E.97815
G1 X130.583 Y76.626 E.02134
G1 X153.384 Y99.427 E1.01381
G1 X153.503 Y100.081 E.02087
G1 X129.917 Y76.495 E1.04868
G1 X129.286 Y76.399 E.02006
G1 X153.618 Y100.731 E1.08185
G1 X153.691 Y101.339 E.01925
G1 X128.668 Y76.315 E1.1126
G1 X128.049 Y76.231 E.01962
G1 X153.765 Y101.946 E1.14335
G1 X153.828 Y102.545 E.01892
G1 X127.47 Y76.187 E1.17194
G1 X126.892 Y76.144 E.01822
G1 X153.862 Y103.114 E1.19915
G1 X153.896 Y103.682 E.01791
G1 X126.314 Y76.1 E1.22637
G1 X125.771 Y76.092 E.01709
G1 X153.923 Y104.244 E1.25174
G1 X153.923 Y104.779 E.01681
G1 X139.687 Y90.543 E.63298
G1 X139.687 Y91.077 E.01681
G1 X153.923 Y105.314 E.63298
