; generated by PrusaSlicer 2.3.3 on 2021-11-29 at 20:55:12 UTC

; 

; external perimeters extrusion width = 0.45mm
; perimeters extrusion width = 0.45mm
; infill extrusion width = 0.45mm
; solid infill extrusion width = 0.45mm
; top infill extrusion width = 0.40mm
; support material extrusion width = 0.35mm
; first layer extrusion width = 0.42mm

M73 P0 R51
M73 Q0 S51
M201 X1000 Y1000 Z200 E5000 ; sets maximum accelerations, mm/sec^2
M203 X200 Y200 Z12 E120 ; sets maximum feedrates, mm/sec
M204 P1250 R1250 T1250 ; sets acceleration (P, T) and retract acceleration (R), mm/sec^2
M205 X8.00 Y8.00 Z0.40 E4.50 ; sets the jerk limits, mm/sec
M205 S0 T0 ; sets the minimum extruding and travel feed rate, mm/sec
M107
;TYPE:Custom
M862.3 P "MK3S" ; printer model check
M862.1 P0.4 ; nozzle diameter check
M115 U3.10.0 ; tell printer latest fw version
G90 ; use absolute coordinates
M83 ; extruder relative mode
M104 S215 ; set extruder temp
M140 S60 ; set bed temp
M190 S60 ; wait for bed temp
M109 S215 ; wait for extruder temp
G28 W ; home all without mesh bed level
G80 ; mesh bed leveling
G1 Y-3.0 F1000.0 ; go outside print area
G92 E0.0
G1 X60.0 E9.0 F1000.0 ; intro line
G1 X100.0 E12.5 F1000.0 ; intro line
G92 E0.0
M221 S95

; Don't change E values below. Excessive value can damage the printer.
M907 E430 ; set extruder motor current
G21 ; set units to millimeters
G90 ; use absolute coordinates
M83 ; use relative distances for extrusion
M900 K0.05 ; Filament gcode LA 1.5
M900 K30 ; Filament gcode LA 1.0
;LAYER_CHANGE
;Z:0.2
;HEIGHT:0.2
;BEFORE_LAYER_CHANGE
G92 E0.0
;0.2


G1 E-0.80000 F2100.000
G1 Z0.400 F10800.000
;AFTER_LAYER_CHANGE
;0.2
G1 X100.625 Y83.697
G1 Z0.200
G1 E0.80000 F2100.000
M204 S1000
;TYPE:Skirt
;WIDTH:0.42
G1 F1200.000
G1 X101.943 Y82.277 E0.06074
G1 X103.340 Y80.941 E0.06062
G1 X104.768 Y79.729 E0.05871
G1 X106.429 Y78.485 E0.06507
G1 X107.988 Y77.457 E0.05855
G1 X109.665 Y76.488 E0.06074
G1 X111.394 Y75.623 E0.06062
G1 X113.112 Y74.888 E0.05859
G1 X115.065 Y74.188 E0.06503
G1 X116.862 Y73.664 E0.05871
G1 X118.747 Y73.234 E0.06062
G1 X120.658 Y72.916 E0.06074
G1 X122.516 Y72.720 E0.05859
G1 X124.562 Y72.626 E0.06420
G1 X126.457 Y72.655 E0.05942
G1 X128.324 Y72.794 E0.05871
G1 X130.381 Y73.073 E0.06507
G1 X132.212 Y73.435 E0.05855
G1 X134.087 Y73.922 E0.06074
G1 X135.926 Y74.520 E0.06062
G1 X137.669 Y75.203 E0.05871
G1 X139.548 Y76.073 E0.06491
G1 X141.196 Y76.961 E0.05871
G1 X142.844 Y77.980 E0.06074
G1 X144.425 Y79.092 E0.06061
G1 X145.890 Y80.259 E0.05871
G1 X147.432 Y81.648 E0.06507
G1 X148.742 Y82.979 E0.05855
G1 X150.016 Y84.438 E0.06074
G1 X151.199 Y85.967 E0.06062
G1 X152.255 Y87.514 E0.05871
G1 X153.316 Y89.291 E0.06491
G1 X154.178 Y90.953 E0.05871
G1 X154.966 Y92.723 E0.06074
G1 X155.645 Y94.533 E0.06062
G1 X156.198 Y96.322 E0.05871
G1 X156.690 Y98.338 E0.06507
G1 X157.022 Y100.176 E0.05855
G1 X157.254 Y102.099 E0.06074
G1 X157.369 Y104.029 E0.06062
G1 X157.370 Y105.897 E0.05859
G1 X157.247 Y107.968 E0.06503
G1 X157.022 Y109.827 E0.05871
G1 X156.676 Y111.733 E0.06074
G1 X156.218 Y113.611 E0.06062
G1 X155.667 Y115.401 E0.05871
G1 X154.939 Y117.339 E0.06492
G1 X154.177 Y119.049 E0.05871
G1 X153.285 Y120.768 E0.06074
G1 X152.293 Y122.428 E0.06062
G1 X151.239 Y123.976 E0.05871
G1 X149.973 Y125.614 E0.06491
G1 X148.740 Y127.023 E0.05871
G1 X147.383 Y128.400 E0.06062
G1 X145.850 Y129.773 E0.06453
G1 X144.426 Y130.907 E0.05706
G1 X142.842 Y132.022 E0.06074
G1 X141.198 Y133.038 E0.06062
G1 X139.549 Y133.926 E0.05871
G1 X137.666 Y134.799 E0.06507
G1 X135.927 Y135.480 E0.05855
G1 X134.085 Y136.078 E0.06074
G1 X132.214 Y136.565 E0.06062
G1 X130.381 Y136.927 E0.05859
G1 X128.325 Y137.206 E0.06503
G1 X126.458 Y137.345 E0.05871
G1 X124.559 Y137.374 E0.05955
G1 X122.516 Y137.280 E0.06412
G1 X120.659 Y137.084 E0.05855
G1 X118.748 Y136.766 E0.06074
G1 X116.864 Y136.336 E0.06062
G1 X115.066 Y135.812 E0.05871
G1 X113.112 Y135.112 E0.06507
G1 X111.396 Y134.377 E0.05855
G1 X109.663 Y133.510 E0.06074
G1 X107.989 Y132.544 E0.06062
G1 X106.425 Y131.513 E0.05871
G1 X104.769 Y130.272 E0.06491
G1 X103.341 Y129.060 E0.05871
G1 X101.944 Y127.724 E0.06062
G1 X100.578 Y126.248 E0.06305
G1 X99.393 Y124.805 E0.05855
G1 X98.255 Y123.238 E0.06074
G1 X97.214 Y121.608 E0.06062
G1 X96.301 Y119.974 E0.05871
G1 X95.401 Y118.104 E0.06507
G1 X94.694 Y116.375 E0.05855
G1 X94.068 Y114.542 E0.06074
G1 X93.553 Y112.679 E0.06062
G1 X93.163 Y110.847 E0.05871
G1 X92.854 Y108.795 E0.06507
G1 X92.688 Y106.935 E0.05855
G1 X92.630 Y104.999 E0.06074
G1 X92.687 Y103.066 E0.06062
G1 X92.854 Y101.201 E0.05871
G1 X93.164 Y99.149 E0.06507
G1 X93.553 Y97.323 E0.05855
G1 X94.068 Y95.455 E0.06074
G1 X94.693 Y93.626 E0.06062
G1 X95.401 Y91.896 E0.05859
G1 X96.301 Y90.028 E0.06503
G1 X97.213 Y88.393 E0.05871
G1 X98.254 Y86.763 E0.06062
G1 X99.438 Y85.139 E0.06305
G1 X100.587 Y83.743 E0.05667
; printing object LEDBase1.stl id:0 copy 0
;WIPE_START
G1 F8640.000
G1 X101.943 Y82.277 E-0.46112
G1 X102.878 Y81.382 E-0.29888
;WIPE_END
G1 E-0.04000 F2100.000
G1 Z0.600 F10800.000
G1 X119.220 Y99.213
G1 Z0.200
G1 E0.80000 F2100.000
;TYPE:Perimeter
G1 F1200.000
G1 X130.794 Y99.213 E0.36290
G1 X130.794 Y110.787 E0.36290
G1 X119.220 Y110.787 E0.36290
G1 X119.220 Y99.273 E0.36102
G1 X119.597 Y99.590 F10800.000
;TYPE:External perimeter
G1 F1200.000
G1 X130.417 Y99.590 E0.33925
G1 X130.417 Y110.410 E0.33925
G1 X119.597 Y110.410 E0.33925
G1 X119.597 Y99.650 E0.33737
G1 X119.493 Y99.204 F10800.000
;WIPE_START
G1 F8640.000
G1 X122.888 Y99.632 E-0.76000
;WIPE_END
G1 E-0.04000 F2100.000
G1 Z0.600 F10800.000
G1 X104.674 Y84.042
G1 Z0.200
G1 E0.80000 F2100.000
;TYPE:Perimeter
G1 F1200.000
G1 X105.460 Y83.291 E0.03409
G1 X106.793 Y82.161 E0.05480
G1 X108.191 Y81.112 E0.05480
G1 X109.650 Y80.149 E0.05480
G1 X111.164 Y79.276 E0.05480
G1 X112.727 Y78.494 E0.05480
G1 X114.334 Y77.807 E0.05480
G1 X115.980 Y77.217 E0.05480
G1 X117.657 Y76.727 E0.05480
G1 X119.361 Y76.338 E0.05480
G1 X121.085 Y76.052 E0.05480
G1 X122.824 Y75.869 E0.05480
G1 X124.579 Y75.791 E0.05511
G1 X126.317 Y75.817 E0.05450
G1 X128.060 Y75.947 E0.05480
G1 X129.792 Y76.182 E0.05480
G1 X131.507 Y76.520 E0.05480
G1 X133.208 Y76.963 E0.05511
G1 X134.861 Y77.500 E0.05450
G1 X136.488 Y78.138 E0.05480
G1 X138.074 Y78.873 E0.05480
G1 X139.613 Y79.701 E0.05480
G1 X141.100 Y80.620 E0.05480
G1 X142.529 Y81.626 E0.05480
G1 X143.896 Y82.716 E0.05480
G1 X145.194 Y83.885 E0.05480
G1 X146.421 Y85.130 E0.05480
G1 X147.571 Y86.447 E0.05480
G1 X148.640 Y87.829 E0.05480
G1 X149.625 Y89.273 E0.05480
G1 X150.521 Y90.774 E0.05480
G1 X151.326 Y92.325 E0.05480
G1 X152.037 Y93.922 E0.05480
G1 X152.651 Y95.558 E0.05480
G1 X153.167 Y97.228 E0.05480
G1 X153.581 Y98.926 E0.05480
G1 X153.893 Y100.646 E0.05480
G1 X154.102 Y102.381 E0.05480
G1 X154.206 Y104.126 E0.05480
G1 X154.206 Y105.874 E0.05480
G1 X154.102 Y107.619 E0.05480
G1 X153.893 Y109.354 E0.05480
G1 X153.581 Y111.074 E0.05480
G1 X153.167 Y112.772 E0.05480
G1 X152.651 Y114.442 E0.05480
G1 X152.037 Y116.078 E0.05480
G1 X151.326 Y117.675 E0.05480
G1 X150.521 Y119.226 E0.05480
G1 X149.625 Y120.727 E0.05480
G1 X148.640 Y122.171 E0.05480
G1 X147.571 Y123.553 E0.05480
G1 X146.421 Y124.870 E0.05480
G1 X145.194 Y126.115 E0.05480
G1 X143.896 Y127.284 E0.05480
G1 X142.529 Y128.374 E0.05480
G1 X141.100 Y129.380 E0.05480
G1 X139.613 Y130.299 E0.05480
G1 X138.074 Y131.127 E0.05480
G1 X136.488 Y131.862 E0.05480
G1 X134.861 Y132.500 E0.05480
G1 X133.199 Y133.040 E0.05480
G1 X131.507 Y133.480 E0.05480
G1 X129.792 Y133.818 E0.05480
G1 X128.060 Y134.053 E0.05480
G1 X126.317 Y134.183 E0.05480
G1 X124.570 Y134.209 E0.05480
G1 X122.824 Y134.131 E0.05480
G1 X121.955 Y134.040 E0.02740
G1 X121.085 Y133.948 E0.02740
G1 X119.361 Y133.662 E0.05480
G1 X117.657 Y133.273 E0.05480
G1 X115.980 Y132.783 E0.05480
G1 X114.334 Y132.193 E0.05480
G1 X112.727 Y131.506 E0.05480
G1 X111.164 Y130.724 E0.05480
G1 X109.650 Y129.851 E0.05480
G1 X108.191 Y128.888 E0.05480
G1 X106.793 Y127.839 E0.05480
G1 X105.460 Y126.709 E0.05480
G1 X104.196 Y125.501 E0.05480
G1 X103.008 Y124.220 E0.05480
G1 X101.898 Y122.870 E0.05480
G1 X100.870 Y121.456 E0.05480
G1 X99.929 Y119.983 E0.05480
G1 X99.078 Y118.457 E0.05480
G1 X98.320 Y116.882 E0.05480
G1 X97.654 Y115.255 E0.05511
G1 X97.092 Y113.611 E0.05450
M73 Q1 S51
G1 X96.627 Y111.926 E0.05480
G1 X96.264 Y110.216 E0.05480
G1 X96.003 Y108.488 E0.05480
M73 P1 R51
G1 X95.846 Y106.747 E0.05480
G1 X95.794 Y105.000 E0.05480
G1 X95.846 Y103.253 E0.05480
G1 X96.003 Y101.512 E0.05480
G1 X96.264 Y99.784 E0.05480
G1 X96.627 Y98.074 E0.05480
G1 X97.092 Y96.389 E0.05480
G1 X97.657 Y94.735 E0.05480
G1 X98.320 Y93.118 E0.05480
G1 X99.078 Y91.543 E0.05480
G1 X99.929 Y90.017 E0.05480
G1 X100.870 Y88.544 E0.05480
G1 X101.904 Y87.122 E0.05511
G1 X103.008 Y85.780 E0.05450
G1 X104.196 Y84.499 E0.05480
G1 X104.631 Y84.084 E0.01883
G1 X104.370 Y83.811 F10800.000
;TYPE:External perimeter
G1 F1200.000
G1 X105.207 Y83.010 E0.03632
G1 X106.558 Y81.866 E0.05551
G1 X107.974 Y80.804 E0.05551
G1 X109.452 Y79.829 E0.05551
G1 X110.985 Y78.943 E0.05551
G1 X112.568 Y78.151 E0.05551
G1 X114.196 Y77.456 E0.05551
G1 X115.863 Y76.858 E0.05551
G1 X117.562 Y76.362 E0.05551
G1 X119.288 Y75.968 E0.05551
G1 X121.035 Y75.678 E0.05551
G1 X122.795 Y75.493 E0.05551
G1 X124.574 Y75.414 E0.05582
G1 X126.334 Y75.440 E0.05520
G1 X128.100 Y75.572 E0.05551
G1 X129.854 Y75.810 E0.05551
G1 X131.591 Y76.152 E0.05551
G1 X133.314 Y76.600 E0.05582
G1 X134.988 Y77.145 E0.05520
G1 X136.636 Y77.791 E0.05551
G1 X138.243 Y78.536 E0.05551
G1 X139.802 Y79.374 E0.05551
G1 X141.308 Y80.305 E0.05551
G1 X142.755 Y81.324 E0.05551
G1 X144.139 Y82.428 E0.05551
G1 X145.455 Y83.613 E0.05551
G1 X146.698 Y84.874 E0.05551
G1 X147.862 Y86.207 E0.05551
G1 X148.945 Y87.608 E0.05551
G1 X149.943 Y89.070 E0.05551
G1 X150.851 Y90.590 E0.05551
G1 X151.666 Y92.161 E0.05551
G1 X152.386 Y93.779 E0.05551
G1 X153.008 Y95.436 E0.05551
G1 X153.530 Y97.128 E0.05551
G1 X153.950 Y98.848 E0.05551
G1 X154.266 Y100.590 E0.05551
G1 X154.477 Y102.348 E0.05551
G1 X154.583 Y104.115 E0.05551
G1 X154.583 Y105.885 E0.05551
G1 X154.477 Y107.652 E0.05551
G1 X154.266 Y109.410 E0.05551
G1 X153.950 Y111.152 E0.05551
G1 X153.530 Y112.872 E0.05551
G1 X153.008 Y114.564 E0.05551
G1 X152.386 Y116.221 E0.05551
G1 X151.666 Y117.839 E0.05551
G1 X150.851 Y119.410 E0.05551
G1 X149.943 Y120.930 E0.05551
G1 X148.945 Y122.392 E0.05551
G1 X147.862 Y123.793 E0.05551
G1 X146.698 Y125.126 E0.05551
G1 X145.455 Y126.387 E0.05551
G1 X144.139 Y127.572 E0.05551
G1 X142.755 Y128.676 E0.05551
G1 X141.308 Y129.695 E0.05551
G1 X139.802 Y130.626 E0.05551
G1 X138.243 Y131.464 E0.05551
G1 X136.636 Y132.209 E0.05551
G1 X134.988 Y132.855 E0.05551
G1 X133.304 Y133.403 E0.05551
G1 X131.591 Y133.848 E0.05551
G1 X129.854 Y134.190 E0.05551
G1 X128.100 Y134.428 E0.05551
G1 X126.334 Y134.560 E0.05551
G1 X124.564 Y134.587 E0.05551
G1 X122.795 Y134.507 E0.05551
G1 X121.915 Y134.415 E0.02775
G1 X121.035 Y134.322 E0.02775
G1 X119.288 Y134.032 E0.05551
G1 X117.562 Y133.638 E0.05551
G1 X115.863 Y133.142 E0.05551
G1 X114.196 Y132.544 E0.05551
G1 X112.568 Y131.849 E0.05551
G1 X110.985 Y131.057 E0.05551
G1 X109.452 Y130.171 E0.05551
G1 X107.974 Y129.196 E0.05551
G1 X106.558 Y128.134 E0.05551
G1 X105.207 Y126.990 E0.05551
G1 X103.928 Y125.766 E0.05551
G1 X102.723 Y124.468 E0.05551
G1 X101.599 Y123.101 E0.05551
G1 X100.558 Y121.669 E0.05551
G1 X99.605 Y120.177 E0.05551
G1 X98.743 Y118.630 E0.05551
G1 X97.975 Y117.035 E0.05551
G1 X97.301 Y115.388 E0.05581
G1 X96.731 Y113.722 E0.05520
G1 X96.260 Y112.015 E0.05551
G1 X95.892 Y110.283 E0.05551
G1 X95.629 Y108.533 E0.05551
G1 X95.470 Y106.770 E0.05551
G1 X95.417 Y105.000 E0.05551
G1 X95.470 Y103.230 E0.05551
G1 X95.629 Y101.467 E0.05551
G1 X95.892 Y99.717 E0.05551
G1 X96.260 Y97.985 E0.05551
G1 X96.731 Y96.278 E0.05551
G1 X97.304 Y94.603 E0.05551
G1 X97.975 Y92.965 E0.05551
G1 X98.743 Y91.370 E0.05551
G1 X99.605 Y89.823 E0.05551
G1 X100.558 Y88.331 E0.05551
G1 X101.605 Y86.892 E0.05582
G1 X102.723 Y85.532 E0.05520
G1 X103.928 Y84.234 E0.05551
G1 X104.327 Y83.852 E0.01731
G1 X104.756 Y83.917 F10800.000
;WIPE_START
G1 F8640.000
G1 X105.207 Y83.010 E-0.28134
G1 X106.558 Y81.866 E-0.40879
G1 X106.800 Y81.684 E-0.06988
;WIPE_END
G1 E-0.04000 F2100.000
G1 Z0.600 F10800.000
G1 X147.677 Y86.769
G1 Z0.200
G1 E0.80000 F2100.000
;TYPE:Solid infill
;WIDTH:0.421026
G1 F1200.000
G1 X144.991 Y84.083 E0.11941
G1 X143.713 Y82.932 E0.05410
G1 X142.359 Y81.852 E0.05442
G1 X141.909 Y81.535 E0.01731
G1 X148.501 Y88.128 E0.29311
G1 X149.386 Y89.426 E0.04939
G1 X149.567 Y89.728 E0.01107
G1 X140.292 Y80.453 E0.41237
G1 X139.472 Y79.946 E0.03033
G1 X138.993 Y79.689 E0.01710
G1 X150.337 Y91.033 E0.50440
G1 X150.914 Y92.145 E0.03938
G1 X137.851 Y79.081 E0.58082
G1 X136.854 Y78.620 E0.03452
G1 X151.383 Y93.149 E0.64599
G1 X151.803 Y94.103 E0.03278
G1 X135.919 Y78.219 E0.70627
G1 X135.038 Y77.873 E0.02973
G1 X152.125 Y94.959 E0.75969
G1 X152.430 Y95.799 E0.02810
G1 X134.219 Y77.588 E0.80969
G1 X133.427 Y77.331 E0.02619
G1 X152.668 Y96.572 E0.85552
G1 X152.903 Y97.342 E0.02530
G1 X132.678 Y77.117 E0.89926
M73 P1 R50
G1 X131.955 Y76.929 E0.02349
G1 X153.076 Y98.049 E0.93908
G1 X153.248 Y98.757 E0.02289
G1 X131.249 Y76.757 E0.97815
G1 X130.583 Y76.626 E0.02134
G1 X153.384 Y99.427 E1.01381
G1 X153.503 Y100.081 E0.02087
G1 X129.917 Y76.495 E1.04868
M73 Q1 S50
G1 X129.286 Y76.399 E0.02006
G1 X153.618 Y100.731 E1.08185
M73 P2 R50
M73 Q2 S50
G1 X153.691 Y101.339 E0.01925
G1 X128.668 Y76.315 E1.11260
G1 X128.049 Y76.231 E0.01962
G1 X153.765 Y101.946 E1.14335
G1 X153.828 Y102.545 E0.01892
G1 X127.470 Y76.187 E1.17194
G1 X126.892 Y76.144 E0.01822
G1 X153.862 Y103.114 E1.19916
G1 X153.896 Y103.682 E0.01791
G1 X126.314 Y76.100 E1.22637
G1 X125.771 Y76.092 E0.01709
G1 X153.923 Y104.244 E1.25174
G1 X153.923 Y104.779 E0.01681
G1 X125.228 Y76.083 E1.27587
G1 X124.685 Y76.075 E0.01707
G1 X153.923 Y105.314 E1.30001
G1 X153.923 Y105.848 E0.01681
G1 X124.167 Y76.092 E1.32303
G1 X123.655 Y76.115 E0.01611
G1 X153.894 Y106.354 E1.34449
G1 X153.864 Y106.858 E0.01589
G1 X123.143 Y76.138 E1.36590
G1 X122.643 Y76.172 E0.01576
G1 X153.834 Y107.363 E1.38680
G1 X153.789 Y107.853 E0.01546
G1 X122.159 Y76.223 E1.40632
G1 X121.676 Y76.274 E0.01530
G1 X153.731 Y108.330 E1.42528
G1 X153.674 Y108.807 E0.01511
G1 X121.192 Y76.325 E1.44424
M73 P3 R50
M73 Q3 S50
G1 X120.730 Y76.398 E0.01471
G1 X153.616 Y109.285 E1.46223
G1 X153.536 Y109.739 E0.01450
G1 X120.271 Y76.474 E1.47903
G1 X119.812 Y76.550 E0.01461
G1 X153.454 Y110.191 E1.49577
G1 X153.372 Y110.644 E0.01446
G1 X119.357 Y76.629 E1.51237
G1 X118.922 Y76.729 E0.01404
G1 X153.285 Y111.092 E1.52789
G1 X153.180 Y111.522 E0.01391
G1 X118.486 Y76.828 E1.54258
G1 X118.051 Y76.927 E0.01404
G1 X153.075 Y111.952 E1.55728
G1 X152.971 Y112.382 E0.01391
G1 X117.621 Y77.032 E1.57172
M73 P3 R49
G1 X117.207 Y77.153 E0.01355
G1 X152.860 Y112.806 E1.58520
G1 X152.734 Y113.215 E0.01345
G1 X116.793 Y77.274 E1.59800
G1 X116.380 Y77.395 E0.01355
G1 X152.608 Y113.623 E1.61079
M73 Q3 S49
G1 X152.482 Y114.032 E0.01345
G1 X115.971 Y77.521 E1.62337
G1 X115.577 Y77.662 E0.01315
G1 X152.351 Y114.436 E1.63507
M73 P4 R49
M73 Q4 S49
G1 X152.206 Y114.825 E0.01306
G1 X115.183 Y77.803 E1.64609
G1 X114.790 Y77.944 E0.01315
G1 X152.060 Y115.214 E1.65710
G1 X151.914 Y115.603 E0.01306
G1 X114.398 Y78.087 E1.66803
G1 X114.024 Y78.247 E0.01281
G1 X151.767 Y115.990 E1.67815
G1 X151.602 Y116.360 E0.01273
G1 X113.649 Y78.407 E1.68749
G1 X113.274 Y78.567 E0.01281
G1 X151.437 Y116.730 E1.69682
G1 X151.273 Y117.100 E0.01273
G1 X112.900 Y78.727 E1.70615
G1 X112.541 Y78.903 E0.01257
G1 X151.108 Y117.470 E1.71479
G1 X150.929 Y117.826 E0.01252
G1 X112.184 Y79.081 E1.72269
G1 X111.828 Y79.260 E0.01253
G1 X150.746 Y118.178 E1.73042
G1 X150.564 Y118.530 E0.01247
G1 X111.471 Y79.438 E1.73814
M73 P5 R49
M73 Q5 S49
G1 X111.124 Y79.625 E0.01241
G1 X130.429 Y98.930 E0.85834
G1 X129.894 Y98.930 E0.01681
G1 X110.785 Y79.821 E0.84964
G1 X110.446 Y80.017 E0.01231
G1 X129.359 Y98.930 E0.84094
G1 X128.825 Y98.930 E0.01681
G1 X110.107 Y80.212 E0.83224
