; generated by PrusaSlicer 2.4.0+win64 on 2022-01-09 at 16:10:43 UTC

; 

; external perimeters extrusion width = 0.45mm
; perimeters extrusion width = 0.45mm
; infill extrusion width = 0.45mm
; solid infill extrusion width = 0.45mm
; top infill extrusion width = 0.40mm
; support material extrusion width = 0.35mm
; first layer extrusion width = 0.42mm

M73 P0 R10
M73 Q0 S10
M201 X1000 Y1000 Z200 E5000 ; sets maximum accelerations, mm/sec^2
M203 X200 Y200 Z12 E120 ; sets maximum feedrates, mm/sec
M204 P1250 R1250 T1250 ; sets acceleration (P, T) and retract acceleration (R), mm/sec^2
M205 X8.00 Y8.00 Z0.40 E4.50 ; sets the jerk limits, mm/sec
M205 S0 T0 ; sets the minimum extruding and travel feed rate, mm/sec
M107
;TYPE:Custom
M862.3 P "MK3S" ; printer model check
M862.1 P0.4 ; nozzle diameter check
M115 U3.10.0 ; tell printer latest fw version
G90 ; use absolute coordinates
M83 ; extruder relative mode
M104 S215 ; set extruder temp
M140 S60 ; set bed temp
M190 S60 ; wait for bed temp
M109 S215 ; wait for extruder temp
G28 W ; home all without mesh bed level
G80 ; mesh bed leveling
G1 Z0.2 F720
G1 Y-3 F1000 ; go outside print area
G92 E0
G1 X60 E9 F1000 ; intro line
G1 X100 E12.5 F1000 ; intro line
G92 E0
M221 S95

; Don't change E values below. Excessive value can damage the printer.

M907 E538 ; set extruder motor current
G21 ; set units to millimeters
G90 ; use absolute coordinates
M83 ; use relative distances for extrusion
M900 K0.05 ; Filament gcode LA 1.5
M900 K30 ; Filament gcode LA 1.0
M107
;LAYER_CHANGE
;Z:0.2
;HEIGHT:0.2
;BEFORE_LAYER_CHANGE
G92 E0.0
;0.2


G1 E-.8 F2100
G1 Z.4 F720
;AFTER_LAYER_CHANGE
;0.2
G1 X110.663 Y101.066 F10800
G1 Z.2 F720
M73 P1 R10
M73 Q1 S10
G1 E.8 F2100
M204 S800
;TYPE:Skirt/Brim
;WIDTH:0.42
G1 F1200
G1 X121.055 Y90.793 E.45818
G1 X122.339 Y90.076 E.04612
G1 X123.81 Y90.122 E.04612
G1 X124.902 Y90.768 E.0398
G1 X139.312 Y104.646 E.62728
G1 X140.06 Y105.912 E.04612
G1 X140.05 Y107.383 E.04612
G1 X139.337 Y108.589 E.04391
G1 X128.595 Y119.207 E.47358
G1 X127.311 Y119.924 E.04612
G1 X125.841 Y119.878 E.04612
G1 X124.7 Y119.185 E.04186
G1 X110.64 Y104.961 E.62709
G1 X109.923 Y103.677 E.04612
G1 X109.969 Y102.207 E.04612
G1 X110.632 Y101.117 E.03998
M204 S1000
G1 X110.928 Y101.334 F10800
M204 S800
G1 F1200
G1 X121.32 Y91.061 E.45818
G1 X122.525 Y90.421 E.04278
G1 X123.884 Y90.548 E.04278
G1 X124.641 Y91.04 E.02829
G1 X139.05 Y104.918 E.62728
G1 X139.72 Y106.107 E.04278
M73 P2 R10
M73 Q2 S10
G1 X139.626 Y107.468 E.04278
G1 X139.072 Y108.321 E.03187
G1 X128.33 Y118.939 E.47358
G1 X127.125 Y119.579 E.04278
G1 X125.767 Y119.452 E.04278
G1 X124.969 Y118.919 E.03008
G1 X110.908 Y104.696 E.62709
G1 X110.268 Y103.491 E.04278
G1 X110.396 Y102.133 E.04278
G1 X110.895 Y101.384 E.0282
M204 S1000
; printing object LEDStand.stl id:0 copy 0
;WIPE_START
G1 F8640
G1 X113.234 Y99.068 E-.76
;WIPE_END
G1 E-.04 F2100
G1 Z.6 F720
G1 X132.144 Y107.089 F10800
G1 Z.2 F720
G1 E.8 F2100
M204 S800
;TYPE:External perimeter
G1 F1200
G1 X132.23 Y106.806 E.00927
G1 X132.372 Y106.546 E.00927
G1 X132.564 Y106.317 E.00938
G1 X132.805 Y106.141 E.00937
G1 X133.078 Y106.018 E.00939
G1 X133.374 Y105.974 E.00938
G1 X133.654 Y105.998 E.00879
G1 X133.909 Y106.062 E.00826
G1 X134.348 Y106.25 E.01497
G1 X134.567 Y106.386 E.00807
G1 X134.781 Y106.562 E.0087
G1 X134.96 Y106.802 E.00938
G1 X135.067 Y107.084 E.00945
G1 X135.105 Y107.382 E.00943
G1 X135.067 Y107.681 E.00944
G1 X134.961 Y107.96 E.00935
G1 X134.799 Y108.192 E.00887
G1 X134.623 Y108.387 E.00825
G1 X134.427 Y108.562 E.00822
G1 X134.197 Y108.723 E.0088
G1 X133.921 Y108.833 E.00933
G1 X133.627 Y108.874 E.0093
G1 X133.331 Y108.856 E.00932
G1 X133.045 Y108.771 E.00933
G1 X132.784 Y108.633 E.00926
G1 X132.555 Y108.446 E.00926
G1 X132.368 Y108.218 E.00925
G1 X132.229 Y107.958 E.00925
G1 X132.144 Y107.676 E.00925
G1 X132.115 Y107.382 E.00925
G1 X132.138 Y107.148 E.00737
M204 S1000
G1 X131.921 Y106.894 F10800
;WIPE_START
G1 F8640
G1 X132.23 Y106.806 E-.08193
G1 X132.372 Y106.546 E-.0683
G1 X132.564 Y106.317 E-.06909
G1 X132.805 Y106.141 E-.06897
G1 X133.078 Y106.018 E-.06915
G1 X133.374 Y105.974 E-.06907
G1 X133.654 Y105.998 E-.0647
G1 X133.909 Y106.062 E-.06086
G1 X134.348 Y106.25 E-.11027
G1 X134.567 Y106.386 E-.05942
G1 X134.695 Y106.491 E-.03825
;WIPE_END
G1 E-.04 F2100
G1 Z.6 F720
G1 X135.973 Y107.016 F10800
G1 Z.2 F720
G1 E.8 F2100
M204 S800
;TYPE:Perimeter
G1 F1200
G1 X135.477 Y107.442 E.0205
G1 X135.485 Y107.382 E.0019
G1 X135.435 Y106.992 E.01233
G1 X135.358 Y106.79 E.00679
G1 X135.917 Y106.995 E.01866
M204 S1000
;WIPE_START
G1 F8640
G1 X135.477 Y107.442 E-.14472
G1 X135.485 Y107.382 E-.01397
G1 X135.435 Y106.992 E-.09083
G1 X135.358 Y106.79 E-.04997
G1 X135.917 Y106.995 E-.13742
;WIPE_END
G1 E-.36308 F2100
G1 Z.6 F720
G1 X122.713 Y94.188 F10800
G1 Z.2 F720
G1 E.8 F2100
M204 S800
G1 F1200
G1 X122.553 Y94.137 E.00528
G1 X122.645 Y94.061 E.00374
G1 X122.685 Y94.135 E.00263
M204 S1000
G1 X122.557 Y94.534 F10800
M204 S800
;TYPE:External perimeter
G1 F1200
G1 X122.744 Y94.594 E.00616
G1 X122.989 Y94.744 E.00901
G1 X123.302 Y95.129 E.01556
G1 X123.423 Y95.355 E.00804
G1 X123.496 Y95.596 E.00789
G1 X123.568 Y96.078 E.01527
G1 X123.544 Y96.365 E.00903
G1 X123.449 Y96.65 E.00944
G1 X123.277 Y96.9 E.0095
G1 X123.055 Y97.104 E.00945
G1 X122.792 Y97.249 E.00943
G1 X122.508 Y97.338 E.00932
G1 X122.213 Y97.368 E.00932
G1 X121.918 Y97.339 E.00929
G1 X121.633 Y97.252 E.00932
G1 X121.372 Y97.109 E.00933
G1 X121.143 Y96.914 E.00944
G1 X120.967 Y96.668 E.00948
G1 X120.851 Y96.389 E.00948
G1 X120.816 Y96.087 E.00954
G1 X120.863 Y95.808 E.00886
G1 X121.002 Y95.355 E.01487
G1 X121.123 Y95.128 E.00804
G1 X121.286 Y94.93 E.00805
G1 X121.485 Y94.767 E.00805
G1 X121.712 Y94.645 E.00808
G1 X122.182 Y94.507 E.01536
G1 X122.5 Y94.516 E.00997
M204 S1000
G1 X122.682 Y94.382 F10800
;WIPE_START
G1 F8640
G1 X122.744 Y94.594 E-.0592
G1 X122.989 Y94.744 E-.06637
G1 X123.302 Y95.129 E-.1146
G1 X123.423 Y95.355 E-.05921
G1 X123.496 Y95.596 E-.05808
G1 X123.568 Y96.078 E-.11248
G1 X123.544 Y96.365 E-.06653
G1 X123.449 Y96.65 E-.0695
G1 X123.277 Y96.9 E-.06997
G1 X123.055 Y97.104 E-.06957
G1 X123 Y97.134 E-.01449
;WIPE_END
G1 E-.04 F2100
G1 Z.6 F720
G1 X120.482 Y96.484 F10800
G1 Z.2 F720
G1 E.8 F2100
M204 S800
;TYPE:Perimeter
G1 F1200
G1 X120.635 Y96.853 E.01249
G1 X120.863 Y97.172 E.0123
G1 X121.158 Y97.421 E.01211
G1 X121.486 Y97.601 E.01175
G1 X121.844 Y97.71 E.01172
G1 X122.213 Y97.747 E.01163
G1 X122.584 Y97.71 E.0117
G1 X122.941 Y97.598 E.01173
G1 X123.278 Y97.412 E.01205
G1 X123.563 Y97.148 E.01218
G1 X123.79 Y96.82 E.01251
G1 X123.822 Y96.723 E.00321
G1 X123.963 Y97.038 E.01081
G1 X124.199 Y97.487 E.01591
G1 X124.716 Y98.334 E.03111
G1 X125.27 Y99.151 E.03095
G1 X125.875 Y99.959 E.03167
G1 X126.487 Y100.702 E.03017
M73 Q3 S10
G1 X127.148 Y101.434 E.03093
G1 X127.842 Y102.135 E.03093
G1 X128.568 Y102.803 E.03093
G1 X129.325 Y103.436 E.03093
G1 X130.109 Y104.033 E.03093
G1 X130.921 Y104.594 E.03093
G1 X131.759 Y105.117 E.03099
G1 X132.64 Y105.603 E.03153
M73 P3 R10
G1 X132.868 Y105.7 E.00775
G1 X132.615 Y105.814 E.00869
G1 X132.305 Y106.039 E.01203
G1 X132.059 Y106.332 E.012
G1 X131.88 Y106.659 E.01167
G1 X131.772 Y107.015 E.01166
G1 X131.736 Y107.382 E.01158
G1 X131.772 Y107.75 E.01158
G1 X131.879 Y108.103 E.01157
G1 X132.053 Y108.429 E.01158
G1 X132.288 Y108.714 E.01158
G1 X132.574 Y108.949 E.01163
G1 X132.902 Y109.122 E.01163
G1 X133.265 Y109.229 E.01184
G1 X133.64 Y109.252 E.01178
G1 X126.666 Y116.135 E.30723
G1 X113.712 Y103.031 E.57775
G1 X120.092 Y96.714 E.28149
G1 X120.459 Y96.287 E.01768
G1 X120.475 Y96.425 E.00436
M204 S1000
;WIPE_START
G1 F8640
G1 X120.635 Y96.853 E-.1054
G1 X120.863 Y97.172 E-.09059
G1 X121.158 Y97.421 E-.08916
G1 X121.486 Y97.601 E-.08652
G1 X121.844 Y97.71 E-.08627
G1 X122.213 Y97.747 E-.08568
G1 X122.584 Y97.71 E-.08617
G1 X122.941 Y97.598 E-.0864
G1 X123.107 Y97.506 E-.04382
;WIPE_END
G1 E-.04 F2100
G1 Z.6 F720
G1 X122.799 Y93.448 F10800
G1 Z.2 F720
G1 E.8 F2100
M204 S800
;TYPE:External perimeter
G1 F1200
G1 X122.933 Y93.8 E.0118
G1 X123.171 Y94.243 E.01579
G1 X123.425 Y94.65 E.01505
G1 X123.625 Y95.065 E.01442
G1 X123.81 Y95.49 E.01455
G1 X123.967 Y95.925 E.0145
G1 X124.102 Y96.426 E.01625
G1 X124.303 Y96.873 E.01536
G1 X124.527 Y97.301 E.01516
G1 X125.033 Y98.13 E.03044
G1 X125.577 Y98.932 E.03039
G1 X126.172 Y99.726 E.03112
G1 X126.772 Y100.456 E.02963
G1 X127.422 Y101.175 E.03038
G1 X128.104 Y101.863 E.03038
G1 X128.817 Y102.519 E.03038
G1 X129.56 Y103.141 E.03038
G1 X130.331 Y103.728 E.03038
G1 X131.128 Y104.279 E.03038
G1 X131.951 Y104.792 E.0304
G1 X132.805 Y105.264 E.03059
G1 X133.265 Y105.458 E.01568
G1 X134.176 Y105.757 E.03004
G1 X134.59 Y105.95 E.01432
G1 X135.441 Y106.418 E.03047
G1 X136.363 Y106.758 E.03081
G1 X136.692 Y106.851 E.01072
G1 X136.499 Y107.1 E.00988
G1 X136.116 Y107.379 E.01485
G1 X135.737 Y107.716 E.0159
G1 X135.392 Y108.08 E.01574
G1 X135.076 Y108.451 E.01526
G1 X134.745 Y108.786 E.01477
G1 X134.008 Y109.422 E.03053
G1 X133.65 Y109.763 E.0155
G1 X126.662 Y116.669 E.30802
G1 X113.179 Y103.028 E.60138
G1 X119.816 Y96.457 E.29286
G1 X120.149 Y96.073 E.01592
G1 X120.724 Y95.288 E.03051
G1 X121.743 Y94.281 E.04491
G1 X122.131 Y93.995 E.01512
G1 X122.752 Y93.486 E.02519
M204 S1000
G1 X122.777 Y93.824 F10800
G1 X122.366 Y94.297
M204 S800
;TYPE:Gap fill
;WIDTH:0.120531
G1 F1200
G1 X122.267 Y94.282 E.00065
M204 S1000
M204 S800
;WIDTH:0.147742
G1 X122.168 Y94.267 E.00087
M204 S1000
M204 S800
;WIDTH:0.147743
G1 X122.155 Y94.271 E.00012
M204 S1000
M204 S800
;WIDTH:0.138961
G1 X122.142 Y94.276 E.00011
M204 S1000
M204 S800
;WIDTH:0.132364
G1 X122.02 Y94.337 E.00102
M204 S1000
G1 X122.992 Y94.498 F10800
M204 S800
;WIDTH:0.114665
G1 F1200
M73 Q4 S10
G1 X123.096 Y94.546 E.00068
M204 S1000
M204 S800
;WIDTH:0.114664
G1 X123.147 Y94.596 E.00043
M204 S1000
;WIPE_START
G1 F8640
G1 X123.096 Y94.546 E-.01659
;WIPE_END
G1 E-.78341 F2100
G1 Z.6 F720
G1 X120.682 Y95.684 F10800
G1 Z.2 F720
G1 E.8 F2100
M204 S800
;WIDTH:0.112625
G1 F1200
M73 P4 R10
G1 X120.646 Y95.754 E.00046
M204 S1000
M204 S800
;WIDTH:0.11463
G1 X120.644 Y95.758 E.00003
M204 S1000
M204 S800
;WIDTH:0.127099
G1 X120.633 Y95.782 E.00018
M204 S1000
M204 S800
;WIDTH:0.127099
G1 X120.63 Y95.927 E.00102
M204 S1000
;WIPE_START
G1 F8640
G1 X120.633 Y95.782 E-.03359
;WIPE_END
G1 E-.76641 F2100
G1 Z.6 F720
G1 X132.151 Y106.047 F10800
G1 Z.2 F720
G1 E.8 F2100
M204 S800
;TYPE:Solid infill
;WIDTH:0.426009
G1 F1200
G1 X130.647 Y104.542 E.06777
M204 S1000
;WIPE_START
G1 F8640
G1 X132.151 Y106.047 E-.49127
;WIPE_END
G1 E-.30873 F2100
G1 Z.6 F720
G1 X124.875 Y98.77 F10800
G1 Z.2 F720
G1 E.8 F2100
M204 S800
G1 F1200
G1 X123.602 Y97.497 E.05733
G1 X123.444 Y97.643 E.00684
G1 X123.291 Y97.728 E.00559
G1 X125.521 Y99.958 E.10046
G1 X126.272 Y100.887 E.03807
G1 X126.942 Y101.629 E.03184
G1 X127.646 Y102.339 E.03184
G1 X128.382 Y103.015 E.03184
G1 X129.148 Y103.657 E.03184
G1 X129.449 Y103.886 E.01206
G1 X131.793 Y106.23 E.10557
G1 X131.607 Y106.586 E.01279
G1 X122.922 Y97.9 E.39126
G1 X122.641 Y97.988 E.00937
G1 X122.483 Y98.004 E.00505
G1 X131.488 Y107.009 E.40566
G1 X131.452 Y107.382 E.01194
G1 X131.466 Y107.528 E.00468
G1 X121.732 Y97.795 E.43848
M204 S1000
;WIPE_START
G1 F8640
G1 X124.06 Y100.122 E-.76
;WIPE_END
G1 E-.04 F2100
G1 Z.6 F720
G1 X120.181 Y96.785 F10800
G1 Z.2 F720
G1 E.8 F2100
M204 S800
G1 F1200
G1 X132.941 Y109.545 E.57482
G1 X132.668 Y109.814 E.0122
G1 X120.029 Y97.175 E.56938
G1 X119.757 Y97.444 E.0122
G1 X132.395 Y110.083 E.56936
G1 X132.123 Y110.352 E.0122
M73 P5 R10
M73 Q5 S10
G1 X119.484 Y97.714 E.56934
G1 X119.212 Y97.983 E.0122
G1 X131.85 Y110.621 E.56932
G1 X131.577 Y110.89 E.0122
G1 X118.94 Y98.253 E.5693
G1 X118.668 Y98.522 E.0122
G1 X131.305 Y111.159 E.56928
G1 X131.032 Y111.429 E.0122
G1 X118.395 Y98.792 E.56926
G1 X118.123 Y99.061 E.0122
G1 X130.759 Y111.698 E.56924
G1 X130.487 Y111.967 E.0122
G1 X117.851 Y99.331 E.56922
G1 X117.579 Y99.6 E.0122
M73 P6 R10
M73 Q6 S10
G1 X130.214 Y112.236 E.5692
G1 X129.941 Y112.505 E.0122
G1 X117.306 Y99.87 E.56919
G1 X117.034 Y100.14 E.0122
G1 X129.669 Y112.774 E.56917
G1 X129.396 Y113.043 E.0122
G1 X116.762 Y100.409 E.56915
G1 X116.49 Y100.679 E.0122
G1 X129.123 Y113.312 E.56913
G1 X128.851 Y113.581 E.0122
G1 X116.217 Y100.948 E.56911
G1 X115.945 Y101.218 E.0122
G1 X128.578 Y113.851 E.56909
G1 X128.305 Y114.12 E.0122
M73 P7 R10
M73 Q7 S10
G1 X115.673 Y101.487 E.56907
G1 X115.401 Y101.757 E.0122
G1 X128.033 Y114.389 E.56905
G1 X127.76 Y114.658 E.0122
G1 X115.128 Y102.026 E.56903
G1 X114.856 Y102.296 E.0122
G1 X127.487 Y114.927 E.56901
G1 X127.215 Y115.196 E.0122
G1 X114.584 Y102.565 E.569
G1 X114.312 Y102.835 E.0122
G1 X126.942 Y115.465 E.56898
G1 X126.669 Y115.734 E.0122
G1 X113.92 Y102.984 E.57436
M204 S1000
;WIPE_START
G1 F8640
M73 P8 R10
M73 Q8 S10
G1 X116.247 Y105.312 E-.76
;WIPE_END
G1 E-.04 F2100
G1 Z.6 F720
G1 X133.176 Y105.791 F10800
G1 Z.2 F720
G1 E.8 F2100
M204 S800
;TYPE:Gap fill
;WIDTH:0.13883
G1 F1200
G1 X133.358 Y105.738 E.00151
M204 S1000
M204 S800
;WIDTH:0.138831
G1 X133.362 Y105.738 E.00003
M204 S1000
M204 S800
;WIDTH:0.137208
G1 X133.372 Y105.74 E.00008
M204 S1000
M204 S800
;WIDTH:0.133448
G1 X133.566 Y105.779 E.00149
M204 S1000
;WIPE_START
G1 F8640
G1 X133.372 Y105.74 E-.0456
;WIPE_END
G1 E-.7544 F2100
G1 Z.6 F720
G1 X134.81 Y106.312 F10800
G1 Z.2 F720
G1 E.8 F2100
M204 S800
;WIDTH:0.118033
G1 F1200
G1 X134.942 Y106.402 E.001
M204 S1000
M204 S800
;WIDTH:0.120929
G1 X135.037 Y106.475 E.00077
M204 S1000
G1 X135.044 Y106.445 F10800
M204 S800
;WIDTH:0.144256
G1 F1200
G1 X134.991 Y106.444 E.00044
M204 S1000
M204 S800
;WIDTH:0.144257
G1 X135.001 Y106.482 E.00034
M204 S1000
M204 S800
;WIDTH:0.11459
G1 X135.051 Y106.572 E.00061
M204 S1000
G1 X135.08 Y106.461 F10800
M204 S800
;WIDTH:0.0954117
G1 F1200
G1 X135.044 Y106.445 E.00017
M204 S1000
;WIPE_START
G1 F8640
G1 X135.08 Y106.461 E-.00904
;WIPE_END
G1 E-.79096 F2100
G1 Z.6 F720
G1 X134.269 Y108.919 F10800
G1 Z.2 F720
G1 E.8 F2100
M204 S800
;WIDTH:0.125542
G1 F1200
G1 X134.133 Y109.002 E.0011
M204 S1000
M204 S800
;WIDTH:0.157764
G1 X133.996 Y109.085 E.00153
M204 S1000
G1 X133.974 Y109.05 F10800
M204 S800
;WIDTH:0.111108
G1 F1200
G1 X133.861 Y109.054 E.00065
M204 S1000
G1 X133.974 Y109.05 F10800
M204 S800
;WIDTH:0.113797
G1 F1200
G1 X134.174 Y109.03 E.00118
M204 S1000
; stop printing object LEDStand.stl id:0 copy 0
M106 S84.15
;LAYER_CHANGE
;Z:0.35
;HEIGHT:0.15
;BEFORE_LAYER_CHANGE
G92 E0.0
;0.35


;WIPE_START
G1 F8640
G1 X133.974 Y109.05 E-.04625
;WIPE_END
G1 E-.75375 F2100
G1 Z.6 F720
;AFTER_LAYER_CHANGE
;0.35
G1 X136.394 Y111.498 F10800
G1 Z.35 F720
G1 E.8 F2100
;TYPE:Skirt/Brim
;WIDTH:0.42
M73 P8 R9
G1 F3000
G1 X128.595 Y119.207 E.26521
G1 X127.311 Y119.924 E.03557
G1 X125.841 Y119.878 E.03557
G1 X124.7 Y119.185 E.03229
G1 X110.64 Y104.961 E.4837
G1 X109.923 Y103.677 E.03557
G1 X109.969 Y102.207 E.03557
G1 X110.663 Y101.066 E.03229
G1 X121.055 Y90.793 E.35341
G1 X122.339 Y90.076 E.03557
G1 X123.81 Y90.122 E.03557
G1 X124.902 Y90.768 E.0307
G1 X139.312 Y104.646 E.48384
G1 X140.06 Y105.912 E.03557
G1 X140.05 Y107.383 E.03557
G1 X139.337 Y108.589 E.03387
G1 X136.437 Y111.456 E.09863
G1 X136.172 Y111.188 F10800
G1 F3000
G1 X128.33 Y118.939 E.26666
G1 X127.125 Y119.579 E.033
M73 Q8 S9
G1 X125.767 Y119.452 E.033
G1 X124.969 Y118.919 E.02321
G1 X110.908 Y104.696 E.4837
G1 X110.268 Y103.491 E.033
G1 X110.396 Y102.133 E.033
G1 X110.928 Y101.334 E.02321
G1 X121.32 Y91.061 E.35341
G1 X122.525 Y90.421 E.033
G1 X123.884 Y90.548 E.033
G1 X124.641 Y91.04 E.02182
G1 X139.05 Y104.918 E.48384
G1 X139.72 Y106.107 E.033
G1 X139.626 Y107.468 E.033
G1 X139.072 Y108.321 E.02459
G1 X136.214 Y111.145 E.09718
; printing object LEDStand.stl id:0 copy 0
;WIPE_START
G1 F8640
G1 X133.874 Y113.459 E-.76
;WIPE_END
G1 E-.04 F2100
G1 Z.75 F720
G1 X134.351 Y108.479 F10800
G1 Z.35 F720
G1 E.8 F2100
M204 S800
;TYPE:External perimeter
;WIDTH:0.45
G1 F1500
M73 Q9 S9
G1 X134.124 Y108.6 E.00673
G1 X133.876 Y108.676 E.00674
G1 X133.619 Y108.701 E.00673
G1 X133.362 Y108.676 E.00674
G1 X133.114 Y108.6 E.00674
